(Exported by FreeCAD)
(Post Processor: script_module)
(Output Time:2024-11-21 18:48:44.043536)
(begin preamble)
%
G17 G21 G40 G49 G80 G90
M08
G21
(begin operation: Fixture)
(machine: not set, mm/min)
G54
(finish operation: Fixture)
(begin operation: Profile)
(machine: not set, mm/min)
(inactive operation)
(finish operation: Profile)
(begin operation: TC: Default Tool)
(machine: not set, mm/min)
(TC: Default Tool)
M05
M09M6 T1
M3 S15000
(finish operation: TC: Default Tool)
(begin operation: Profile001)
(machine: not set, mm/min)
(Profile001)
(Compensated Tool Path. Diameter: 3.175)
G0 Z5.200
G0 X77.920 Y29.041
G0 Z3.200
G1 X77.920 Y29.041 Z-0.050 F400.000
G2 X81.164 Y25.909 Z-0.050 I-1.156 J-4.442 F400.000
G1 X84.306 Y14.199 Z-0.050 F400.000
G2 X81.182 Y8.617 Z-0.050 I-4.435 J-1.183 F400.000
G1 X67.472 Y4.939 Z-0.050 F400.000
G2 X66.635 Y4.772 Z-0.050 I-1.736 J6.548 F400.000
G2 X65.143 Y4.745 Z-0.050 I-0.865 J6.498 F400.000
G1 X19.488 Y9.595 Z-0.050 F400.000
G2 X14.787 Y12.373 Z-0.050 I0.706 J6.562 F400.000
G1 X4.820 Y27.092 Z-0.050 F400.000
G2 X6.505 Y36.183 Z-0.050 I5.459 J3.690 F400.000
G1 X31.427 Y53.056 Z-0.050 F400.000
G2 X40.501 Y51.396 Z-0.050 I3.690 J-5.459 F400.000
G3 X68.979 Y27.537 Z-0.050 I56.539 J38.561 F400.000
G3 X69.891 Y27.509 Z-0.050 I0.499 J1.372 F400.000
G1 X75.582 Y29.034 Z-0.050 F400.000
G2 X77.920 Y29.041 Z-0.050 I1.183 J-4.435 F400.000
G1 X77.920 Y29.041 Z-0.300 F400.000
G2 X81.164 Y25.909 Z-0.300 I-1.156 J-4.442 F400.000
G1 X84.306 Y14.199 Z-0.300 F400.000
G2 X81.182 Y8.617 Z-0.300 I-4.435 J-1.183 F400.000
G1 X67.472 Y4.939 Z-0.300 F400.000
G2 X66.635 Y4.772 Z-0.300 I-1.736 J6.548 F400.000
G2 X65.143 Y4.745 Z-0.300 I-0.865 J6.498 F400.000
G1 X19.488 Y9.595 Z-0.300 F400.000
G2 X14.787 Y12.373 Z-0.300 I0.706 J6.562 F400.000
G1 X4.820 Y27.092 Z-0.300 F400.000
G2 X6.505 Y36.183 Z-0.300 I5.459 J3.690 F400.000
G1 X31.427 Y53.056 Z-0.300 F400.000
G2 X40.501 Y51.396 Z-0.300 I3.690 J-5.459 F400.000
G3 X68.979 Y27.537 Z-0.300 I56.539 J38.561 F400.000
G3 X69.891 Y27.509 Z-0.300 I0.499 J1.372 F400.000
G1 X75.582 Y29.034 Z-0.300 F400.000
G2 X77.920 Y29.041 Z-0.300 I1.183 J-4.435 F400.000
G1 X77.920 Y29.041 Z-0.550 F400.000
G2 X81.164 Y25.909 Z-0.550 I-1.156 J-4.442 F400.000
G1 X84.306 Y14.199 Z-0.550 F400.000
G2 X81.182 Y8.617 Z-0.550 I-4.435 J-1.183 F400.000
G1 X67.472 Y4.939 Z-0.550 F400.000
G2 X66.635 Y4.772 Z-0.550 I-1.736 J6.548 F400.000
G2 X65.143 Y4.745 Z-0.550 I-0.865 J6.498 F400.000
G1 X19.488 Y9.595 Z-0.550 F400.000
G2 X14.787 Y12.373 Z-0.550 I0.706 J6.562 F400.000
G1 X4.820 Y27.092 Z-0.550 F400.000
G2 X6.505 Y36.183 Z-0.550 I5.459 J3.690 F400.000
G1 X31.427 Y53.056 Z-0.550 F400.000
G2 X40.501 Y51.396 Z-0.550 I3.690 J-5.459 F400.000
G3 X68.979 Y27.537 Z-0.550 I56.539 J38.561 F400.000
G3 X69.891 Y27.509 Z-0.550 I0.499 J1.372 F400.000
G1 X75.582 Y29.034 Z-0.550 F400.000
G2 X77.920 Y29.041 Z-0.550 I1.183 J-4.435 F400.000
G1 X77.920 Y29.041 Z-0.800 F400.000
G2 X81.164 Y25.909 Z-0.800 I-1.156 J-4.442 F400.000
G1 X84.306 Y14.199 Z-0.800 F400.000
G2 X81.182 Y8.617 Z-0.800 I-4.435 J-1.183 F400.000
G1 X67.472 Y4.939 Z-0.800 F400.000
G2 X66.635 Y4.772 Z-0.800 I-1.736 J6.548 F400.000
G2 X65.143 Y4.745 Z-0.800 I-0.865 J6.498 F400.000
G1 X19.488 Y9.595 Z-0.800 F400.000
G2 X14.787 Y12.373 Z-0.800 I0.706 J6.562 F400.000
G1 X4.820 Y27.092 Z-0.800 F400.000
G2 X6.505 Y36.183 Z-0.800 I5.459 J3.690 F400.000
G1 X31.427 Y53.056 Z-0.800 F400.000
G2 X40.501 Y51.396 Z-0.800 I3.690 J-5.459 F400.000
G3 X68.979 Y27.537 Z-0.800 I56.539 J38.561 F400.000
G3 X69.891 Y27.509 Z-0.800 I0.499 J1.372 F400.000
G1 X75.582 Y29.034 Z-0.800 F400.000
G2 X77.920 Y29.041 Z-0.800 I1.183 J-4.435 F400.000
G1 X77.920 Y29.041 Z-1.050 F400.000
G2 X81.164 Y25.909 Z-1.050 I-1.156 J-4.442 F400.000
G1 X84.306 Y14.199 Z-1.050 F400.000
G2 X81.182 Y8.617 Z-1.050 I-4.435 J-1.183 F400.000
G1 X67.472 Y4.939 Z-1.050 F400.000
G2 X66.635 Y4.772 Z-1.050 I-1.736 J6.548 F400.000
G2 X65.143 Y4.745 Z-1.050 I-0.865 J6.498 F400.000
G1 X19.488 Y9.595 Z-1.050 F400.000
G2 X14.787 Y12.373 Z-1.050 I0.706 J6.562 F400.000
G1 X4.820 Y27.092 Z-1.050 F400.000
G2 X6.505 Y36.183 Z-1.050 I5.459 J3.690 F400.000
G1 X31.427 Y53.056 Z-1.050 F400.000
G2 X40.501 Y51.396 Z-1.050 I3.690 J-5.459 F400.000
G3 X68.979 Y27.537 Z-1.050 I56.539 J38.561 F400.000
G3 X69.891 Y27.509 Z-1.050 I0.499 J1.372 F400.000
G1 X75.582 Y29.034 Z-1.050 F400.000
G2 X77.920 Y29.041 Z-1.050 I1.183 J-4.435 F400.000
G1 X77.920 Y29.041 Z-1.300 F400.000
G2 X81.164 Y25.909 Z-1.300 I-1.156 J-4.442 F400.000
G1 X84.306 Y14.199 Z-1.300 F400.000
G2 X81.182 Y8.617 Z-1.300 I-4.435 J-1.183 F400.000
G1 X67.472 Y4.939 Z-1.300 F400.000
G2 X66.635 Y4.772 Z-1.300 I-1.736 J6.548 F400.000
G2 X65.143 Y4.745 Z-1.300 I-0.865 J6.498 F400.000
G1 X19.488 Y9.595 Z-1.300 F400.000
G2 X14.787 Y12.373 Z-1.300 I0.706 J6.562 F400.000
G1 X4.820 Y27.092 Z-1.300 F400.000
G2 X6.505 Y36.183 Z-1.300 I5.459 J3.690 F400.000
G1 X31.427 Y53.056 Z-1.300 F400.000
G2 X40.501 Y51.396 Z-1.300 I3.690 J-5.459 F400.000
G3 X68.979 Y27.537 Z-1.300 I56.539 J38.561 F400.000
G3 X69.891 Y27.509 Z-1.300 I0.499 J1.372 F400.000
G1 X75.582 Y29.034 Z-1.300 F400.000
G2 X77.920 Y29.041 Z-1.300 I1.183 J-4.435 F400.000
G1 X77.920 Y29.041 Z-1.550 F400.000
G2 X81.164 Y25.909 Z-1.550 I-1.156 J-4.442 F400.000
G1 X84.306 Y14.199 Z-1.550 F400.000
G2 X81.182 Y8.617 Z-1.550 I-4.435 J-1.183 F400.000
G1 X67.472 Y4.939 Z-1.550 F400.000
G2 X66.635 Y4.772 Z-1.550 I-1.736 J6.548 F400.000
G2 X65.143 Y4.745 Z-1.550 I-0.865 J6.498 F400.000
G1 X19.488 Y9.595 Z-1.550 F400.000
G2 X14.787 Y12.373 Z-1.550 I0.706 J6.562 F400.000
G1 X4.820 Y27.092 Z-1.550 F400.000
G2 X6.505 Y36.183 Z-1.550 I5.459 J3.690 F400.000
G1 X31.427 Y53.056 Z-1.550 F400.000
G2 X40.501 Y51.396 Z-1.550 I3.690 J-5.459 F400.000
G3 X68.979 Y27.537 Z-1.550 I56.539 J38.561 F400.000
G3 X69.891 Y27.509 Z-1.550 I0.499 J1.372 F400.000
G1 X75.582 Y29.034 Z-1.550 F400.000
G2 X77.920 Y29.041 Z-1.550 I1.183 J-4.435 F400.000
G1 X77.920 Y29.041 Z-1.800 F400.000
G2 X81.164 Y25.909 Z-1.800 I-1.156 J-4.442 F400.000
G1 X84.306 Y14.199 Z-1.800 F400.000
G2 X81.182 Y8.617 Z-1.800 I-4.435 J-1.183 F400.000
G1 X67.472 Y4.939 Z-1.800 F400.000
G2 X66.635 Y4.772 Z-1.800 I-1.736 J6.548 F400.000
G2 X65.143 Y4.745 Z-1.800 I-0.865 J6.498 F400.000
G1 X19.488 Y9.595 Z-1.800 F400.000
G2 X14.787 Y12.373 Z-1.800 I0.706 J6.562 F400.000
G1 X4.820 Y27.092 Z-1.800 F400.000
G2 X6.505 Y36.183 Z-1.800 I5.459 J3.690 F400.000
G1 X31.427 Y53.056 Z-1.800 F400.000
G2 X40.501 Y51.396 Z-1.800 I3.690 J-5.459 F400.000
G3 X68.979 Y27.537 Z-1.800 I56.539 J38.561 F400.000
G3 X69.891 Y27.509 Z-1.800 I0.499 J1.372 F400.000
G1 X75.582 Y29.034 Z-1.800 F400.000
G2 X77.920 Y29.041 Z-1.800 I1.183 J-4.435 F400.000
G1 X77.920 Y29.041 Z-2.050 F400.000
G2 X81.164 Y25.909 Z-2.050 I-1.156 J-4.442 F400.000
G1 X84.306 Y14.199 Z-2.050 F400.000
G2 X81.182 Y8.617 Z-2.050 I-4.435 J-1.183 F400.000
G1 X67.472 Y4.939 Z-2.050 F400.000
G2 X66.635 Y4.772 Z-2.050 I-1.736 J6.548 F400.000
G2 X65.143 Y4.745 Z-2.050 I-0.865 J6.498 F400.000
G1 X19.488 Y9.595 Z-2.050 F400.000
G2 X14.787 Y12.373 Z-2.050 I0.706 J6.562 F400.000
G1 X4.820 Y27.092 Z-2.050 F400.000
G2 X6.505 Y36.183 Z-2.050 I5.459 J3.690 F400.000
G1 X31.427 Y53.056 Z-2.050 F400.000
G2 X40.501 Y51.396 Z-2.050 I3.690 J-5.459 F400.000
G3 X68.979 Y27.537 Z-2.050 I56.539 J38.561 F400.000
G3 X69.891 Y27.509 Z-2.050 I0.499 J1.372 F400.000
G1 X75.582 Y29.034 Z-2.050 F400.000
G2 X77.920 Y29.041 Z-2.050 I1.183 J-4.435 F400.000
G1 X77.920 Y29.041 Z-2.300 F400.000
G2 X81.164 Y25.909 Z-2.300 I-1.156 J-4.442 F400.000
G1 X84.306 Y14.199 Z-2.300 F400.000
G2 X81.182 Y8.617 Z-2.300 I-4.435 J-1.183 F400.000
G1 X67.472 Y4.939 Z-2.300 F400.000
G2 X66.635 Y4.772 Z-2.300 I-1.736 J6.548 F400.000
G2 X65.143 Y4.745 Z-2.300 I-0.865 J6.498 F400.000
G1 X19.488 Y9.595 Z-2.300 F400.000
G2 X14.787 Y12.373 Z-2.300 I0.706 J6.562 F400.000
G1 X4.820 Y27.092 Z-2.300 F400.000
G2 X6.505 Y36.183 Z-2.300 I5.459 J3.690 F400.000
G1 X31.427 Y53.056 Z-2.300 F400.000
G2 X40.501 Y51.396 Z-2.300 I3.690 J-5.459 F400.000
G3 X68.979 Y27.537 Z-2.300 I56.539 J38.561 F400.000
G3 X69.891 Y27.509 Z-2.300 I0.499 J1.372 F400.000
G1 X75.582 Y29.034 Z-2.300 F400.000
G2 X77.920 Y29.041 Z-2.300 I1.183 J-4.435 F400.000
G1 X77.920 Y29.041 Z-2.500 F400.000
G2 X81.164 Y25.909 Z-2.500 I-1.156 J-4.442 F400.000
G1 X84.306 Y14.199 Z-2.500 F400.000
G2 X81.182 Y8.617 Z-2.500 I-4.435 J-1.183 F400.000
G1 X67.472 Y4.939 Z-2.500 F400.000
G2 X66.635 Y4.772 Z-2.500 I-1.736 J6.548 F400.000
G2 X65.143 Y4.745 Z-2.500 I-0.865 J6.498 F400.000
G1 X19.488 Y9.595 Z-2.500 F400.000
G2 X14.787 Y12.373 Z-2.500 I0.706 J6.562 F400.000
G1 X4.820 Y27.092 Z-2.500 F400.000
G2 X6.505 Y36.183 Z-2.500 I5.459 J3.690 F400.000
G1 X31.427 Y53.056 Z-2.500 F400.000
G2 X40.501 Y51.396 Z-2.500 I3.690 J-5.459 F400.000
G3 X68.979 Y27.537 Z-2.500 I56.539 J38.561 F400.000
G3 X69.891 Y27.509 Z-2.500 I0.499 J1.372 F400.000
G1 X75.582 Y29.034 Z-2.500 F400.000
G2 X77.920 Y29.041 Z-2.500 I1.183 J-4.435 F400.000
G0 Z5.200
G0 Z5.200
(finish operation: Profile001)
(begin postamble)
M05 M09
G17 G90 G80 G40
M30
