(Exported by FreeCAD)
(Post Processor: script_module)
(Output Time:2024-11-21 18:48:11.771918)
(begin preamble)
%
G17 G21 G40 G49 G80 G90
M08
G21
(begin operation: Fixture)
(machine: not set, mm/min)
G54
(finish operation: Fixture)
(begin operation: TC: Default Tool)
(machine: not set, mm/min)
(TC: Default Tool)
M05
M09M6 T1
M3 S15000
(finish operation: TC: Default Tool)
(begin operation: Profile)
(machine: not set, mm/min)
(Profile)
(Compensated Tool Path. Diameter: 3.175)
G0 Z5.200
G0 X76.290 Y24.280
G0 Z3.200
G1 X76.290 Y24.280 Z-0.050 F400.000
G2 X76.506 Y23.271 Z-0.050 I-0.013 J-0.531 F400.000
G2 X75.798 Y23.520 Z-0.050 I-0.229 J0.479 F400.000
G2 X76.048 Y24.228 Z-0.050 I0.479 J0.229 F400.000
G2 X76.290 Y24.280 Z-0.050 I0.229 J-0.479 F400.000
G0 Z5.200
G0 X69.035 Y11.224 Z5.200
G0 X69.035 Y11.224 Z3.200
G1 X69.035 Y11.224 Z-0.050 F400.000
G2 X68.996 Y10.275 Z-0.050 I-0.258 J-0.465 F400.000
G2 X68.293 Y10.539 Z-0.050 I-0.220 J0.484 F400.000
G2 X68.557 Y11.243 Z-0.050 I0.484 J0.220 F400.000
G2 X69.035 Y11.224 Z-0.050 I0.220 J-0.484 F400.000
G0 Z5.200
G0 X38.460 Y30.557 Z5.200
G0 X38.460 Y30.557 Z3.200
G1 X38.460 Y30.557 Z-0.050 F400.000
G2 X38.231 Y30.357 Z-0.050 I-0.449 J0.284 F400.000
G1 X38.143 Y30.326 Z-0.050 F400.000
G2 X37.874 Y31.353 Z-0.050 I-0.132 J0.514 F400.000
G2 X38.460 Y30.557 Z-0.050 I0.138 J-0.513 F400.000
G0 Z5.200
G0 X32.343 Y31.840 Z5.200
G0 X32.343 Y31.840 Z3.200
G1 X32.343 Y31.840 Z-0.050 F400.000
G2 X27.771 Y27.490 Z-0.050 I-5.442 J1.142 F400.000
G2 X21.410 Y32.112 Z-0.050 I-0.870 J5.492 F400.000
G2 X26.032 Y38.473 Z-0.050 I5.492 J0.870 F400.000
G2 X32.343 Y31.840 Z-0.050 I0.870 J-5.492 F400.000
G0 Z5.200
G0 X25.083 Y22.295 Z5.200
G0 X25.083 Y22.295 Z3.200
G1 X25.083 Y22.295 Z-0.050 F400.000
G2 X24.981 Y21.388 Z-0.050 I-0.322 J-0.423 F400.000
G2 X24.277 Y21.652 Z-0.050 I-0.220 J0.484 F400.000
G2 X24.541 Y22.356 Z-0.050 I0.484 J0.220 F400.000
G2 X25.083 Y22.295 Z-0.050 I0.220 J-0.484 F400.000
G0 Z5.200
G0 X16.104 Y34.692 Z5.200
G0 X16.104 Y34.692 Z3.200
G1 X16.104 Y34.692 Z-0.050 F400.000
G2 X16.021 Y34.644 Z-0.050 I-0.311 J0.430 F400.000
G2 X15.314 Y34.893 Z-0.050 I-0.229 J0.479 F400.000
G2 X15.563 Y35.601 Z-0.050 I0.479 J0.229 F400.000
G2 X16.104 Y34.692 Z-0.050 I0.229 J-0.479 F400.000
G0 Z5.200
G0 X28.613 Y43.779 Z5.200
G0 X28.613 Y43.779 Z3.200
G1 X28.613 Y43.779 Z-0.050 F400.000
G2 X28.813 Y44.569 Z-0.050 I0.429 J0.312 F400.000
G2 X29.272 Y43.612 Z-0.050 I0.229 J-0.479 F400.000
G2 X28.613 Y43.779 Z-0.050 I-0.229 J0.479 F400.000
G1 X28.613 Y43.779 Z-0.300 F400.000
G2 X28.813 Y44.569 Z-0.300 I0.429 J0.312 F400.000
G2 X29.272 Y43.612 Z-0.300 I0.229 J-0.479 F400.000
G2 X28.613 Y43.779 Z-0.300 I-0.229 J0.479 F400.000
G0 Z5.200
G0 X27.772 Y38.473 Z5.200
G0 X27.772 Y38.473 Z3.200
G1 X27.772 Y38.473 Z-0.300 F400.000
G2 X27.771 Y27.490 Z-0.300 I-0.870 J-5.492 F400.000
G2 X21.410 Y32.112 Z-0.300 I-0.870 J5.492 F400.000
G2 X26.032 Y38.473 Z-0.300 I5.492 J0.870 F400.000
G2 X27.772 Y38.473 Z-0.300 I0.870 J-5.492 F400.000
G0 Z5.200
G0 X16.303 Y35.265 Z5.200
G0 X16.303 Y35.265 Z3.200
G1 X16.303 Y35.265 Z-0.300 F400.000
G2 X16.021 Y34.644 Z-0.300 I-0.511 J-0.143 F400.000
G2 X15.314 Y34.893 Z-0.300 I-0.229 J0.479 F400.000
G2 X15.563 Y35.601 Z-0.300 I0.479 J0.229 F400.000
G2 X16.303 Y35.265 Z-0.300 I0.229 J-0.479 F400.000
G0 Z5.200
G0 X24.477 Y22.321 Z5.200
G0 X24.477 Y22.321 Z3.200
G1 X24.477 Y22.321 Z-0.300 F400.000
G2 X24.541 Y22.356 Z-0.300 I0.284 J-0.449 F400.000
G2 X24.981 Y21.388 Z-0.300 I0.220 J-0.484 F400.000
G2 X24.477 Y22.321 Z-0.300 I-0.220 J0.484 F400.000
G0 Z5.200
G0 X37.562 Y30.558 Z5.200
G0 X37.562 Y30.558 Z3.200
G1 X37.562 Y30.558 Z-0.300 F400.000
G2 X37.874 Y31.353 Z-0.300 I0.449 J0.283 F400.000
G2 X38.231 Y30.357 Z-0.300 I0.138 J-0.513 F400.000
G1 X38.143 Y30.326 Z-0.300 F400.000
G2 X37.562 Y30.558 Z-0.300 I-0.132 J0.514 F400.000
G0 Z5.200
G0 X68.328 Y11.044 Z5.200
G0 X68.328 Y11.044 Z3.200
G1 X68.328 Y11.044 Z-0.300 F400.000
G2 X68.557 Y11.243 Z-0.300 I0.449 J-0.285 F400.000
G2 X68.996 Y10.275 Z-0.300 I0.220 J-0.484 F400.000
G2 X68.328 Y11.044 Z-0.300 I-0.220 J0.484 F400.000
G0 Z5.200
G0 X75.995 Y23.300 Z5.200
G0 X75.995 Y23.300 Z3.200
G1 X75.995 Y23.300 Z-0.300 F400.000
G2 X76.048 Y24.228 Z-0.300 I0.281 J0.450 F400.000
G2 X76.755 Y23.979 Z-0.300 I0.229 J-0.479 F400.000
G2 X76.506 Y23.271 Z-0.300 I-0.479 J-0.229 F400.000
G2 X75.995 Y23.300 Z-0.300 I-0.229 J0.479 F400.000
G1 X75.995 Y23.300 Z-0.550 F400.000
G2 X76.048 Y24.228 Z-0.550 I0.281 J0.450 F400.000
G2 X76.755 Y23.979 Z-0.550 I0.229 J-0.479 F400.000
G2 X76.506 Y23.271 Z-0.550 I-0.479 J-0.229 F400.000
G2 X75.995 Y23.300 Z-0.550 I-0.229 J0.479 F400.000
G0 Z5.200
G0 X69.042 Y11.220 Z5.200
G0 X69.042 Y11.220 Z3.200
G1 X69.042 Y11.220 Z-0.550 F400.000
G2 X68.996 Y10.275 Z-0.550 I-0.265 J-0.461 F400.000
G2 X68.293 Y10.539 Z-0.550 I-0.220 J0.484 F400.000
G2 X68.557 Y11.243 Z-0.550 I0.484 J0.220 F400.000
G2 X69.042 Y11.220 Z-0.550 I0.220 J-0.484 F400.000
G0 Z5.200
G0 X38.460 Y30.557 Z5.200
G0 X38.460 Y30.557 Z3.200
G1 X38.460 Y30.557 Z-0.550 F400.000
G2 X38.231 Y30.357 Z-0.550 I-0.449 J0.284 F400.000
G1 X38.143 Y30.326 Z-0.550 F400.000
G2 X37.874 Y31.353 Z-0.550 I-0.132 J0.514 F400.000
G2 X38.460 Y30.557 Z-0.550 I0.138 J-0.513 F400.000
G0 Z5.200
G0 X32.343 Y31.840 Z5.200
G0 X32.343 Y31.840 Z3.200
G1 X32.343 Y31.840 Z-0.550 F400.000
G2 X27.771 Y27.490 Z-0.550 I-5.442 J1.142 F400.000
G2 X21.410 Y32.112 Z-0.550 I-0.870 J5.492 F400.000
G2 X26.032 Y38.473 Z-0.550 I5.492 J0.870 F400.000
G2 X32.343 Y31.840 Z-0.550 I0.870 J-5.492 F400.000
G0 Z5.200
G0 X25.083 Y22.295 Z5.200
G0 X25.083 Y22.295 Z3.200
G1 X25.083 Y22.295 Z-0.550 F400.000
G2 X24.981 Y21.388 Z-0.550 I-0.322 J-0.423 F400.000
G2 X24.277 Y21.652 Z-0.550 I-0.220 J0.484 F400.000
G2 X24.541 Y22.356 Z-0.550 I0.484 J0.220 F400.000
G2 X25.083 Y22.295 Z-0.550 I0.220 J-0.484 F400.000
G0 Z5.200
G0 X16.104 Y34.692 Z5.200
G0 X16.104 Y34.692 Z3.200
G1 X16.104 Y34.692 Z-0.550 F400.000
G2 X16.021 Y34.644 Z-0.550 I-0.311 J0.430 F400.000
G2 X15.314 Y34.893 Z-0.550 I-0.229 J0.479 F400.000
G2 X15.563 Y35.601 Z-0.550 I0.479 J0.229 F400.000
G2 X16.104 Y34.692 Z-0.550 I0.229 J-0.479 F400.000
G0 Z5.200
G0 X28.613 Y43.779 Z5.200
G0 X28.613 Y43.779 Z3.200
G1 X28.613 Y43.779 Z-0.550 F400.000
G2 X28.813 Y44.569 Z-0.550 I0.429 J0.312 F400.000
G2 X29.272 Y43.612 Z-0.550 I0.229 J-0.479 F400.000
G2 X28.613 Y43.779 Z-0.550 I-0.229 J0.479 F400.000
G1 X28.613 Y43.779 Z-0.800 F400.000
G2 X28.813 Y44.569 Z-0.800 I0.429 J0.312 F400.000
G2 X29.272 Y43.612 Z-0.800 I0.229 J-0.479 F400.000
G2 X28.613 Y43.779 Z-0.800 I-0.229 J0.479 F400.000
G0 Z5.200
G0 X27.772 Y38.473 Z5.200
G0 X27.772 Y38.473 Z3.200
G1 X27.772 Y38.473 Z-0.800 F400.000
G2 X27.771 Y27.490 Z-0.800 I-0.870 J-5.492 F400.000
G2 X21.410 Y32.112 Z-0.800 I-0.870 J5.492 F400.000
G2 X26.032 Y38.473 Z-0.800 I5.492 J0.870 F400.000
G2 X27.772 Y38.473 Z-0.800 I0.870 J-5.492 F400.000
G0 Z5.200
G0 X16.303 Y35.265 Z5.200
G0 X16.303 Y35.265 Z3.200
G1 X16.303 Y35.265 Z-0.800 F400.000
G2 X16.021 Y34.644 Z-0.800 I-0.511 J-0.143 F400.000
G2 X15.314 Y34.893 Z-0.800 I-0.229 J0.479 F400.000
G2 X15.563 Y35.601 Z-0.800 I0.479 J0.229 F400.000
G2 X16.303 Y35.265 Z-0.800 I0.229 J-0.479 F400.000
G0 Z5.200
G0 X24.477 Y22.321 Z5.200
G0 X24.477 Y22.321 Z3.200
G1 X24.477 Y22.321 Z-0.800 F400.000
G2 X24.541 Y22.356 Z-0.800 I0.284 J-0.449 F400.000
G2 X24.981 Y21.388 Z-0.800 I0.220 J-0.484 F400.000
G2 X24.477 Y22.321 Z-0.800 I-0.220 J0.484 F400.000
G0 Z5.200
G0 X37.562 Y30.558 Z5.200
G0 X37.562 Y30.558 Z3.200
G1 X37.562 Y30.558 Z-0.800 F400.000
G2 X37.874 Y31.353 Z-0.800 I0.449 J0.283 F400.000
G2 X38.231 Y30.357 Z-0.800 I0.138 J-0.513 F400.000
G1 X38.143 Y30.326 Z-0.800 F400.000
G2 X37.562 Y30.558 Z-0.800 I-0.132 J0.514 F400.000
G0 Z5.200
G0 X68.328 Y11.044 Z5.200
G0 X68.328 Y11.044 Z3.200
G1 X68.328 Y11.044 Z-0.800 F400.000
G2 X68.557 Y11.243 Z-0.800 I0.449 J-0.285 F400.000
G2 X68.996 Y10.275 Z-0.800 I0.220 J-0.484 F400.000
G2 X68.328 Y11.044 Z-0.800 I-0.220 J0.484 F400.000
G0 Z5.200
G0 X75.995 Y23.300 Z5.200
G0 X75.995 Y23.300 Z3.200
G1 X75.995 Y23.300 Z-0.800 F400.000
G2 X76.048 Y24.228 Z-0.800 I0.281 J0.450 F400.000
G2 X76.755 Y23.979 Z-0.800 I0.229 J-0.479 F400.000
G2 X76.506 Y23.271 Z-0.800 I-0.479 J-0.229 F400.000
G2 X75.995 Y23.300 Z-0.800 I-0.229 J0.479 F400.000
G1 X75.995 Y23.300 Z-1.050 F400.000
G2 X76.048 Y24.228 Z-1.050 I0.281 J0.450 F400.000
G2 X76.755 Y23.979 Z-1.050 I0.229 J-0.479 F400.000
G2 X76.506 Y23.271 Z-1.050 I-0.479 J-0.229 F400.000
G2 X75.995 Y23.300 Z-1.050 I-0.229 J0.479 F400.000
G0 Z5.200
G0 X69.042 Y11.220 Z5.200
G0 X69.042 Y11.220 Z3.200
G1 X69.042 Y11.220 Z-1.050 F400.000
G2 X68.996 Y10.275 Z-1.050 I-0.265 J-0.461 F400.000
G2 X68.293 Y10.539 Z-1.050 I-0.220 J0.484 F400.000
G2 X68.557 Y11.243 Z-1.050 I0.484 J0.220 F400.000
G2 X69.042 Y11.220 Z-1.050 I0.220 J-0.484 F400.000
G0 Z5.200
G0 X38.460 Y30.557 Z5.200
G0 X38.460 Y30.557 Z3.200
G1 X38.460 Y30.557 Z-1.050 F400.000
G2 X38.231 Y30.357 Z-1.050 I-0.449 J0.284 F400.000
G1 X38.143 Y30.326 Z-1.050 F400.000
G2 X37.874 Y31.353 Z-1.050 I-0.132 J0.514 F400.000
G2 X38.460 Y30.557 Z-1.050 I0.138 J-0.513 F400.000
G0 Z5.200
G0 X32.343 Y31.840 Z5.200
G0 X32.343 Y31.840 Z3.200
G1 X32.343 Y31.840 Z-1.050 F400.000
G2 X27.771 Y27.490 Z-1.050 I-5.442 J1.142 F400.000
G2 X21.410 Y32.112 Z-1.050 I-0.870 J5.492 F400.000
G2 X26.032 Y38.473 Z-1.050 I5.492 J0.870 F400.000
G2 X32.343 Y31.840 Z-1.050 I0.870 J-5.492 F400.000
G0 Z5.200
G0 X25.083 Y22.295 Z5.200
G0 X25.083 Y22.295 Z3.200
G1 X25.083 Y22.295 Z-1.050 F400.000
G2 X24.981 Y21.388 Z-1.050 I-0.322 J-0.423 F400.000
G2 X24.277 Y21.652 Z-1.050 I-0.220 J0.484 F400.000
G2 X24.541 Y22.356 Z-1.050 I0.484 J0.220 F400.000
G2 X25.083 Y22.295 Z-1.050 I0.220 J-0.484 F400.000
G0 Z5.200
G0 X16.104 Y34.692 Z5.200
G0 X16.104 Y34.692 Z3.200
G1 X16.104 Y34.692 Z-1.050 F400.000
G2 X16.021 Y34.644 Z-1.050 I-0.311 J0.430 F400.000
G2 X15.314 Y34.893 Z-1.050 I-0.229 J0.479 F400.000
G2 X15.563 Y35.601 Z-1.050 I0.479 J0.229 F400.000
G2 X16.104 Y34.692 Z-1.050 I0.229 J-0.479 F400.000
G0 Z5.200
G0 X28.613 Y43.779 Z5.200
G0 X28.613 Y43.779 Z3.200
G1 X28.613 Y43.779 Z-1.050 F400.000
G2 X28.813 Y44.569 Z-1.050 I0.429 J0.312 F400.000
G2 X29.272 Y43.612 Z-1.050 I0.229 J-0.479 F400.000
G2 X28.613 Y43.779 Z-1.050 I-0.229 J0.479 F400.000
G1 X28.613 Y43.779 Z-1.300 F400.000
G2 X28.813 Y44.569 Z-1.300 I0.429 J0.312 F400.000
G2 X29.272 Y43.612 Z-1.300 I0.229 J-0.479 F400.000
G2 X28.613 Y43.779 Z-1.300 I-0.229 J0.479 F400.000
G0 Z5.200
G0 X27.772 Y38.473 Z5.200
G0 X27.772 Y38.473 Z3.200
G1 X27.772 Y38.473 Z-1.300 F400.000
G2 X27.771 Y27.490 Z-1.300 I-0.870 J-5.492 F400.000
G2 X21.410 Y32.112 Z-1.300 I-0.870 J5.492 F400.000
G2 X26.032 Y38.473 Z-1.300 I5.492 J0.870 F400.000
G2 X27.772 Y38.473 Z-1.300 I0.870 J-5.492 F400.000
G0 Z5.200
G0 X16.303 Y35.265 Z5.200
G0 X16.303 Y35.265 Z3.200
G1 X16.303 Y35.265 Z-1.300 F400.000
G2 X16.021 Y34.644 Z-1.300 I-0.511 J-0.143 F400.000
G2 X15.314 Y34.893 Z-1.300 I-0.229 J0.479 F400.000
G2 X15.563 Y35.601 Z-1.300 I0.479 J0.229 F400.000
G2 X16.303 Y35.265 Z-1.300 I0.229 J-0.479 F400.000
G0 Z5.200
G0 X24.477 Y22.321 Z5.200
G0 X24.477 Y22.321 Z3.200
G1 X24.477 Y22.321 Z-1.300 F400.000
G2 X24.541 Y22.356 Z-1.300 I0.284 J-0.449 F400.000
G2 X24.981 Y21.388 Z-1.300 I0.220 J-0.484 F400.000
G2 X24.477 Y22.321 Z-1.300 I-0.220 J0.484 F400.000
G0 Z5.200
G0 X37.562 Y30.558 Z5.200
G0 X37.562 Y30.558 Z3.200
G1 X37.562 Y30.558 Z-1.300 F400.000
G2 X37.874 Y31.353 Z-1.300 I0.449 J0.283 F400.000
G2 X38.231 Y30.357 Z-1.300 I0.138 J-0.513 F400.000
G1 X38.143 Y30.326 Z-1.300 F400.000
G2 X37.562 Y30.558 Z-1.300 I-0.132 J0.514 F400.000
G0 Z5.200
G0 X68.328 Y11.044 Z5.200
G0 X68.328 Y11.044 Z3.200
G1 X68.328 Y11.044 Z-1.300 F400.000
G2 X68.557 Y11.243 Z-1.300 I0.449 J-0.285 F400.000
G2 X68.996 Y10.275 Z-1.300 I0.220 J-0.484 F400.000
G2 X68.328 Y11.044 Z-1.300 I-0.220 J0.484 F400.000
G0 Z5.200
G0 X75.995 Y23.300 Z5.200
G0 X75.995 Y23.300 Z3.200
G1 X75.995 Y23.300 Z-1.300 F400.000
G2 X76.048 Y24.228 Z-1.300 I0.281 J0.450 F400.000
G2 X76.755 Y23.979 Z-1.300 I0.229 J-0.479 F400.000
G2 X76.506 Y23.271 Z-1.300 I-0.479 J-0.229 F400.000
G2 X75.995 Y23.300 Z-1.300 I-0.229 J0.479 F400.000
G1 X75.995 Y23.300 Z-1.550 F400.000
G2 X76.048 Y24.228 Z-1.550 I0.281 J0.450 F400.000
G2 X76.755 Y23.979 Z-1.550 I0.229 J-0.479 F400.000
G2 X76.506 Y23.271 Z-1.550 I-0.479 J-0.229 F400.000
G2 X75.995 Y23.300 Z-1.550 I-0.229 J0.479 F400.000
G0 Z5.200
G0 X69.042 Y11.220 Z5.200
G0 X69.042 Y11.220 Z3.200
G1 X69.042 Y11.220 Z-1.550 F400.000
G2 X68.996 Y10.275 Z-1.550 I-0.265 J-0.461 F400.000
G2 X68.293 Y10.539 Z-1.550 I-0.220 J0.484 F400.000
G2 X68.557 Y11.243 Z-1.550 I0.484 J0.220 F400.000
G2 X69.042 Y11.220 Z-1.550 I0.220 J-0.484 F400.000
G0 Z5.200
G0 X38.460 Y30.557 Z5.200
G0 X38.460 Y30.557 Z3.200
G1 X38.460 Y30.557 Z-1.550 F400.000
G2 X38.231 Y30.357 Z-1.550 I-0.449 J0.284 F400.000
G1 X38.143 Y30.326 Z-1.550 F400.000
G2 X37.874 Y31.353 Z-1.550 I-0.132 J0.514 F400.000
G2 X38.460 Y30.557 Z-1.550 I0.138 J-0.513 F400.000
G0 Z5.200
G0 X32.343 Y31.840 Z5.200
G0 X32.343 Y31.840 Z3.200
G1 X32.343 Y31.840 Z-1.550 F400.000
G2 X27.771 Y27.490 Z-1.550 I-5.442 J1.142 F400.000
G2 X21.410 Y32.112 Z-1.550 I-0.870 J5.492 F400.000
G2 X26.032 Y38.473 Z-1.550 I5.492 J0.870 F400.000
G2 X32.343 Y31.840 Z-1.550 I0.870 J-5.492 F400.000
G0 Z5.200
G0 X25.083 Y22.295 Z5.200
G0 X25.083 Y22.295 Z3.200
G1 X25.083 Y22.295 Z-1.550 F400.000
G2 X24.981 Y21.388 Z-1.550 I-0.322 J-0.423 F400.000
G2 X24.277 Y21.652 Z-1.550 I-0.220 J0.484 F400.000
G2 X24.541 Y22.356 Z-1.550 I0.484 J0.220 F400.000
G2 X25.083 Y22.295 Z-1.550 I0.220 J-0.484 F400.000
G0 Z5.200
G0 X16.104 Y34.692 Z5.200
G0 X16.104 Y34.692 Z3.200
G1 X16.104 Y34.692 Z-1.550 F400.000
G2 X16.021 Y34.644 Z-1.550 I-0.311 J0.430 F400.000
G2 X15.314 Y34.893 Z-1.550 I-0.229 J0.479 F400.000
G2 X15.563 Y35.601 Z-1.550 I0.479 J0.229 F400.000
G2 X16.104 Y34.692 Z-1.550 I0.229 J-0.479 F400.000
G0 Z5.200
G0 X28.613 Y43.779 Z5.200
G0 X28.613 Y43.779 Z3.200
G1 X28.613 Y43.779 Z-1.550 F400.000
G2 X28.813 Y44.569 Z-1.550 I0.429 J0.312 F400.000
G2 X29.272 Y43.612 Z-1.550 I0.229 J-0.479 F400.000
G2 X28.613 Y43.779 Z-1.550 I-0.229 J0.479 F400.000
G1 X28.613 Y43.779 Z-1.800 F400.000
G2 X28.813 Y44.569 Z-1.800 I0.429 J0.312 F400.000
G2 X29.272 Y43.612 Z-1.800 I0.229 J-0.479 F400.000
G2 X28.613 Y43.779 Z-1.800 I-0.229 J0.479 F400.000
G0 Z5.200
G0 X27.772 Y38.473 Z5.200
G0 X27.772 Y38.473 Z3.200
G1 X27.772 Y38.473 Z-1.800 F400.000
G2 X27.771 Y27.490 Z-1.800 I-0.870 J-5.492 F400.000
G2 X21.410 Y32.112 Z-1.800 I-0.870 J5.492 F400.000
G2 X26.032 Y38.473 Z-1.800 I5.492 J0.870 F400.000
G2 X27.772 Y38.473 Z-1.800 I0.870 J-5.492 F400.000
G0 Z5.200
G0 X16.303 Y35.265 Z5.200
G0 X16.303 Y35.265 Z3.200
G1 X16.303 Y35.265 Z-1.800 F400.000
G2 X16.021 Y34.644 Z-1.800 I-0.511 J-0.143 F400.000
G2 X15.314 Y34.893 Z-1.800 I-0.229 J0.479 F400.000
G2 X15.563 Y35.601 Z-1.800 I0.479 J0.229 F400.000
G2 X16.303 Y35.265 Z-1.800 I0.229 J-0.479 F400.000
G0 Z5.200
G0 X24.477 Y22.321 Z5.200
G0 X24.477 Y22.321 Z3.200
G1 X24.477 Y22.321 Z-1.800 F400.000
G2 X24.541 Y22.356 Z-1.800 I0.284 J-0.449 F400.000
G2 X24.981 Y21.388 Z-1.800 I0.220 J-0.484 F400.000
G2 X24.477 Y22.321 Z-1.800 I-0.220 J0.484 F400.000
G0 Z5.200
G0 X37.562 Y30.558 Z5.200
G0 X37.562 Y30.558 Z3.200
G1 X37.562 Y30.558 Z-1.800 F400.000
G2 X37.874 Y31.353 Z-1.800 I0.449 J0.283 F400.000
G2 X38.231 Y30.357 Z-1.800 I0.138 J-0.513 F400.000
G1 X38.143 Y30.326 Z-1.800 F400.000
G2 X37.562 Y30.558 Z-1.800 I-0.132 J0.514 F400.000
G0 Z5.200
G0 X68.328 Y11.044 Z5.200
G0 X68.328 Y11.044 Z3.200
G1 X68.328 Y11.044 Z-1.800 F400.000
G2 X68.557 Y11.243 Z-1.800 I0.449 J-0.285 F400.000
G2 X68.996 Y10.275 Z-1.800 I0.220 J-0.484 F400.000
G2 X68.328 Y11.044 Z-1.800 I-0.220 J0.484 F400.000
G0 Z5.200
G0 X75.995 Y23.300 Z5.200
G0 X75.995 Y23.300 Z3.200
G1 X75.995 Y23.300 Z-1.800 F400.000
G2 X76.048 Y24.228 Z-1.800 I0.281 J0.450 F400.000
G2 X76.755 Y23.979 Z-1.800 I0.229 J-0.479 F400.000
G2 X76.506 Y23.271 Z-1.800 I-0.479 J-0.229 F400.000
G2 X75.995 Y23.300 Z-1.800 I-0.229 J0.479 F400.000
G1 X75.995 Y23.300 Z-2.050 F400.000
G2 X76.048 Y24.228 Z-2.050 I0.281 J0.450 F400.000
G2 X76.755 Y23.979 Z-2.050 I0.229 J-0.479 F400.000
G2 X76.506 Y23.271 Z-2.050 I-0.479 J-0.229 F400.000
G2 X75.995 Y23.300 Z-2.050 I-0.229 J0.479 F400.000
G0 Z5.200
G0 X69.042 Y11.220 Z5.200
G0 X69.042 Y11.220 Z3.200
G1 X69.042 Y11.220 Z-2.050 F400.000
G2 X68.996 Y10.275 Z-2.050 I-0.265 J-0.461 F400.000
G2 X68.293 Y10.539 Z-2.050 I-0.220 J0.484 F400.000
G2 X68.557 Y11.243 Z-2.050 I0.484 J0.220 F400.000
G2 X69.042 Y11.220 Z-2.050 I0.220 J-0.484 F400.000
G0 Z5.200
G0 X38.460 Y30.557 Z5.200
G0 X38.460 Y30.557 Z3.200
G1 X38.460 Y30.557 Z-2.050 F400.000
G2 X38.231 Y30.357 Z-2.050 I-0.449 J0.284 F400.000
G1 X38.143 Y30.326 Z-2.050 F400.000
G2 X37.874 Y31.353 Z-2.050 I-0.132 J0.514 F400.000
G2 X38.460 Y30.557 Z-2.050 I0.138 J-0.513 F400.000
G0 Z5.200
G0 X32.343 Y31.840 Z5.200
G0 X32.343 Y31.840 Z3.200
G1 X32.343 Y31.840 Z-2.050 F400.000
G2 X27.771 Y27.490 Z-2.050 I-5.442 J1.142 F400.000
G2 X21.410 Y32.112 Z-2.050 I-0.870 J5.492 F400.000
G2 X26.032 Y38.473 Z-2.050 I5.492 J0.870 F400.000
G2 X32.343 Y31.840 Z-2.050 I0.870 J-5.492 F400.000
G0 Z5.200
G0 X25.083 Y22.295 Z5.200
G0 X25.083 Y22.295 Z3.200
G1 X25.083 Y22.295 Z-2.050 F400.000
G2 X24.981 Y21.388 Z-2.050 I-0.322 J-0.423 F400.000
G2 X24.277 Y21.652 Z-2.050 I-0.220 J0.484 F400.000
G2 X24.541 Y22.356 Z-2.050 I0.484 J0.220 F400.000
G2 X25.083 Y22.295 Z-2.050 I0.220 J-0.484 F400.000
G0 Z5.200
G0 X16.104 Y34.692 Z5.200
G0 X16.104 Y34.692 Z3.200
G1 X16.104 Y34.692 Z-2.050 F400.000
G2 X16.021 Y34.644 Z-2.050 I-0.311 J0.430 F400.000
G2 X15.314 Y34.893 Z-2.050 I-0.229 J0.479 F400.000
G2 X15.563 Y35.601 Z-2.050 I0.479 J0.229 F400.000
G2 X16.104 Y34.692 Z-2.050 I0.229 J-0.479 F400.000
G0 Z5.200
G0 X28.613 Y43.779 Z5.200
G0 X28.613 Y43.779 Z3.200
G1 X28.613 Y43.779 Z-2.050 F400.000
G2 X28.813 Y44.569 Z-2.050 I0.429 J0.312 F400.000
G2 X29.272 Y43.612 Z-2.050 I0.229 J-0.479 F400.000
G2 X28.613 Y43.779 Z-2.050 I-0.229 J0.479 F400.000
G1 X28.613 Y43.779 Z-2.300 F400.000
G2 X28.813 Y44.569 Z-2.300 I0.429 J0.312 F400.000
G2 X29.272 Y43.612 Z-2.300 I0.229 J-0.479 F400.000
G2 X28.613 Y43.779 Z-2.300 I-0.229 J0.479 F400.000
G0 Z5.200
G0 X27.772 Y38.473 Z5.200
G0 X27.772 Y38.473 Z3.200
G1 X27.772 Y38.473 Z-2.300 F400.000
G2 X27.771 Y27.490 Z-2.300 I-0.870 J-5.492 F400.000
G2 X21.410 Y32.112 Z-2.300 I-0.870 J5.492 F400.000
G2 X26.032 Y38.473 Z-2.300 I5.492 J0.870 F400.000
G2 X27.772 Y38.473 Z-2.300 I0.870 J-5.492 F400.000
G0 Z5.200
G0 X16.303 Y35.265 Z5.200
G0 X16.303 Y35.265 Z3.200
G1 X16.303 Y35.265 Z-2.300 F400.000
G2 X16.021 Y34.644 Z-2.300 I-0.511 J-0.143 F400.000
G2 X15.314 Y34.893 Z-2.300 I-0.229 J0.479 F400.000
G2 X15.563 Y35.601 Z-2.300 I0.479 J0.229 F400.000
G2 X16.303 Y35.265 Z-2.300 I0.229 J-0.479 F400.000
G0 Z5.200
G0 X24.477 Y22.321 Z5.200
G0 X24.477 Y22.321 Z3.200
G1 X24.477 Y22.321 Z-2.300 F400.000
G2 X24.541 Y22.356 Z-2.300 I0.284 J-0.449 F400.000
G2 X24.981 Y21.388 Z-2.300 I0.220 J-0.484 F400.000
G2 X24.477 Y22.321 Z-2.300 I-0.220 J0.484 F400.000
G0 Z5.200
G0 X37.562 Y30.558 Z5.200
G0 X37.562 Y30.558 Z3.200
G1 X37.562 Y30.558 Z-2.300 F400.000
G2 X37.874 Y31.353 Z-2.300 I0.449 J0.283 F400.000
G2 X38.231 Y30.357 Z-2.300 I0.138 J-0.513 F400.000
G1 X38.143 Y30.326 Z-2.300 F400.000
G2 X37.562 Y30.558 Z-2.300 I-0.132 J0.514 F400.000
G0 Z5.200
G0 X68.328 Y11.044 Z5.200
G0 X68.328 Y11.044 Z3.200
G1 X68.328 Y11.044 Z-2.300 F400.000
G2 X68.557 Y11.243 Z-2.300 I0.449 J-0.285 F400.000
G2 X68.996 Y10.275 Z-2.300 I0.220 J-0.484 F400.000
G2 X68.328 Y11.044 Z-2.300 I-0.220 J0.484 F400.000
G0 Z5.200
G0 X75.995 Y23.300 Z5.200
G0 X75.995 Y23.300 Z3.200
G1 X75.995 Y23.300 Z-2.300 F400.000
G2 X76.048 Y24.228 Z-2.300 I0.281 J0.450 F400.000
G2 X76.755 Y23.979 Z-2.300 I0.229 J-0.479 F400.000
G2 X76.506 Y23.271 Z-2.300 I-0.479 J-0.229 F400.000
G2 X75.995 Y23.300 Z-2.300 I-0.229 J0.479 F400.000
G1 X75.995 Y23.300 Z-2.500 F400.000
G2 X76.048 Y24.228 Z-2.500 I0.281 J0.450 F400.000
G2 X76.755 Y23.979 Z-2.500 I0.229 J-0.479 F400.000
G2 X76.506 Y23.271 Z-2.500 I-0.479 J-0.229 F400.000
G2 X75.995 Y23.300 Z-2.500 I-0.229 J0.479 F400.000
G0 Z5.200
G0 X69.042 Y11.220 Z5.200
G0 X69.042 Y11.220 Z3.200
G1 X69.042 Y11.220 Z-2.500 F400.000
G2 X68.996 Y10.275 Z-2.500 I-0.265 J-0.461 F400.000
G2 X68.293 Y10.539 Z-2.500 I-0.220 J0.484 F400.000
G2 X68.557 Y11.243 Z-2.500 I0.484 J0.220 F400.000
G2 X69.042 Y11.220 Z-2.500 I0.220 J-0.484 F400.000
G0 Z5.200
G0 X38.460 Y30.557 Z5.200
G0 X38.460 Y30.557 Z3.200
G1 X38.460 Y30.557 Z-2.500 F400.000
G2 X38.231 Y30.357 Z-2.500 I-0.449 J0.284 F400.000
G1 X38.143 Y30.326 Z-2.500 F400.000
G2 X37.874 Y31.353 Z-2.500 I-0.132 J0.514 F400.000
G2 X38.460 Y30.557 Z-2.500 I0.138 J-0.513 F400.000
G0 Z5.200
G0 X32.343 Y31.840 Z5.200
G0 X32.343 Y31.840 Z3.200
G1 X32.343 Y31.840 Z-2.500 F400.000
G2 X27.771 Y27.490 Z-2.500 I-5.442 J1.142 F400.000
G2 X21.410 Y32.112 Z-2.500 I-0.870 J5.492 F400.000
G2 X26.032 Y38.473 Z-2.500 I5.492 J0.870 F400.000
G2 X32.343 Y31.840 Z-2.500 I0.870 J-5.492 F400.000
G0 Z5.200
G0 X25.083 Y22.295 Z5.200
G0 X25.083 Y22.295 Z3.200
G1 X25.083 Y22.295 Z-2.500 F400.000
G2 X24.981 Y21.388 Z-2.500 I-0.322 J-0.423 F400.000
G2 X24.277 Y21.652 Z-2.500 I-0.220 J0.484 F400.000
G2 X24.541 Y22.356 Z-2.500 I0.484 J0.220 F400.000
G2 X25.083 Y22.295 Z-2.500 I0.220 J-0.484 F400.000
G0 Z5.200
G0 X16.104 Y34.692 Z5.200
G0 X16.104 Y34.692 Z3.200
G1 X16.104 Y34.692 Z-2.500 F400.000
G2 X16.021 Y34.644 Z-2.500 I-0.311 J0.430 F400.000
G2 X15.314 Y34.893 Z-2.500 I-0.229 J0.479 F400.000
G2 X15.563 Y35.601 Z-2.500 I0.479 J0.229 F400.000
G2 X16.104 Y34.692 Z-2.500 I0.229 J-0.479 F400.000
G0 Z5.200
G0 X28.613 Y43.779 Z5.200
G0 X28.613 Y43.779 Z3.200
G1 X28.613 Y43.779 Z-2.500 F400.000
G2 X28.813 Y44.569 Z-2.500 I0.429 J0.312 F400.000
G2 X29.272 Y43.612 Z-2.500 I0.229 J-0.479 F400.000
G2 X28.613 Y43.779 Z-2.500 I-0.229 J0.479 F400.000
G0 Z5.200
G0 Z5.200
(finish operation: Profile)
(begin operation: Profile001)
(machine: not set, mm/min)
(inactive operation)
(finish operation: Profile001)
(begin postamble)
M05 M09
G17 G90 G80 G40
M30
