(Exported by FreeCAD)
(Post Processor: script_module)
(Output Time:2024-11-25 17:33:43.762225)
(begin preamble)
%
G17 G21 G40 G49 G80 G90
M08
G21
(begin operation: Fixture)
(machine: not set, mm/min)
G54
(finish operation: Fixture)
(begin operation: 1/8in Endmill009)
(machine: not set, mm/min)
(1/8in Endmill009)
M05
M09M6 T1
M3 S15000
(finish operation: 1/8in Endmill009)
(begin operation: Profile008)
(machine: not set, mm/min)
(Profile008)
(Compensated Tool Path. Diameter: 3.175)
G0 Z5.250
G0 X115.175 Y293.469
G0 Z3.250
G1 X115.175 Y293.469 Z0.000 F400.000
G2 X115.044 Y292.809 Z0.000 I-0.286 J-0.286 F400.000
G2 X114.734 Y293.557 Z0.000 I-0.155 J0.374 F400.000
G2 X115.175 Y293.469 Z0.000 I0.155 J-0.374 F400.000
G1 X115.175 Y293.469 Z-0.250 F400.000
G2 X115.044 Y292.809 Z-0.250 I-0.286 J-0.286 F400.000
G2 X114.734 Y293.557 Z-0.250 I-0.155 J0.374 F400.000
G2 X115.175 Y293.469 Z-0.250 I0.155 J-0.374 F400.000
G1 X115.175 Y293.469 Z-0.500 F400.000
G2 X115.044 Y292.809 Z-0.500 I-0.286 J-0.286 F400.000
G2 X114.734 Y293.557 Z-0.500 I-0.155 J0.374 F400.000
G2 X115.175 Y293.469 Z-0.500 I0.155 J-0.374 F400.000
G1 X115.175 Y293.469 Z-0.750 F400.000
G2 X115.044 Y292.809 Z-0.750 I-0.286 J-0.286 F400.000
G2 X114.734 Y293.557 Z-0.750 I-0.155 J0.374 F400.000
G2 X115.175 Y293.469 Z-0.750 I0.155 J-0.374 F400.000
G1 X115.175 Y293.469 Z-1.000 F400.000
G2 X115.044 Y292.809 Z-1.000 I-0.286 J-0.286 F400.000
G2 X114.734 Y293.557 Z-1.000 I-0.155 J0.374 F400.000
G2 X115.175 Y293.469 Z-1.000 I0.155 J-0.374 F400.000
G1 X115.175 Y293.469 Z-1.250 F400.000
G2 X115.044 Y292.809 Z-1.250 I-0.286 J-0.286 F400.000
G2 X114.734 Y293.557 Z-1.250 I-0.155 J0.374 F400.000
G2 X115.175 Y293.469 Z-1.250 I0.155 J-0.374 F400.000
G1 X115.175 Y293.469 Z-1.500 F400.000
G2 X115.044 Y292.809 Z-1.500 I-0.286 J-0.286 F400.000
G2 X114.734 Y293.557 Z-1.500 I-0.155 J0.374 F400.000
G2 X115.175 Y293.469 Z-1.500 I0.155 J-0.374 F400.000
G1 X115.175 Y293.469 Z-1.750 F400.000
G2 X115.044 Y292.809 Z-1.750 I-0.286 J-0.286 F400.000
G2 X114.734 Y293.557 Z-1.750 I-0.155 J0.374 F400.000
G2 X115.175 Y293.469 Z-1.750 I0.155 J-0.374 F400.000
G1 X115.175 Y293.469 Z-2.000 F400.000
G2 X115.044 Y292.809 Z-2.000 I-0.286 J-0.286 F400.000
G2 X114.734 Y293.557 Z-2.000 I-0.155 J0.374 F400.000
G2 X115.175 Y293.469 Z-2.000 I0.155 J-0.374 F400.000
G1 X115.175 Y293.469 Z-2.250 F400.000
G2 X115.044 Y292.809 Z-2.250 I-0.286 J-0.286 F400.000
G2 X114.734 Y293.557 Z-2.250 I-0.155 J0.374 F400.000
G2 X115.175 Y293.469 Z-2.250 I0.155 J-0.374 F400.000
G1 X115.175 Y293.469 Z-2.500 F400.000
G2 X115.044 Y292.809 Z-2.500 I-0.286 J-0.286 F400.000
G2 X114.734 Y293.557 Z-2.500 I-0.155 J0.374 F400.000
G2 X115.175 Y293.469 Z-2.500 I0.155 J-0.374 F400.000
G1 X115.175 Y293.469 Z-2.750 F400.000
G2 X115.044 Y292.809 Z-2.750 I-0.286 J-0.286 F400.000
G2 X114.734 Y293.557 Z-2.750 I-0.155 J0.374 F400.000
G2 X115.175 Y293.469 Z-2.750 I0.155 J-0.374 F400.000
G1 X115.175 Y293.469 Z-3.000 F400.000
G2 X115.044 Y292.809 Z-3.000 I-0.286 J-0.286 F400.000
G2 X114.734 Y293.557 Z-3.000 I-0.155 J0.374 F400.000
G2 X115.175 Y293.469 Z-3.000 I0.155 J-0.374 F400.000
G1 X115.175 Y293.469 Z-3.250 F400.000
G2 X115.044 Y292.809 Z-3.250 I-0.286 J-0.286 F400.000
G2 X114.734 Y293.557 Z-3.250 I-0.155 J0.374 F400.000
G2 X115.175 Y293.469 Z-3.250 I0.155 J-0.374 F400.000
G1 X115.175 Y293.469 Z-3.420 F400.000
G2 X115.044 Y292.809 Z-3.420 I-0.286 J-0.286 F400.000
G2 X114.734 Y293.557 Z-3.420 I-0.155 J0.374 F400.000
G2 X115.175 Y293.469 Z-3.420 I0.155 J-0.374 F400.000
G0 Z5.250
G0 Z5.250
G0 X115.175 Y293.469
G0 X114.893 Y322.778
G0 X114.893 Y322.778 Z3.250
G1 X114.893 Y322.778 Z0.000 F400.000
G2 X114.734 Y323.557 Z0.000 I-0.004 J0.405 F400.000
G2 X115.044 Y322.809 Z0.000 I0.155 J-0.374 F400.000
G2 X114.893 Y322.778 Z0.000 I-0.155 J0.374 F400.000
G1 X114.893 Y322.778 Z-0.250 F400.000
G2 X114.734 Y323.557 Z-0.250 I-0.004 J0.405 F400.000
G2 X115.044 Y322.809 Z-0.250 I0.155 J-0.374 F400.000
G2 X114.893 Y322.778 Z-0.250 I-0.155 J0.374 F400.000
G1 X114.893 Y322.778 Z-0.500 F400.000
G2 X114.734 Y323.557 Z-0.500 I-0.004 J0.405 F400.000
G2 X115.044 Y322.809 Z-0.500 I0.155 J-0.374 F400.000
G2 X114.893 Y322.778 Z-0.500 I-0.155 J0.374 F400.000
G1 X114.893 Y322.778 Z-0.750 F400.000
G2 X114.734 Y323.557 Z-0.750 I-0.004 J0.405 F400.000
G2 X115.044 Y322.809 Z-0.750 I0.155 J-0.374 F400.000
G2 X114.893 Y322.778 Z-0.750 I-0.155 J0.374 F400.000
G1 X114.893 Y322.778 Z-1.000 F400.000
G2 X114.734 Y323.557 Z-1.000 I-0.004 J0.405 F400.000
G2 X115.044 Y322.809 Z-1.000 I0.155 J-0.374 F400.000
G2 X114.893 Y322.778 Z-1.000 I-0.155 J0.374 F400.000
G1 X114.893 Y322.778 Z-1.250 F400.000
G2 X114.734 Y323.557 Z-1.250 I-0.004 J0.405 F400.000
G2 X115.044 Y322.809 Z-1.250 I0.155 J-0.374 F400.000
G2 X114.893 Y322.778 Z-1.250 I-0.155 J0.374 F400.000
G1 X114.893 Y322.778 Z-1.500 F400.000
G2 X114.734 Y323.557 Z-1.500 I-0.004 J0.405 F400.000
G2 X115.044 Y322.809 Z-1.500 I0.155 J-0.374 F400.000
G2 X114.893 Y322.778 Z-1.500 I-0.155 J0.374 F400.000
G1 X114.893 Y322.778 Z-1.750 F400.000
G2 X114.734 Y323.557 Z-1.750 I-0.004 J0.405 F400.000
G2 X115.044 Y322.809 Z-1.750 I0.155 J-0.374 F400.000
G2 X114.893 Y322.778 Z-1.750 I-0.155 J0.374 F400.000
G1 X114.893 Y322.778 Z-2.000 F400.000
G2 X114.734 Y323.557 Z-2.000 I-0.004 J0.405 F400.000
G2 X115.044 Y322.809 Z-2.000 I0.155 J-0.374 F400.000
G2 X114.893 Y322.778 Z-2.000 I-0.155 J0.374 F400.000
G1 X114.893 Y322.778 Z-2.250 F400.000
G2 X114.734 Y323.557 Z-2.250 I-0.004 J0.405 F400.000
G2 X115.044 Y322.809 Z-2.250 I0.155 J-0.374 F400.000
G2 X114.893 Y322.778 Z-2.250 I-0.155 J0.374 F400.000
G1 X114.893 Y322.778 Z-2.500 F400.000
G2 X114.734 Y323.557 Z-2.500 I-0.004 J0.405 F400.000
G2 X115.044 Y322.809 Z-2.500 I0.155 J-0.374 F400.000
G2 X114.893 Y322.778 Z-2.500 I-0.155 J0.374 F400.000
G1 X114.893 Y322.778 Z-2.750 F400.000
G2 X114.734 Y323.557 Z-2.750 I-0.004 J0.405 F400.000
G2 X115.044 Y322.809 Z-2.750 I0.155 J-0.374 F400.000
G2 X114.893 Y322.778 Z-2.750 I-0.155 J0.374 F400.000
G1 X114.893 Y322.778 Z-3.000 F400.000
G2 X114.734 Y323.557 Z-3.000 I-0.004 J0.405 F400.000
G2 X115.044 Y322.809 Z-3.000 I0.155 J-0.374 F400.000
G2 X114.893 Y322.778 Z-3.000 I-0.155 J0.374 F400.000
G1 X114.893 Y322.778 Z-3.250 F400.000
G2 X114.734 Y323.557 Z-3.250 I-0.004 J0.405 F400.000
G2 X115.044 Y322.809 Z-3.250 I0.155 J-0.374 F400.000
G2 X114.893 Y322.778 Z-3.250 I-0.155 J0.374 F400.000
G1 X114.893 Y322.778 Z-3.420 F400.000
G2 X114.734 Y323.557 Z-3.420 I-0.004 J0.405 F400.000
G2 X115.044 Y322.809 Z-3.420 I0.155 J-0.374 F400.000
G2 X114.893 Y322.778 Z-3.420 I-0.155 J0.374 F400.000
G0 Z5.250
G0 Z5.250
G0 X114.893 Y322.778
G0 X117.404 Y340.785
G0 X117.404 Y340.785 Z3.250
G1 X117.404 Y340.785 Z0.000 F400.000
G2 X117.305 Y341.560 Z0.000 I0.056 J0.401 F400.000
G2 X117.614 Y340.812 Z0.000 I0.155 J-0.374 F400.000
G2 X117.404 Y340.785 Z0.000 I-0.155 J0.374 F400.000
G1 X117.404 Y340.785 Z-0.250 F400.000
G2 X117.305 Y341.560 Z-0.250 I0.056 J0.401 F400.000
G2 X117.614 Y340.812 Z-0.250 I0.155 J-0.374 F400.000
G2 X117.404 Y340.785 Z-0.250 I-0.155 J0.374 F400.000
G1 X117.404 Y340.785 Z-0.500 F400.000
G2 X117.305 Y341.560 Z-0.500 I0.056 J0.401 F400.000
G2 X117.614 Y340.812 Z-0.500 I0.155 J-0.374 F400.000
G2 X117.404 Y340.785 Z-0.500 I-0.155 J0.374 F400.000
G1 X117.404 Y340.785 Z-0.750 F400.000
G2 X117.305 Y341.560 Z-0.750 I0.056 J0.401 F400.000
G2 X117.614 Y340.812 Z-0.750 I0.155 J-0.374 F400.000
G2 X117.404 Y340.785 Z-0.750 I-0.155 J0.374 F400.000
G1 X117.404 Y340.785 Z-1.000 F400.000
G2 X117.305 Y341.560 Z-1.000 I0.056 J0.401 F400.000
G2 X117.614 Y340.812 Z-1.000 I0.155 J-0.374 F400.000
G2 X117.404 Y340.785 Z-1.000 I-0.155 J0.374 F400.000
G1 X117.404 Y340.785 Z-1.250 F400.000
G2 X117.305 Y341.560 Z-1.250 I0.056 J0.401 F400.000
G2 X117.614 Y340.812 Z-1.250 I0.155 J-0.374 F400.000
G2 X117.404 Y340.785 Z-1.250 I-0.155 J0.374 F400.000
G1 X117.404 Y340.785 Z-1.500 F400.000
G2 X117.305 Y341.560 Z-1.500 I0.056 J0.401 F400.000
G2 X117.614 Y340.812 Z-1.500 I0.155 J-0.374 F400.000
G2 X117.404 Y340.785 Z-1.500 I-0.155 J0.374 F400.000
G1 X117.404 Y340.785 Z-1.750 F400.000
G2 X117.305 Y341.560 Z-1.750 I0.056 J0.401 F400.000
G2 X117.614 Y340.812 Z-1.750 I0.155 J-0.374 F400.000
G2 X117.404 Y340.785 Z-1.750 I-0.155 J0.374 F400.000
G1 X117.404 Y340.785 Z-2.000 F400.000
G2 X117.305 Y341.560 Z-2.000 I0.056 J0.401 F400.000
G2 X117.614 Y340.812 Z-2.000 I0.155 J-0.374 F400.000
G2 X117.404 Y340.785 Z-2.000 I-0.155 J0.374 F400.000
G1 X117.404 Y340.785 Z-2.250 F400.000
G2 X117.305 Y341.560 Z-2.250 I0.056 J0.401 F400.000
G2 X117.614 Y340.812 Z-2.250 I0.155 J-0.374 F400.000
G2 X117.404 Y340.785 Z-2.250 I-0.155 J0.374 F400.000
G1 X117.404 Y340.785 Z-2.500 F400.000
G2 X117.305 Y341.560 Z-2.500 I0.056 J0.401 F400.000
G2 X117.614 Y340.812 Z-2.500 I0.155 J-0.374 F400.000
G2 X117.404 Y340.785 Z-2.500 I-0.155 J0.374 F400.000
G1 X117.404 Y340.785 Z-2.750 F400.000
G2 X117.305 Y341.560 Z-2.750 I0.056 J0.401 F400.000
G2 X117.614 Y340.812 Z-2.750 I0.155 J-0.374 F400.000
G2 X117.404 Y340.785 Z-2.750 I-0.155 J0.374 F400.000
G1 X117.404 Y340.785 Z-3.000 F400.000
G2 X117.305 Y341.560 Z-3.000 I0.056 J0.401 F400.000
G2 X117.614 Y340.812 Z-3.000 I0.155 J-0.374 F400.000
G2 X117.404 Y340.785 Z-3.000 I-0.155 J0.374 F400.000
G1 X117.404 Y340.785 Z-3.250 F400.000
G2 X117.305 Y341.560 Z-3.250 I0.056 J0.401 F400.000
G2 X117.614 Y340.812 Z-3.250 I0.155 J-0.374 F400.000
G2 X117.404 Y340.785 Z-3.250 I-0.155 J0.374 F400.000
G1 X117.404 Y340.785 Z-3.420 F400.000
G2 X117.305 Y341.560 Z-3.420 I0.056 J0.401 F400.000
G2 X117.614 Y340.812 Z-3.420 I0.155 J-0.374 F400.000
G2 X117.404 Y340.785 Z-3.420 I-0.155 J0.374 F400.000
G0 Z5.250
G0 Z5.250
G0 X117.404 Y340.785
G0 X85.864 Y341.181
G0 X85.864 Y341.181 Z3.250
G1 X85.864 Y341.181 Z0.000 F400.000
G2 X85.614 Y340.812 Z0.000 I-0.405 J0.005 F400.000
G2 X85.305 Y341.560 Z0.000 I-0.155 J0.374 F400.000
G2 X85.864 Y341.181 Z0.000 I0.155 J-0.374 F400.000
G1 X85.864 Y341.181 Z-0.250 F400.000
G2 X85.614 Y340.812 Z-0.250 I-0.405 J0.005 F400.000
G2 X85.305 Y341.560 Z-0.250 I-0.155 J0.374 F400.000
G2 X85.864 Y341.181 Z-0.250 I0.155 J-0.374 F400.000
G1 X85.864 Y341.181 Z-0.500 F400.000
G2 X85.614 Y340.812 Z-0.500 I-0.405 J0.005 F400.000
G2 X85.305 Y341.560 Z-0.500 I-0.155 J0.374 F400.000
G2 X85.864 Y341.181 Z-0.500 I0.155 J-0.374 F400.000
G1 X85.864 Y341.181 Z-0.750 F400.000
G2 X85.614 Y340.812 Z-0.750 I-0.405 J0.005 F400.000
G2 X85.305 Y341.560 Z-0.750 I-0.155 J0.374 F400.000
G2 X85.864 Y341.181 Z-0.750 I0.155 J-0.374 F400.000
G1 X85.864 Y341.181 Z-1.000 F400.000
G2 X85.614 Y340.812 Z-1.000 I-0.405 J0.005 F400.000
G2 X85.305 Y341.560 Z-1.000 I-0.155 J0.374 F400.000
G2 X85.864 Y341.181 Z-1.000 I0.155 J-0.374 F400.000
G1 X85.864 Y341.181 Z-1.250 F400.000
G2 X85.614 Y340.812 Z-1.250 I-0.405 J0.005 F400.000
G2 X85.305 Y341.560 Z-1.250 I-0.155 J0.374 F400.000
G2 X85.864 Y341.181 Z-1.250 I0.155 J-0.374 F400.000
G1 X85.864 Y341.181 Z-1.500 F400.000
G2 X85.614 Y340.812 Z-1.500 I-0.405 J0.005 F400.000
G2 X85.305 Y341.560 Z-1.500 I-0.155 J0.374 F400.000
G2 X85.864 Y341.181 Z-1.500 I0.155 J-0.374 F400.000
G1 X85.864 Y341.181 Z-1.750 F400.000
G2 X85.614 Y340.812 Z-1.750 I-0.405 J0.005 F400.000
G2 X85.305 Y341.560 Z-1.750 I-0.155 J0.374 F400.000
G2 X85.864 Y341.181 Z-1.750 I0.155 J-0.374 F400.000
G1 X85.864 Y341.181 Z-2.000 F400.000
G2 X85.614 Y340.812 Z-2.000 I-0.405 J0.005 F400.000
G2 X85.305 Y341.560 Z-2.000 I-0.155 J0.374 F400.000
G2 X85.864 Y341.181 Z-2.000 I0.155 J-0.374 F400.000
G1 X85.864 Y341.181 Z-2.250 F400.000
G2 X85.614 Y340.812 Z-2.250 I-0.405 J0.005 F400.000
G2 X85.305 Y341.560 Z-2.250 I-0.155 J0.374 F400.000
G2 X85.864 Y341.181 Z-2.250 I0.155 J-0.374 F400.000
G1 X85.864 Y341.181 Z-2.500 F400.000
G2 X85.614 Y340.812 Z-2.500 I-0.405 J0.005 F400.000
G2 X85.305 Y341.560 Z-2.500 I-0.155 J0.374 F400.000
G2 X85.864 Y341.181 Z-2.500 I0.155 J-0.374 F400.000
G1 X85.864 Y341.181 Z-2.750 F400.000
G2 X85.614 Y340.812 Z-2.750 I-0.405 J0.005 F400.000
G2 X85.305 Y341.560 Z-2.750 I-0.155 J0.374 F400.000
G2 X85.864 Y341.181 Z-2.750 I0.155 J-0.374 F400.000
G1 X85.864 Y341.181 Z-3.000 F400.000
G2 X85.614 Y340.812 Z-3.000 I-0.405 J0.005 F400.000
G2 X85.305 Y341.560 Z-3.000 I-0.155 J0.374 F400.000
G2 X85.864 Y341.181 Z-3.000 I0.155 J-0.374 F400.000
G1 X85.864 Y341.181 Z-3.250 F400.000
G2 X85.614 Y340.812 Z-3.250 I-0.405 J0.005 F400.000
G2 X85.305 Y341.560 Z-3.250 I-0.155 J0.374 F400.000
G2 X85.864 Y341.181 Z-3.250 I0.155 J-0.374 F400.000
G1 X85.864 Y341.181 Z-3.420 F400.000
G2 X85.614 Y340.812 Z-3.420 I-0.405 J0.005 F400.000
G2 X85.305 Y341.560 Z-3.420 I-0.155 J0.374 F400.000
G2 X85.864 Y341.181 Z-3.420 I0.155 J-0.374 F400.000
G0 Z5.250
G0 Z5.250
G0 X85.864 Y341.181
G0 X85.465 Y309.590
G0 X85.465 Y309.590 Z3.250
G1 X85.465 Y309.590 Z0.000 F400.000
G2 X85.614 Y308.812 Z0.000 I-0.005 J-0.405 F400.000
G2 X85.305 Y309.560 Z0.000 I-0.155 J0.374 F400.000
G2 X85.465 Y309.590 Z0.000 I0.155 J-0.374 F400.000
G1 X85.465 Y309.590 Z-0.250 F400.000
G2 X85.614 Y308.812 Z-0.250 I-0.005 J-0.405 F400.000
G2 X85.305 Y309.560 Z-0.250 I-0.155 J0.374 F400.000
G2 X85.465 Y309.590 Z-0.250 I0.155 J-0.374 F400.000
G1 X85.465 Y309.590 Z-0.500 F400.000
G2 X85.614 Y308.812 Z-0.500 I-0.005 J-0.405 F400.000
G2 X85.305 Y309.560 Z-0.500 I-0.155 J0.374 F400.000
G2 X85.465 Y309.590 Z-0.500 I0.155 J-0.374 F400.000
G1 X85.465 Y309.590 Z-0.750 F400.000
G2 X85.614 Y308.812 Z-0.750 I-0.005 J-0.405 F400.000
G2 X85.305 Y309.560 Z-0.750 I-0.155 J0.374 F400.000
G2 X85.465 Y309.590 Z-0.750 I0.155 J-0.374 F400.000
G1 X85.465 Y309.590 Z-1.000 F400.000
G2 X85.614 Y308.812 Z-1.000 I-0.005 J-0.405 F400.000
G2 X85.305 Y309.560 Z-1.000 I-0.155 J0.374 F400.000
G2 X85.465 Y309.590 Z-1.000 I0.155 J-0.374 F400.000
G1 X85.465 Y309.590 Z-1.250 F400.000
G2 X85.614 Y308.812 Z-1.250 I-0.005 J-0.405 F400.000
G2 X85.305 Y309.560 Z-1.250 I-0.155 J0.374 F400.000
G2 X85.465 Y309.590 Z-1.250 I0.155 J-0.374 F400.000
G1 X85.465 Y309.590 Z-1.500 F400.000
G2 X85.614 Y308.812 Z-1.500 I-0.005 J-0.405 F400.000
G2 X85.305 Y309.560 Z-1.500 I-0.155 J0.374 F400.000
G2 X85.465 Y309.590 Z-1.500 I0.155 J-0.374 F400.000
G1 X85.465 Y309.590 Z-1.750 F400.000
G2 X85.614 Y308.812 Z-1.750 I-0.005 J-0.405 F400.000
G2 X85.305 Y309.560 Z-1.750 I-0.155 J0.374 F400.000
G2 X85.465 Y309.590 Z-1.750 I0.155 J-0.374 F400.000
G1 X85.465 Y309.590 Z-2.000 F400.000
G2 X85.614 Y308.812 Z-2.000 I-0.005 J-0.405 F400.000
G2 X85.305 Y309.560 Z-2.000 I-0.155 J0.374 F400.000
G2 X85.465 Y309.590 Z-2.000 I0.155 J-0.374 F400.000
G1 X85.465 Y309.590 Z-2.250 F400.000
G2 X85.614 Y308.812 Z-2.250 I-0.005 J-0.405 F400.000
G2 X85.305 Y309.560 Z-2.250 I-0.155 J0.374 F400.000
G2 X85.465 Y309.590 Z-2.250 I0.155 J-0.374 F400.000
G1 X85.465 Y309.590 Z-2.500 F400.000
G2 X85.614 Y308.812 Z-2.500 I-0.005 J-0.405 F400.000
G2 X85.305 Y309.560 Z-2.500 I-0.155 J0.374 F400.000
G2 X85.465 Y309.590 Z-2.500 I0.155 J-0.374 F400.000
G1 X85.465 Y309.590 Z-2.750 F400.000
G2 X85.614 Y308.812 Z-2.750 I-0.005 J-0.405 F400.000
G2 X85.305 Y309.560 Z-2.750 I-0.155 J0.374 F400.000
G2 X85.465 Y309.590 Z-2.750 I0.155 J-0.374 F400.000
G1 X85.465 Y309.590 Z-3.000 F400.000
G2 X85.614 Y308.812 Z-3.000 I-0.005 J-0.405 F400.000
G2 X85.305 Y309.560 Z-3.000 I-0.155 J0.374 F400.000
G2 X85.465 Y309.590 Z-3.000 I0.155 J-0.374 F400.000
G1 X85.465 Y309.590 Z-3.250 F400.000
G2 X85.614 Y308.812 Z-3.250 I-0.005 J-0.405 F400.000
G2 X85.305 Y309.560 Z-3.250 I-0.155 J0.374 F400.000
G2 X85.465 Y309.590 Z-3.250 I0.155 J-0.374 F400.000
G1 X85.465 Y309.590 Z-3.420 F400.000
G2 X85.614 Y308.812 Z-3.420 I-0.005 J-0.405 F400.000
G2 X85.305 Y309.560 Z-3.420 I-0.155 J0.374 F400.000
G2 X85.465 Y309.590 Z-3.420 I0.155 J-0.374 F400.000
G0 Z5.250
G0 Z5.250
G0 X85.465 Y309.590
G0 X259.990 Y341.114
G0 X259.990 Y341.114 Z3.250
G1 X259.990 Y341.114 Z0.000 F400.000
G2 X260.234 Y341.560 Z0.000 I0.398 J0.072 F400.000
G2 X260.544 Y340.812 Z0.000 I0.155 J-0.374 F400.000
G2 X259.990 Y341.114 Z0.000 I-0.155 J0.374 F400.000
G1 X259.990 Y341.114 Z-0.250 F400.000
G2 X260.234 Y341.560 Z-0.250 I0.398 J0.072 F400.000
G2 X260.544 Y340.812 Z-0.250 I0.155 J-0.374 F400.000
G2 X259.990 Y341.114 Z-0.250 I-0.155 J0.374 F400.000
G1 X259.990 Y341.114 Z-0.500 F400.000
G2 X260.234 Y341.560 Z-0.500 I0.398 J0.072 F400.000
G2 X260.544 Y340.812 Z-0.500 I0.155 J-0.374 F400.000
G2 X259.990 Y341.114 Z-0.500 I-0.155 J0.374 F400.000
G1 X259.990 Y341.114 Z-0.750 F400.000
G2 X260.234 Y341.560 Z-0.750 I0.398 J0.072 F400.000
G2 X260.544 Y340.812 Z-0.750 I0.155 J-0.374 F400.000
G2 X259.990 Y341.114 Z-0.750 I-0.155 J0.374 F400.000
G1 X259.990 Y341.114 Z-1.000 F400.000
G2 X260.234 Y341.560 Z-1.000 I0.398 J0.072 F400.000
G2 X260.544 Y340.812 Z-1.000 I0.155 J-0.374 F400.000
G2 X259.990 Y341.114 Z-1.000 I-0.155 J0.374 F400.000
G1 X259.990 Y341.114 Z-1.250 F400.000
G2 X260.234 Y341.560 Z-1.250 I0.398 J0.072 F400.000
G2 X260.544 Y340.812 Z-1.250 I0.155 J-0.374 F400.000
G2 X259.990 Y341.114 Z-1.250 I-0.155 J0.374 F400.000
G1 X259.990 Y341.114 Z-1.500 F400.000
G2 X260.234 Y341.560 Z-1.500 I0.398 J0.072 F400.000
G2 X260.544 Y340.812 Z-1.500 I0.155 J-0.374 F400.000
G2 X259.990 Y341.114 Z-1.500 I-0.155 J0.374 F400.000
G1 X259.990 Y341.114 Z-1.750 F400.000
G2 X260.234 Y341.560 Z-1.750 I0.398 J0.072 F400.000
G2 X260.544 Y340.812 Z-1.750 I0.155 J-0.374 F400.000
G2 X259.990 Y341.114 Z-1.750 I-0.155 J0.374 F400.000
G1 X259.990 Y341.114 Z-2.000 F400.000
G2 X260.234 Y341.560 Z-2.000 I0.398 J0.072 F400.000
G2 X260.544 Y340.812 Z-2.000 I0.155 J-0.374 F400.000
G2 X259.990 Y341.114 Z-2.000 I-0.155 J0.374 F400.000
G1 X259.990 Y341.114 Z-2.250 F400.000
G2 X260.234 Y341.560 Z-2.250 I0.398 J0.072 F400.000
G2 X260.544 Y340.812 Z-2.250 I0.155 J-0.374 F400.000
G2 X259.990 Y341.114 Z-2.250 I-0.155 J0.374 F400.000
G1 X259.990 Y341.114 Z-2.500 F400.000
G2 X260.234 Y341.560 Z-2.500 I0.398 J0.072 F400.000
G2 X260.544 Y340.812 Z-2.500 I0.155 J-0.374 F400.000
G2 X259.990 Y341.114 Z-2.500 I-0.155 J0.374 F400.000
G1 X259.990 Y341.114 Z-2.750 F400.000
G2 X260.234 Y341.560 Z-2.750 I0.398 J0.072 F400.000
G2 X260.544 Y340.812 Z-2.750 I0.155 J-0.374 F400.000
G2 X259.990 Y341.114 Z-2.750 I-0.155 J0.374 F400.000
G1 X259.990 Y341.114 Z-3.000 F400.000
G2 X260.234 Y341.560 Z-3.000 I0.398 J0.072 F400.000
G2 X260.544 Y340.812 Z-3.000 I0.155 J-0.374 F400.000
G2 X259.990 Y341.114 Z-3.000 I-0.155 J0.374 F400.000
G1 X259.990 Y341.114 Z-3.250 F400.000
G2 X260.234 Y341.560 Z-3.250 I0.398 J0.072 F400.000
G2 X260.544 Y340.812 Z-3.250 I0.155 J-0.374 F400.000
G2 X259.990 Y341.114 Z-3.250 I-0.155 J0.374 F400.000
G1 X259.990 Y341.114 Z-3.420 F400.000
G2 X260.234 Y341.560 Z-3.420 I0.398 J0.072 F400.000
G2 X260.544 Y340.812 Z-3.420 I0.155 J-0.374 F400.000
G2 X259.990 Y341.114 Z-3.420 I-0.155 J0.374 F400.000
G0 Z5.250
G0 Z5.250
G0 X259.990 Y341.114
G0 X262.824 Y323.583
G0 X262.824 Y323.583 Z3.250
G1 X262.824 Y323.583 Z0.000 F400.000
G2 X263.044 Y322.809 Z0.000 I0.065 J-0.400 F400.000
G2 X262.734 Y323.557 Z0.000 I-0.155 J0.374 F400.000
G2 X262.824 Y323.583 Z0.000 I0.155 J-0.374 F400.000
G1 X262.824 Y323.583 Z-0.250 F400.000
G2 X263.044 Y322.809 Z-0.250 I0.065 J-0.400 F400.000
G2 X262.734 Y323.557 Z-0.250 I-0.155 J0.374 F400.000
G2 X262.824 Y323.583 Z-0.250 I0.155 J-0.374 F400.000
G1 X262.824 Y323.583 Z-0.500 F400.000
G2 X263.044 Y322.809 Z-0.500 I0.065 J-0.400 F400.000
G2 X262.734 Y323.557 Z-0.500 I-0.155 J0.374 F400.000
G2 X262.824 Y323.583 Z-0.500 I0.155 J-0.374 F400.000
G1 X262.824 Y323.583 Z-0.750 F400.000
G2 X263.044 Y322.809 Z-0.750 I0.065 J-0.400 F400.000
G2 X262.734 Y323.557 Z-0.750 I-0.155 J0.374 F400.000
G2 X262.824 Y323.583 Z-0.750 I0.155 J-0.374 F400.000
G1 X262.824 Y323.583 Z-1.000 F400.000
G2 X263.044 Y322.809 Z-1.000 I0.065 J-0.400 F400.000
G2 X262.734 Y323.557 Z-1.000 I-0.155 J0.374 F400.000
G2 X262.824 Y323.583 Z-1.000 I0.155 J-0.374 F400.000
G1 X262.824 Y323.583 Z-1.250 F400.000
G2 X263.044 Y322.809 Z-1.250 I0.065 J-0.400 F400.000
G2 X262.734 Y323.557 Z-1.250 I-0.155 J0.374 F400.000
G2 X262.824 Y323.583 Z-1.250 I0.155 J-0.374 F400.000
G1 X262.824 Y323.583 Z-1.500 F400.000
G2 X263.044 Y322.809 Z-1.500 I0.065 J-0.400 F400.000
G2 X262.734 Y323.557 Z-1.500 I-0.155 J0.374 F400.000
G2 X262.824 Y323.583 Z-1.500 I0.155 J-0.374 F400.000
G1 X262.824 Y323.583 Z-1.750 F400.000
G2 X263.044 Y322.809 Z-1.750 I0.065 J-0.400 F400.000
G2 X262.734 Y323.557 Z-1.750 I-0.155 J0.374 F400.000
G2 X262.824 Y323.583 Z-1.750 I0.155 J-0.374 F400.000
G1 X262.824 Y323.583 Z-2.000 F400.000
G2 X263.044 Y322.809 Z-2.000 I0.065 J-0.400 F400.000
G2 X262.734 Y323.557 Z-2.000 I-0.155 J0.374 F400.000
G2 X262.824 Y323.583 Z-2.000 I0.155 J-0.374 F400.000
G1 X262.824 Y323.583 Z-2.250 F400.000
G2 X263.044 Y322.809 Z-2.250 I0.065 J-0.400 F400.000
G2 X262.734 Y323.557 Z-2.250 I-0.155 J0.374 F400.000
G2 X262.824 Y323.583 Z-2.250 I0.155 J-0.374 F400.000
G1 X262.824 Y323.583 Z-2.500 F400.000
G2 X263.044 Y322.809 Z-2.500 I0.065 J-0.400 F400.000
G2 X262.734 Y323.557 Z-2.500 I-0.155 J0.374 F400.000
G2 X262.824 Y323.583 Z-2.500 I0.155 J-0.374 F400.000
G1 X262.824 Y323.583 Z-2.750 F400.000
G2 X263.044 Y322.809 Z-2.750 I0.065 J-0.400 F400.000
G2 X262.734 Y323.557 Z-2.750 I-0.155 J0.374 F400.000
G2 X262.824 Y323.583 Z-2.750 I0.155 J-0.374 F400.000
G1 X262.824 Y323.583 Z-3.000 F400.000
G2 X263.044 Y322.809 Z-3.000 I0.065 J-0.400 F400.000
G2 X262.734 Y323.557 Z-3.000 I-0.155 J0.374 F400.000
G2 X262.824 Y323.583 Z-3.000 I0.155 J-0.374 F400.000
G1 X262.824 Y323.583 Z-3.250 F400.000
G2 X263.044 Y322.809 Z-3.250 I0.065 J-0.400 F400.000
G2 X262.734 Y323.557 Z-3.250 I-0.155 J0.374 F400.000
G2 X262.824 Y323.583 Z-3.250 I0.155 J-0.374 F400.000
G1 X262.824 Y323.583 Z-3.420 F400.000
G2 X263.044 Y322.809 Z-3.420 I0.065 J-0.400 F400.000
G2 X262.734 Y323.557 Z-3.420 I-0.155 J0.374 F400.000
G2 X262.824 Y323.583 Z-3.420 I0.155 J-0.374 F400.000
G0 Z5.250
G0 Z5.250
G0 X262.824 Y323.583
G0 X262.888 Y293.588
G0 X262.888 Y293.588 Z3.250
G1 X262.888 Y293.588 Z0.000 F400.000
G2 X263.044 Y292.809 Z0.000 I0.001 J-0.405 F400.000
G2 X262.734 Y293.557 Z0.000 I-0.155 J0.374 F400.000
G2 X262.888 Y293.588 Z0.000 I0.155 J-0.374 F400.000
G1 X262.888 Y293.588 Z-0.250 F400.000
G2 X263.044 Y292.809 Z-0.250 I0.001 J-0.405 F400.000
G2 X262.734 Y293.557 Z-0.250 I-0.155 J0.374 F400.000
G2 X262.888 Y293.588 Z-0.250 I0.155 J-0.374 F400.000
G1 X262.888 Y293.588 Z-0.500 F400.000
G2 X263.044 Y292.809 Z-0.500 I0.001 J-0.405 F400.000
G2 X262.734 Y293.557 Z-0.500 I-0.155 J0.374 F400.000
G2 X262.888 Y293.588 Z-0.500 I0.155 J-0.374 F400.000
G1 X262.888 Y293.588 Z-0.750 F400.000
G2 X263.044 Y292.809 Z-0.750 I0.001 J-0.405 F400.000
G2 X262.734 Y293.557 Z-0.750 I-0.155 J0.374 F400.000
G2 X262.888 Y293.588 Z-0.750 I0.155 J-0.374 F400.000
G1 X262.888 Y293.588 Z-1.000 F400.000
G2 X263.044 Y292.809 Z-1.000 I0.001 J-0.405 F400.000
G2 X262.734 Y293.557 Z-1.000 I-0.155 J0.374 F400.000
G2 X262.888 Y293.588 Z-1.000 I0.155 J-0.374 F400.000
G1 X262.888 Y293.588 Z-1.250 F400.000
G2 X263.044 Y292.809 Z-1.250 I0.001 J-0.405 F400.000
G2 X262.734 Y293.557 Z-1.250 I-0.155 J0.374 F400.000
G2 X262.888 Y293.588 Z-1.250 I0.155 J-0.374 F400.000
G1 X262.888 Y293.588 Z-1.500 F400.000
G2 X263.044 Y292.809 Z-1.500 I0.001 J-0.405 F400.000
G2 X262.734 Y293.557 Z-1.500 I-0.155 J0.374 F400.000
G2 X262.888 Y293.588 Z-1.500 I0.155 J-0.374 F400.000
G1 X262.888 Y293.588 Z-1.750 F400.000
G2 X263.044 Y292.809 Z-1.750 I0.001 J-0.405 F400.000
G2 X262.734 Y293.557 Z-1.750 I-0.155 J0.374 F400.000
G2 X262.888 Y293.588 Z-1.750 I0.155 J-0.374 F400.000
G1 X262.888 Y293.588 Z-2.000 F400.000
G2 X263.044 Y292.809 Z-2.000 I0.001 J-0.405 F400.000
G2 X262.734 Y293.557 Z-2.000 I-0.155 J0.374 F400.000
G2 X262.888 Y293.588 Z-2.000 I0.155 J-0.374 F400.000
G1 X262.888 Y293.588 Z-2.250 F400.000
G2 X263.044 Y292.809 Z-2.250 I0.001 J-0.405 F400.000
G2 X262.734 Y293.557 Z-2.250 I-0.155 J0.374 F400.000
G2 X262.888 Y293.588 Z-2.250 I0.155 J-0.374 F400.000
G1 X262.888 Y293.588 Z-2.500 F400.000
G2 X263.044 Y292.809 Z-2.500 I0.001 J-0.405 F400.000
G2 X262.734 Y293.557 Z-2.500 I-0.155 J0.374 F400.000
G2 X262.888 Y293.588 Z-2.500 I0.155 J-0.374 F400.000
G1 X262.888 Y293.588 Z-2.750 F400.000
G2 X263.044 Y292.809 Z-2.750 I0.001 J-0.405 F400.000
G2 X262.734 Y293.557 Z-2.750 I-0.155 J0.374 F400.000
G2 X262.888 Y293.588 Z-2.750 I0.155 J-0.374 F400.000
G1 X262.888 Y293.588 Z-3.000 F400.000
G2 X263.044 Y292.809 Z-3.000 I0.001 J-0.405 F400.000
G2 X262.734 Y293.557 Z-3.000 I-0.155 J0.374 F400.000
G2 X262.888 Y293.588 Z-3.000 I0.155 J-0.374 F400.000
G1 X262.888 Y293.588 Z-3.250 F400.000
G2 X263.044 Y292.809 Z-3.250 I0.001 J-0.405 F400.000
G2 X262.734 Y293.557 Z-3.250 I-0.155 J0.374 F400.000
G2 X262.888 Y293.588 Z-3.250 I0.155 J-0.374 F400.000
G1 X262.888 Y293.588 Z-3.420 F400.000
G2 X263.044 Y292.809 Z-3.420 I0.001 J-0.405 F400.000
G2 X262.734 Y293.557 Z-3.420 I-0.155 J0.374 F400.000
G2 X262.888 Y293.588 Z-3.420 I0.155 J-0.374 F400.000
G0 Z5.250
G0 Z5.250
G0 X262.888 Y293.588
G0 X292.031 Y308.996
G0 X292.031 Y308.996 Z3.250
G1 X292.031 Y308.996 Z0.000 F400.000
G2 X292.234 Y309.560 Z0.000 I0.358 J0.189 F400.000
G2 X292.544 Y308.812 Z0.000 I0.155 J-0.374 F400.000
G2 X292.031 Y308.996 Z0.000 I-0.155 J0.374 F400.000
G1 X292.031 Y308.996 Z-0.250 F400.000
G2 X292.234 Y309.560 Z-0.250 I0.358 J0.189 F400.000
G2 X292.544 Y308.812 Z-0.250 I0.155 J-0.374 F400.000
G2 X292.031 Y308.996 Z-0.250 I-0.155 J0.374 F400.000
G1 X292.031 Y308.996 Z-0.500 F400.000
G2 X292.234 Y309.560 Z-0.500 I0.358 J0.189 F400.000
G2 X292.544 Y308.812 Z-0.500 I0.155 J-0.374 F400.000
G2 X292.031 Y308.996 Z-0.500 I-0.155 J0.374 F400.000
G1 X292.031 Y308.996 Z-0.750 F400.000
G2 X292.234 Y309.560 Z-0.750 I0.358 J0.189 F400.000
G2 X292.544 Y308.812 Z-0.750 I0.155 J-0.374 F400.000
G2 X292.031 Y308.996 Z-0.750 I-0.155 J0.374 F400.000
G1 X292.031 Y308.996 Z-1.000 F400.000
G2 X292.234 Y309.560 Z-1.000 I0.358 J0.189 F400.000
G2 X292.544 Y308.812 Z-1.000 I0.155 J-0.374 F400.000
G2 X292.031 Y308.996 Z-1.000 I-0.155 J0.374 F400.000
G1 X292.031 Y308.996 Z-1.250 F400.000
G2 X292.234 Y309.560 Z-1.250 I0.358 J0.189 F400.000
G2 X292.544 Y308.812 Z-1.250 I0.155 J-0.374 F400.000
G2 X292.031 Y308.996 Z-1.250 I-0.155 J0.374 F400.000
G1 X292.031 Y308.996 Z-1.500 F400.000
G2 X292.234 Y309.560 Z-1.500 I0.358 J0.189 F400.000
G2 X292.544 Y308.812 Z-1.500 I0.155 J-0.374 F400.000
G2 X292.031 Y308.996 Z-1.500 I-0.155 J0.374 F400.000
G1 X292.031 Y308.996 Z-1.750 F400.000
G2 X292.234 Y309.560 Z-1.750 I0.358 J0.189 F400.000
G2 X292.544 Y308.812 Z-1.750 I0.155 J-0.374 F400.000
G2 X292.031 Y308.996 Z-1.750 I-0.155 J0.374 F400.000
G1 X292.031 Y308.996 Z-2.000 F400.000
G2 X292.234 Y309.560 Z-2.000 I0.358 J0.189 F400.000
G2 X292.544 Y308.812 Z-2.000 I0.155 J-0.374 F400.000
G2 X292.031 Y308.996 Z-2.000 I-0.155 J0.374 F400.000
G1 X292.031 Y308.996 Z-2.250 F400.000
G2 X292.234 Y309.560 Z-2.250 I0.358 J0.189 F400.000
G2 X292.544 Y308.812 Z-2.250 I0.155 J-0.374 F400.000
G2 X292.031 Y308.996 Z-2.250 I-0.155 J0.374 F400.000
G1 X292.031 Y308.996 Z-2.500 F400.000
G2 X292.234 Y309.560 Z-2.500 I0.358 J0.189 F400.000
G2 X292.544 Y308.812 Z-2.500 I0.155 J-0.374 F400.000
G2 X292.031 Y308.996 Z-2.500 I-0.155 J0.374 F400.000
G1 X292.031 Y308.996 Z-2.750 F400.000
G2 X292.234 Y309.560 Z-2.750 I0.358 J0.189 F400.000
G2 X292.544 Y308.812 Z-2.750 I0.155 J-0.374 F400.000
G2 X292.031 Y308.996 Z-2.750 I-0.155 J0.374 F400.000
G1 X292.031 Y308.996 Z-3.000 F400.000
G2 X292.234 Y309.560 Z-3.000 I0.358 J0.189 F400.000
G2 X292.544 Y308.812 Z-3.000 I0.155 J-0.374 F400.000
G2 X292.031 Y308.996 Z-3.000 I-0.155 J0.374 F400.000
G1 X292.031 Y308.996 Z-3.250 F400.000
G2 X292.234 Y309.560 Z-3.250 I0.358 J0.189 F400.000
G2 X292.544 Y308.812 Z-3.250 I0.155 J-0.374 F400.000
G2 X292.031 Y308.996 Z-3.250 I-0.155 J0.374 F400.000
G1 X292.031 Y308.996 Z-3.420 F400.000
G2 X292.234 Y309.560 Z-3.420 I0.358 J0.189 F400.000
G2 X292.544 Y308.812 Z-3.420 I0.155 J-0.374 F400.000
G2 X292.031 Y308.996 Z-3.420 I-0.155 J0.374 F400.000
G0 Z5.250
G0 Z5.250
G0 X292.031 Y308.996
G0 X292.384 Y340.781
G0 X292.384 Y340.781 Z3.250
G1 X292.384 Y340.781 Z0.000 F400.000
G2 X292.234 Y341.560 Z0.000 I0.005 J0.405 F400.000
G2 X292.544 Y340.812 Z0.000 I0.155 J-0.374 F400.000
G2 X292.384 Y340.781 Z0.000 I-0.155 J0.374 F400.000
G1 X292.384 Y340.781 Z-0.250 F400.000
G2 X292.234 Y341.560 Z-0.250 I0.005 J0.405 F400.000
G2 X292.544 Y340.812 Z-0.250 I0.155 J-0.374 F400.000
G2 X292.384 Y340.781 Z-0.250 I-0.155 J0.374 F400.000
G1 X292.384 Y340.781 Z-0.500 F400.000
G2 X292.234 Y341.560 Z-0.500 I0.005 J0.405 F400.000
G2 X292.544 Y340.812 Z-0.500 I0.155 J-0.374 F400.000
G2 X292.384 Y340.781 Z-0.500 I-0.155 J0.374 F400.000
G1 X292.384 Y340.781 Z-0.750 F400.000
G2 X292.234 Y341.560 Z-0.750 I0.005 J0.405 F400.000
G2 X292.544 Y340.812 Z-0.750 I0.155 J-0.374 F400.000
G2 X292.384 Y340.781 Z-0.750 I-0.155 J0.374 F400.000
G1 X292.384 Y340.781 Z-1.000 F400.000
G2 X292.234 Y341.560 Z-1.000 I0.005 J0.405 F400.000
G2 X292.544 Y340.812 Z-1.000 I0.155 J-0.374 F400.000
G2 X292.384 Y340.781 Z-1.000 I-0.155 J0.374 F400.000
G1 X292.384 Y340.781 Z-1.250 F400.000
G2 X292.234 Y341.560 Z-1.250 I0.005 J0.405 F400.000
G2 X292.544 Y340.812 Z-1.250 I0.155 J-0.374 F400.000
G2 X292.384 Y340.781 Z-1.250 I-0.155 J0.374 F400.000
G1 X292.384 Y340.781 Z-1.500 F400.000
G2 X292.234 Y341.560 Z-1.500 I0.005 J0.405 F400.000
G2 X292.544 Y340.812 Z-1.500 I0.155 J-0.374 F400.000
G2 X292.384 Y340.781 Z-1.500 I-0.155 J0.374 F400.000
G1 X292.384 Y340.781 Z-1.750 F400.000
G2 X292.234 Y341.560 Z-1.750 I0.005 J0.405 F400.000
G2 X292.544 Y340.812 Z-1.750 I0.155 J-0.374 F400.000
G2 X292.384 Y340.781 Z-1.750 I-0.155 J0.374 F400.000
G1 X292.384 Y340.781 Z-2.000 F400.000
G2 X292.234 Y341.560 Z-2.000 I0.005 J0.405 F400.000
G2 X292.544 Y340.812 Z-2.000 I0.155 J-0.374 F400.000
G2 X292.384 Y340.781 Z-2.000 I-0.155 J0.374 F400.000
G1 X292.384 Y340.781 Z-2.250 F400.000
G2 X292.234 Y341.560 Z-2.250 I0.005 J0.405 F400.000
G2 X292.544 Y340.812 Z-2.250 I0.155 J-0.374 F400.000
G2 X292.384 Y340.781 Z-2.250 I-0.155 J0.374 F400.000
G1 X292.384 Y340.781 Z-2.500 F400.000
G2 X292.234 Y341.560 Z-2.500 I0.005 J0.405 F400.000
G2 X292.544 Y340.812 Z-2.500 I0.155 J-0.374 F400.000
G2 X292.384 Y340.781 Z-2.500 I-0.155 J0.374 F400.000
G1 X292.384 Y340.781 Z-2.750 F400.000
G2 X292.234 Y341.560 Z-2.750 I0.005 J0.405 F400.000
G2 X292.544 Y340.812 Z-2.750 I0.155 J-0.374 F400.000
G2 X292.384 Y340.781 Z-2.750 I-0.155 J0.374 F400.000
G1 X292.384 Y340.781 Z-3.000 F400.000
G2 X292.234 Y341.560 Z-3.000 I0.005 J0.405 F400.000
G2 X292.544 Y340.812 Z-3.000 I0.155 J-0.374 F400.000
G2 X292.384 Y340.781 Z-3.000 I-0.155 J0.374 F400.000
G1 X292.384 Y340.781 Z-3.250 F400.000
G2 X292.234 Y341.560 Z-3.250 I0.005 J0.405 F400.000
G2 X292.544 Y340.812 Z-3.250 I0.155 J-0.374 F400.000
G2 X292.384 Y340.781 Z-3.250 I-0.155 J0.374 F400.000
G1 X292.384 Y340.781 Z-3.420 F400.000
G2 X292.234 Y341.560 Z-3.420 I0.005 J0.405 F400.000
G2 X292.544 Y340.812 Z-3.420 I0.155 J-0.374 F400.000
G2 X292.384 Y340.781 Z-3.420 I-0.155 J0.374 F400.000
G0 Z5.250
G0 Z5.250
(finish operation: Profile008)
(begin operation: Profile009)
(machine: not set, mm/min)
(Profile009)
(Compensated Tool Path. Diameter: 3.175)
G0 Z5.250
G0 X301.511 Y350.308
G0 Z3.250
G1 X301.511 Y350.308 Z0.000 F400.000
G2 X301.976 Y349.186 Z0.000 I-1.123 J-1.123 F400.000
G1 X301.976 Y273.183 Z0.000 F400.000
G2 X300.389 Y271.595 Z0.000 I-1.587 J-0.000 F400.000
G1 X77.389 Y271.595 Z0.000 F400.000
G2 X75.801 Y273.183 Z0.000 I-0.000 J1.587 F400.000
G1 X75.801 Y349.186 Z0.000 F400.000
G2 X77.389 Y350.773 Z0.000 I1.587 J0.000 F400.000
G1 X300.389 Y350.773 Z0.000 F400.000
G2 X301.511 Y350.308 Z0.000 I0.000 J-1.587 F400.000
G1 X301.511 Y350.308 Z-0.250 F400.000
G2 X301.976 Y349.186 Z-0.250 I-1.123 J-1.123 F400.000
G1 X301.976 Y273.183 Z-0.250 F400.000
G2 X300.389 Y271.595 Z-0.250 I-1.587 J-0.000 F400.000
G1 X77.389 Y271.595 Z-0.250 F400.000
G2 X75.801 Y273.183 Z-0.250 I-0.000 J1.587 F400.000
G1 X75.801 Y349.186 Z-0.250 F400.000
G2 X77.389 Y350.773 Z-0.250 I1.587 J0.000 F400.000
G1 X300.389 Y350.773 Z-0.250 F400.000
G2 X301.511 Y350.308 Z-0.250 I0.000 J-1.587 F400.000
G1 X301.511 Y350.308 Z-0.500 F400.000
G2 X301.976 Y349.186 Z-0.500 I-1.123 J-1.123 F400.000
G1 X301.976 Y273.183 Z-0.500 F400.000
G2 X300.389 Y271.595 Z-0.500 I-1.587 J-0.000 F400.000
G1 X77.389 Y271.595 Z-0.500 F400.000
G2 X75.801 Y273.183 Z-0.500 I-0.000 J1.587 F400.000
G1 X75.801 Y349.186 Z-0.500 F400.000
G2 X77.389 Y350.773 Z-0.500 I1.587 J0.000 F400.000
G1 X300.389 Y350.773 Z-0.500 F400.000
G2 X301.511 Y350.308 Z-0.500 I0.000 J-1.587 F400.000
G1 X301.511 Y350.308 Z-0.750 F400.000
G2 X301.976 Y349.186 Z-0.750 I-1.123 J-1.123 F400.000
G1 X301.976 Y273.183 Z-0.750 F400.000
G2 X300.389 Y271.595 Z-0.750 I-1.587 J-0.000 F400.000
G1 X77.389 Y271.595 Z-0.750 F400.000
G2 X75.801 Y273.183 Z-0.750 I-0.000 J1.587 F400.000
G1 X75.801 Y349.186 Z-0.750 F400.000
G2 X77.389 Y350.773 Z-0.750 I1.587 J0.000 F400.000
G1 X300.389 Y350.773 Z-0.750 F400.000
G2 X301.511 Y350.308 Z-0.750 I0.000 J-1.587 F400.000
G1 X301.511 Y350.308 Z-1.000 F400.000
G2 X301.976 Y349.186 Z-1.000 I-1.123 J-1.123 F400.000
G1 X301.976 Y273.183 Z-1.000 F400.000
G2 X300.389 Y271.595 Z-1.000 I-1.587 J-0.000 F400.000
G1 X77.389 Y271.595 Z-1.000 F400.000
G2 X75.801 Y273.183 Z-1.000 I-0.000 J1.587 F400.000
G1 X75.801 Y349.186 Z-1.000 F400.000
G2 X77.389 Y350.773 Z-1.000 I1.587 J0.000 F400.000
G1 X300.389 Y350.773 Z-1.000 F400.000
G2 X301.511 Y350.308 Z-1.000 I0.000 J-1.587 F400.000
G1 X301.511 Y350.308 Z-1.250 F400.000
G2 X301.976 Y349.186 Z-1.250 I-1.123 J-1.123 F400.000
G1 X301.976 Y273.183 Z-1.250 F400.000
G2 X300.389 Y271.595 Z-1.250 I-1.587 J-0.000 F400.000
G1 X77.389 Y271.595 Z-1.250 F400.000
G2 X75.801 Y273.183 Z-1.250 I-0.000 J1.587 F400.000
G1 X75.801 Y349.186 Z-1.250 F400.000
G2 X77.389 Y350.773 Z-1.250 I1.587 J0.000 F400.000
G1 X300.389 Y350.773 Z-1.250 F400.000
G2 X301.511 Y350.308 Z-1.250 I0.000 J-1.587 F400.000
G1 X301.511 Y350.308 Z-1.500 F400.000
G2 X301.976 Y349.186 Z-1.500 I-1.123 J-1.123 F400.000
G1 X301.976 Y273.183 Z-1.500 F400.000
G2 X300.389 Y271.595 Z-1.500 I-1.587 J-0.000 F400.000
G1 X77.389 Y271.595 Z-1.500 F400.000
G2 X75.801 Y273.183 Z-1.500 I-0.000 J1.587 F400.000
G1 X75.801 Y349.186 Z-1.500 F400.000
G2 X77.389 Y350.773 Z-1.500 I1.587 J0.000 F400.000
G1 X300.389 Y350.773 Z-1.500 F400.000
G2 X301.511 Y350.308 Z-1.500 I0.000 J-1.587 F400.000
G1 X301.511 Y350.308 Z-1.750 F400.000
G2 X301.976 Y349.186 Z-1.750 I-1.123 J-1.123 F400.000
G1 X301.976 Y273.183 Z-1.750 F400.000
G2 X300.389 Y271.595 Z-1.750 I-1.587 J-0.000 F400.000
G1 X77.389 Y271.595 Z-1.750 F400.000
G2 X75.801 Y273.183 Z-1.750 I-0.000 J1.587 F400.000
G1 X75.801 Y349.186 Z-1.750 F400.000
G2 X77.389 Y350.773 Z-1.750 I1.587 J0.000 F400.000
G1 X300.389 Y350.773 Z-1.750 F400.000
G2 X301.511 Y350.308 Z-1.750 I0.000 J-1.587 F400.000
G1 X301.511 Y350.308 Z-2.000 F400.000
G2 X301.976 Y349.186 Z-2.000 I-1.123 J-1.123 F400.000
G1 X301.976 Y273.183 Z-2.000 F400.000
G2 X300.389 Y271.595 Z-2.000 I-1.587 J-0.000 F400.000
G1 X77.389 Y271.595 Z-2.000 F400.000
G2 X75.801 Y273.183 Z-2.000 I-0.000 J1.587 F400.000
G1 X75.801 Y349.186 Z-2.000 F400.000
G2 X77.389 Y350.773 Z-2.000 I1.587 J0.000 F400.000
G1 X300.389 Y350.773 Z-2.000 F400.000
G2 X301.511 Y350.308 Z-2.000 I0.000 J-1.587 F400.000
G1 X301.511 Y350.308 Z-2.250 F400.000
G2 X301.976 Y349.186 Z-2.250 I-1.123 J-1.123 F400.000
G1 X301.976 Y273.183 Z-2.250 F400.000
G2 X300.389 Y271.595 Z-2.250 I-1.587 J-0.000 F400.000
G1 X77.389 Y271.595 Z-2.250 F400.000
G2 X75.801 Y273.183 Z-2.250 I-0.000 J1.587 F400.000
G1 X75.801 Y349.186 Z-2.250 F400.000
G2 X77.389 Y350.773 Z-2.250 I1.587 J0.000 F400.000
G1 X300.389 Y350.773 Z-2.250 F400.000
G2 X301.511 Y350.308 Z-2.250 I0.000 J-1.587 F400.000
G1 X301.511 Y350.308 Z-2.500 F400.000
G2 X301.976 Y349.186 Z-2.500 I-1.123 J-1.123 F400.000
G1 X301.976 Y273.183 Z-2.500 F400.000
G2 X300.389 Y271.595 Z-2.500 I-1.587 J-0.000 F400.000
G1 X77.389 Y271.595 Z-2.500 F400.000
G2 X75.801 Y273.183 Z-2.500 I-0.000 J1.587 F400.000
G1 X75.801 Y349.186 Z-2.500 F400.000
G2 X77.389 Y350.773 Z-2.500 I1.587 J0.000 F400.000
G1 X300.389 Y350.773 Z-2.500 F400.000
G2 X301.511 Y350.308 Z-2.500 I0.000 J-1.587 F400.000
G1 X301.511 Y350.308 Z-2.750 F400.000
G2 X301.976 Y349.186 Z-2.750 I-1.123 J-1.123 F400.000
G1 X301.976 Y273.183 Z-2.750 F400.000
G2 X300.389 Y271.595 Z-2.750 I-1.587 J-0.000 F400.000
G1 X77.389 Y271.595 Z-2.750 F400.000
G2 X75.801 Y273.183 Z-2.750 I-0.000 J1.587 F400.000
G1 X75.801 Y349.186 Z-2.750 F400.000
G2 X77.389 Y350.773 Z-2.750 I1.587 J0.000 F400.000
G1 X300.389 Y350.773 Z-2.750 F400.000
G2 X301.511 Y350.308 Z-2.750 I0.000 J-1.587 F400.000
G1 X301.511 Y350.308 Z-3.000 F400.000
G2 X301.976 Y349.186 Z-3.000 I-1.123 J-1.123 F400.000
G1 X301.976 Y273.183 Z-3.000 F400.000
G2 X300.389 Y271.595 Z-3.000 I-1.587 J-0.000 F400.000
G1 X77.389 Y271.595 Z-3.000 F400.000
G2 X75.801 Y273.183 Z-3.000 I-0.000 J1.587 F400.000
G1 X75.801 Y349.186 Z-3.000 F400.000
G2 X77.389 Y350.773 Z-3.000 I1.587 J0.000 F400.000
G1 X300.389 Y350.773 Z-3.000 F400.000
G2 X301.511 Y350.308 Z-3.000 I0.000 J-1.587 F400.000
G1 X301.511 Y350.308 Z-3.250 F400.000
G2 X301.976 Y349.186 Z-3.250 I-1.123 J-1.123 F400.000
G1 X301.976 Y273.183 Z-3.250 F400.000
G2 X300.389 Y271.595 Z-3.250 I-1.587 J-0.000 F400.000
G1 X77.389 Y271.595 Z-3.250 F400.000
G2 X75.801 Y273.183 Z-3.250 I-0.000 J1.587 F400.000
G1 X75.801 Y349.186 Z-3.250 F400.000
G2 X77.389 Y350.773 Z-3.250 I1.587 J0.000 F400.000
G1 X300.389 Y350.773 Z-3.250 F400.000
G2 X301.511 Y350.308 Z-3.250 I0.000 J-1.587 F400.000
G1 X301.511 Y350.308 Z-3.420 F400.000
G2 X301.976 Y349.186 Z-3.420 I-1.123 J-1.123 F400.000
G1 X301.976 Y273.183 Z-3.420 F400.000
G2 X300.389 Y271.595 Z-3.420 I-1.587 J-0.000 F400.000
G1 X77.389 Y271.595 Z-3.420 F400.000
G2 X75.801 Y273.183 Z-3.420 I-0.000 J1.587 F400.000
G1 X75.801 Y349.186 Z-3.420 F400.000
G2 X77.389 Y350.773 Z-3.420 I1.587 J0.000 F400.000
G1 X300.389 Y350.773 Z-3.420 F400.000
G2 X301.511 Y350.308 Z-3.420 I0.000 J-1.587 F400.000
G0 Z5.250
G0 Z5.250
(finish operation: Profile009)
(begin postamble)
M05 M09
G17 G90 G80 G40
M30
