(Exported by FreeCAD)
(Post Processor: script_module)
(Output Time:2024-11-24 18:07:52.586365)
(begin preamble)
%
G17 G21 G40 G49 G80 G90
M08
G21
(begin operation: Fixture)
(machine: not set, mm/min)
G54
(finish operation: Fixture)
(begin operation: 1/8in Endmill006)
(machine: not set, mm/min)
(1/8in Endmill006)
M05
M09M6 T1
M3 S15000
(finish operation: 1/8in Endmill006)
(begin operation: Pocket_Shape001)
(machine: not set, mm/min)
(Pocket_Shape001)
G0 Z5.250
G0 X32.956 Y46.671
G0 Z3.250
G1 X32.956 Y46.671 Z-0.000 F400.000
G1 X47.856 Y46.671 Z-0.000 F400.000
G1 X47.856 Y47.146 Z-0.000 F400.000
G1 X32.956 Y47.146 Z-0.000 F400.000
G1 X32.956 Y46.671 Z-0.000 F400.000
G1 X32.956 Y45.084 Z-0.000 F400.000
G1 X47.856 Y45.084 Z-0.000 F400.000
G1 X47.856 Y43.496 Z-0.000 F400.000
G1 X32.956 Y43.496 Z-0.000 F400.000
G1 X32.956 Y41.909 Z-0.000 F400.000
G1 X47.856 Y41.909 Z-0.000 F400.000
G1 X47.856 Y40.321 Z-0.000 F400.000
G1 X32.956 Y40.321 Z-0.000 F400.000
G1 X32.956 Y40.321 Z-0.250 F400.000
G1 X47.856 Y40.321 Z-0.250 F400.000
G1 X47.856 Y41.909 Z-0.250 F400.000
G1 X32.956 Y41.909 Z-0.250 F400.000
G1 X32.956 Y43.496 Z-0.250 F400.000
G1 X47.856 Y43.496 Z-0.250 F400.000
G1 X47.856 Y45.084 Z-0.250 F400.000
G1 X32.956 Y45.084 Z-0.250 F400.000
G1 X32.956 Y46.671 Z-0.250 F400.000
G1 X32.956 Y47.146 Z-0.250 F400.000
G1 X47.856 Y47.146 Z-0.250 F400.000
G1 X47.856 Y46.671 Z-0.250 F400.000
G1 X32.956 Y46.671 Z-0.250 F400.000
G1 X32.956 Y46.671 Z-0.500 F400.000
G1 X47.856 Y46.671 Z-0.500 F400.000
G1 X47.856 Y47.146 Z-0.500 F400.000
G1 X32.956 Y47.146 Z-0.500 F400.000
G1 X32.956 Y46.671 Z-0.500 F400.000
G1 X32.956 Y45.084 Z-0.500 F400.000
G1 X47.856 Y45.084 Z-0.500 F400.000
G1 X47.856 Y43.496 Z-0.500 F400.000
G1 X32.956 Y43.496 Z-0.500 F400.000
G1 X32.956 Y41.909 Z-0.500 F400.000
G1 X47.856 Y41.909 Z-0.500 F400.000
G1 X47.856 Y40.321 Z-0.500 F400.000
G1 X32.956 Y40.321 Z-0.500 F400.000
G1 X32.956 Y40.321 Z-0.750 F400.000
G1 X47.856 Y40.321 Z-0.750 F400.000
G1 X47.856 Y41.909 Z-0.750 F400.000
G1 X32.956 Y41.909 Z-0.750 F400.000
G1 X32.956 Y43.496 Z-0.750 F400.000
G1 X47.856 Y43.496 Z-0.750 F400.000
G1 X47.856 Y45.084 Z-0.750 F400.000
G1 X32.956 Y45.084 Z-0.750 F400.000
G1 X32.956 Y46.671 Z-0.750 F400.000
G1 X32.956 Y47.146 Z-0.750 F400.000
G1 X47.856 Y47.146 Z-0.750 F400.000
G1 X47.856 Y46.671 Z-0.750 F400.000
G1 X32.956 Y46.671 Z-0.750 F400.000
G1 X32.956 Y46.671 Z-1.000 F400.000
G1 X47.856 Y46.671 Z-1.000 F400.000
G1 X47.856 Y47.146 Z-1.000 F400.000
G1 X32.956 Y47.146 Z-1.000 F400.000
G1 X32.956 Y46.671 Z-1.000 F400.000
G1 X32.956 Y45.084 Z-1.000 F400.000
G1 X47.856 Y45.084 Z-1.000 F400.000
G1 X47.856 Y43.496 Z-1.000 F400.000
G1 X32.956 Y43.496 Z-1.000 F400.000
G1 X32.956 Y41.909 Z-1.000 F400.000
G1 X47.856 Y41.909 Z-1.000 F400.000
G1 X47.856 Y40.321 Z-1.000 F400.000
G1 X32.956 Y40.321 Z-1.000 F400.000
G1 X32.956 Y40.321 Z-1.250 F400.000
G1 X47.856 Y40.321 Z-1.250 F400.000
G1 X47.856 Y41.909 Z-1.250 F400.000
G1 X32.956 Y41.909 Z-1.250 F400.000
G1 X32.956 Y43.496 Z-1.250 F400.000
G1 X47.856 Y43.496 Z-1.250 F400.000
G1 X47.856 Y45.084 Z-1.250 F400.000
G1 X32.956 Y45.084 Z-1.250 F400.000
G1 X32.956 Y46.671 Z-1.250 F400.000
G1 X32.956 Y47.146 Z-1.250 F400.000
G1 X47.856 Y47.146 Z-1.250 F400.000
G1 X47.856 Y46.671 Z-1.250 F400.000
G1 X32.956 Y46.671 Z-1.250 F400.000
G1 X32.956 Y46.671 Z-1.300 F400.000
G1 X47.856 Y46.671 Z-1.300 F400.000
G1 X47.856 Y47.146 Z-1.300 F400.000
G1 X32.956 Y47.146 Z-1.300 F400.000
G1 X32.956 Y46.671 Z-1.300 F400.000
G1 X32.956 Y45.084 Z-1.300 F400.000
G1 X47.856 Y45.084 Z-1.300 F400.000
G1 X47.856 Y43.496 Z-1.300 F400.000
G1 X32.956 Y43.496 Z-1.300 F400.000
G1 X32.956 Y41.909 Z-1.300 F400.000
G1 X47.856 Y41.909 Z-1.300 F400.000
G1 X47.856 Y40.321 Z-1.300 F400.000
G1 X32.956 Y40.321 Z-1.300 F400.000
G0 Z5.250
G0 Z5.250
G0 X32.956 Y40.321
G0 X56.231
G0 X56.231 Z3.250
G1 X56.231 Y40.321 Z-0.000 F400.000
G1 X71.131 Y40.321 Z-0.000 F400.000
G1 X71.131 Y41.909 Z-0.000 F400.000
G1 X56.231 Y41.909 Z-0.000 F400.000
G1 X56.231 Y43.496 Z-0.000 F400.000
G1 X71.131 Y43.496 Z-0.000 F400.000
G1 X71.131 Y45.084 Z-0.000 F400.000
G1 X56.231 Y45.084 Z-0.000 F400.000
G1 X56.231 Y46.671 Z-0.000 F400.000
G1 X56.231 Y47.146 Z-0.000 F400.000
G1 X71.131 Y47.146 Z-0.000 F400.000
G1 X71.131 Y46.671 Z-0.000 F400.000
G1 X56.231 Y46.671 Z-0.000 F400.000
G1 X56.231 Y46.671 Z-0.250 F400.000
G1 X71.131 Y46.671 Z-0.250 F400.000
G1 X71.131 Y47.146 Z-0.250 F400.000
G1 X56.231 Y47.146 Z-0.250 F400.000
G1 X56.231 Y46.671 Z-0.250 F400.000
G1 X56.231 Y45.084 Z-0.250 F400.000
G1 X71.131 Y45.084 Z-0.250 F400.000
G1 X71.131 Y43.496 Z-0.250 F400.000
G1 X56.231 Y43.496 Z-0.250 F400.000
G1 X56.231 Y41.909 Z-0.250 F400.000
G1 X71.131 Y41.909 Z-0.250 F400.000
G1 X71.131 Y40.321 Z-0.250 F400.000
G1 X56.231 Y40.321 Z-0.250 F400.000
G1 X56.231 Y40.321 Z-0.500 F400.000
G1 X71.131 Y40.321 Z-0.500 F400.000
G1 X71.131 Y41.909 Z-0.500 F400.000
G1 X56.231 Y41.909 Z-0.500 F400.000
G1 X56.231 Y43.496 Z-0.500 F400.000
G1 X71.131 Y43.496 Z-0.500 F400.000
G1 X71.131 Y45.084 Z-0.500 F400.000
G1 X56.231 Y45.084 Z-0.500 F400.000
G1 X56.231 Y46.671 Z-0.500 F400.000
G1 X56.231 Y47.146 Z-0.500 F400.000
G1 X71.131 Y47.146 Z-0.500 F400.000
G1 X71.131 Y46.671 Z-0.500 F400.000
G1 X56.231 Y46.671 Z-0.500 F400.000
G1 X56.231 Y46.671 Z-0.750 F400.000
G1 X71.131 Y46.671 Z-0.750 F400.000
G1 X71.131 Y47.146 Z-0.750 F400.000
G1 X56.231 Y47.146 Z-0.750 F400.000
G1 X56.231 Y46.671 Z-0.750 F400.000
G1 X56.231 Y45.084 Z-0.750 F400.000
G1 X71.131 Y45.084 Z-0.750 F400.000
G1 X71.131 Y43.496 Z-0.750 F400.000
G1 X56.231 Y43.496 Z-0.750 F400.000
G1 X56.231 Y41.909 Z-0.750 F400.000
G1 X71.131 Y41.909 Z-0.750 F400.000
G1 X71.131 Y40.321 Z-0.750 F400.000
G1 X56.231 Y40.321 Z-0.750 F400.000
G1 X56.231 Y40.321 Z-1.000 F400.000
G1 X71.131 Y40.321 Z-1.000 F400.000
G1 X71.131 Y41.909 Z-1.000 F400.000
G1 X56.231 Y41.909 Z-1.000 F400.000
G1 X56.231 Y43.496 Z-1.000 F400.000
G1 X71.131 Y43.496 Z-1.000 F400.000
G1 X71.131 Y45.084 Z-1.000 F400.000
G1 X56.231 Y45.084 Z-1.000 F400.000
G1 X56.231 Y46.671 Z-1.000 F400.000
G1 X56.231 Y47.146 Z-1.000 F400.000
G1 X71.131 Y47.146 Z-1.000 F400.000
G1 X71.131 Y46.671 Z-1.000 F400.000
G1 X56.231 Y46.671 Z-1.000 F400.000
G1 X56.231 Y46.671 Z-1.250 F400.000
G1 X71.131 Y46.671 Z-1.250 F400.000
G1 X71.131 Y47.146 Z-1.250 F400.000
G1 X56.231 Y47.146 Z-1.250 F400.000
G1 X56.231 Y46.671 Z-1.250 F400.000
G1 X56.231 Y45.084 Z-1.250 F400.000
G1 X71.131 Y45.084 Z-1.250 F400.000
G1 X71.131 Y43.496 Z-1.250 F400.000
G1 X56.231 Y43.496 Z-1.250 F400.000
G1 X56.231 Y41.909 Z-1.250 F400.000
G1 X71.131 Y41.909 Z-1.250 F400.000
G1 X71.131 Y40.321 Z-1.250 F400.000
G1 X56.231 Y40.321 Z-1.250 F400.000
G1 X56.231 Y40.321 Z-1.300 F400.000
G1 X71.131 Y40.321 Z-1.300 F400.000
G1 X71.131 Y41.909 Z-1.300 F400.000
G1 X56.231 Y41.909 Z-1.300 F400.000
G1 X56.231 Y43.496 Z-1.300 F400.000
G1 X71.131 Y43.496 Z-1.300 F400.000
G1 X71.131 Y45.084 Z-1.300 F400.000
G1 X56.231 Y45.084 Z-1.300 F400.000
G1 X56.231 Y46.671 Z-1.300 F400.000
G1 X56.231 Y47.146 Z-1.300 F400.000
G1 X71.131 Y47.146 Z-1.300 F400.000
G1 X71.131 Y46.671 Z-1.300 F400.000
G1 X56.231 Y46.671 Z-1.300 F400.000
G0 Z5.250
G0 Z5.250
(finish operation: Pocket_Shape001)
(begin operation: Profile009)
(machine: not set, mm/min)
(Profile009)
(Compensated Tool Path. Diameter: 3.175)
G0 Z5.250
G0 X37.856 Y47.146
G0 Z3.250
G1 X37.856 Y47.146 Z-1.300 F400.000
G1 X37.856 Y40.321 Z-1.300 F400.000
G1 X37.631 Y40.321 Z-1.300 F400.000
G1 X37.631 Y47.146 Z-1.300 F400.000
G1 X37.856 Y47.146 Z-1.300 F400.000
G1 X37.856 Y47.146 Z-1.550 F400.000
G1 X37.856 Y40.321 Z-1.550 F400.000
G1 X37.631 Y40.321 Z-1.550 F400.000
G1 X37.631 Y47.146 Z-1.550 F400.000
G1 X37.856 Y47.146 Z-1.550 F400.000
G1 X37.856 Y47.146 Z-1.800 F400.000
G1 X37.856 Y40.321 Z-1.800 F400.000
G1 X37.631 Y40.321 Z-1.800 F400.000
G1 X37.631 Y47.146 Z-1.800 F400.000
G1 X37.856 Y47.146 Z-1.800 F400.000
G1 X37.856 Y47.146 Z-2.050 F400.000
G1 X37.856 Y40.321 Z-2.050 F400.000
G1 X37.631 Y40.321 Z-2.050 F400.000
G1 X37.631 Y47.146 Z-2.050 F400.000
G1 X37.856 Y47.146 Z-2.050 F400.000
G1 X37.856 Y47.146 Z-2.300 F400.000
G1 X37.856 Y40.321 Z-2.300 F400.000
G1 X37.631 Y40.321 Z-2.300 F400.000
G1 X37.631 Y47.146 Z-2.300 F400.000
G1 X37.856 Y47.146 Z-2.300 F400.000
G1 X37.856 Y47.146 Z-2.530 F400.000
G1 X37.856 Y40.321 Z-2.530 F400.000
G1 X37.631 Y40.321 Z-2.530 F400.000
G1 X37.631 Y47.146 Z-2.530 F400.000
G1 X37.856 Y47.146 Z-2.530 F400.000
G0 Z5.250
G0 Z5.250
G0 X37.856 Y47.146
G0 X42.631
G0 X42.631 Z3.250
G1 X42.631 Y47.146 Z-1.300 F400.000
G1 X42.856 Y47.146 Z-1.300 F400.000
G1 X42.856 Y40.321 Z-1.300 F400.000
G1 X42.631 Y40.321 Z-1.300 F400.000
G1 X42.631 Y47.146 Z-1.300 F400.000
G1 X42.631 Y47.146 Z-1.550 F400.000
G1 X42.856 Y47.146 Z-1.550 F400.000
G1 X42.856 Y40.321 Z-1.550 F400.000
G1 X42.631 Y40.321 Z-1.550 F400.000
G1 X42.631 Y47.146 Z-1.550 F400.000
G1 X42.631 Y47.146 Z-1.800 F400.000
G1 X42.856 Y47.146 Z-1.800 F400.000
G1 X42.856 Y40.321 Z-1.800 F400.000
G1 X42.631 Y40.321 Z-1.800 F400.000
G1 X42.631 Y47.146 Z-1.800 F400.000
G1 X42.631 Y47.146 Z-2.050 F400.000
G1 X42.856 Y47.146 Z-2.050 F400.000
G1 X42.856 Y40.321 Z-2.050 F400.000
G1 X42.631 Y40.321 Z-2.050 F400.000
G1 X42.631 Y47.146 Z-2.050 F400.000
G1 X42.631 Y47.146 Z-2.300 F400.000
G1 X42.856 Y47.146 Z-2.300 F400.000
G1 X42.856 Y40.321 Z-2.300 F400.000
G1 X42.631 Y40.321 Z-2.300 F400.000
G1 X42.631 Y47.146 Z-2.300 F400.000
G1 X42.631 Y47.146 Z-2.530 F400.000
G1 X42.856 Y47.146 Z-2.530 F400.000
G1 X42.856 Y40.321 Z-2.530 F400.000
G1 X42.631 Y40.321 Z-2.530 F400.000
G1 X42.631 Y47.146 Z-2.530 F400.000
G0 Z5.250
G0 Z5.250
G0 X42.631 Y47.146
G0 X47.631
G0 X47.631 Z3.250
G1 X47.631 Y47.146 Z-1.300 F400.000
G1 X47.856 Y47.146 Z-1.300 F400.000
G1 X47.856 Y40.321 Z-1.300 F400.000
G1 X47.631 Y40.321 Z-1.300 F400.000
G1 X47.631 Y47.146 Z-1.300 F400.000
G1 X47.631 Y47.146 Z-1.550 F400.000
G1 X47.856 Y47.146 Z-1.550 F400.000
G1 X47.856 Y40.321 Z-1.550 F400.000
G1 X47.631 Y40.321 Z-1.550 F400.000
G1 X47.631 Y47.146 Z-1.550 F400.000
G1 X47.631 Y47.146 Z-1.800 F400.000
G1 X47.856 Y47.146 Z-1.800 F400.000
G1 X47.856 Y40.321 Z-1.800 F400.000
G1 X47.631 Y40.321 Z-1.800 F400.000
G1 X47.631 Y47.146 Z-1.800 F400.000
G1 X47.631 Y47.146 Z-2.050 F400.000
G1 X47.856 Y47.146 Z-2.050 F400.000
G1 X47.856 Y40.321 Z-2.050 F400.000
G1 X47.631 Y40.321 Z-2.050 F400.000
G1 X47.631 Y47.146 Z-2.050 F400.000
G1 X47.631 Y47.146 Z-2.300 F400.000
G1 X47.856 Y47.146 Z-2.300 F400.000
G1 X47.856 Y40.321 Z-2.300 F400.000
G1 X47.631 Y40.321 Z-2.300 F400.000
G1 X47.631 Y47.146 Z-2.300 F400.000
G1 X47.631 Y47.146 Z-2.530 F400.000
G1 X47.856 Y47.146 Z-2.530 F400.000
G1 X47.856 Y40.321 Z-2.530 F400.000
G1 X47.631 Y40.321 Z-2.530 F400.000
G1 X47.631 Y47.146 Z-2.530 F400.000
G0 Z5.250
G0 Z5.250
G0 X47.631 Y47.146
G0 X56.231
G0 X56.231 Z3.250
G1 X56.231 Y47.146 Z-1.300 F400.000
G1 X56.456 Y47.146 Z-1.300 F400.000
G1 X56.456 Y40.321 Z-1.300 F400.000
G1 X56.231 Y40.321 Z-1.300 F400.000
G1 X56.231 Y47.146 Z-1.300 F400.000
G1 X56.231 Y47.146 Z-1.550 F400.000
G1 X56.456 Y47.146 Z-1.550 F400.000
G1 X56.456 Y40.321 Z-1.550 F400.000
G1 X56.231 Y40.321 Z-1.550 F400.000
G1 X56.231 Y47.146 Z-1.550 F400.000
G1 X56.231 Y47.146 Z-1.800 F400.000
G1 X56.456 Y47.146 Z-1.800 F400.000
G1 X56.456 Y40.321 Z-1.800 F400.000
G1 X56.231 Y40.321 Z-1.800 F400.000
G1 X56.231 Y47.146 Z-1.800 F400.000
G1 X56.231 Y47.146 Z-2.050 F400.000
G1 X56.456 Y47.146 Z-2.050 F400.000
G1 X56.456 Y40.321 Z-2.050 F400.000
G1 X56.231 Y40.321 Z-2.050 F400.000
G1 X56.231 Y47.146 Z-2.050 F400.000
G1 X56.231 Y47.146 Z-2.300 F400.000
G1 X56.456 Y47.146 Z-2.300 F400.000
G1 X56.456 Y40.321 Z-2.300 F400.000
G1 X56.231 Y40.321 Z-2.300 F400.000
G1 X56.231 Y47.146 Z-2.300 F400.000
G1 X56.231 Y47.146 Z-2.530 F400.000
G1 X56.456 Y47.146 Z-2.530 F400.000
G1 X56.456 Y40.321 Z-2.530 F400.000
G1 X56.231 Y40.321 Z-2.530 F400.000
G1 X56.231 Y47.146 Z-2.530 F400.000
G0 Z5.250
G0 Z5.250
G0 X56.231 Y47.146
G0 X61.231
G0 X61.231 Z3.250
G1 X61.231 Y47.146 Z-1.300 F400.000
G1 X61.456 Y47.146 Z-1.300 F400.000
G1 X61.456 Y40.321 Z-1.300 F400.000
G1 X61.231 Y40.321 Z-1.300 F400.000
G1 X61.231 Y47.146 Z-1.300 F400.000
G1 X61.231 Y47.146 Z-1.550 F400.000
G1 X61.456 Y47.146 Z-1.550 F400.000
G1 X61.456 Y40.321 Z-1.550 F400.000
G1 X61.231 Y40.321 Z-1.550 F400.000
G1 X61.231 Y47.146 Z-1.550 F400.000
G1 X61.231 Y47.146 Z-1.800 F400.000
G1 X61.456 Y47.146 Z-1.800 F400.000
G1 X61.456 Y40.321 Z-1.800 F400.000
G1 X61.231 Y40.321 Z-1.800 F400.000
G1 X61.231 Y47.146 Z-1.800 F400.000
G1 X61.231 Y47.146 Z-2.050 F400.000
G1 X61.456 Y47.146 Z-2.050 F400.000
G1 X61.456 Y40.321 Z-2.050 F400.000
G1 X61.231 Y40.321 Z-2.050 F400.000
G1 X61.231 Y47.146 Z-2.050 F400.000
G1 X61.231 Y47.146 Z-2.300 F400.000
G1 X61.456 Y47.146 Z-2.300 F400.000
G1 X61.456 Y40.321 Z-2.300 F400.000
G1 X61.231 Y40.321 Z-2.300 F400.000
G1 X61.231 Y47.146 Z-2.300 F400.000
G1 X61.231 Y47.146 Z-2.530 F400.000
G1 X61.456 Y47.146 Z-2.530 F400.000
G1 X61.456 Y40.321 Z-2.530 F400.000
G1 X61.231 Y40.321 Z-2.530 F400.000
G1 X61.231 Y47.146 Z-2.530 F400.000
G0 Z5.250
G0 Z5.250
G0 X61.231 Y47.146
G0 X66.231
G0 X66.231 Z3.250
G1 X66.231 Y47.146 Z-1.300 F400.000
G1 X66.456 Y47.146 Z-1.300 F400.000
G1 X66.456 Y40.321 Z-1.300 F400.000
G1 X66.231 Y40.321 Z-1.300 F400.000
G1 X66.231 Y47.146 Z-1.300 F400.000
G1 X66.231 Y47.146 Z-1.550 F400.000
G1 X66.456 Y47.146 Z-1.550 F400.000
G1 X66.456 Y40.321 Z-1.550 F400.000
G1 X66.231 Y40.321 Z-1.550 F400.000
G1 X66.231 Y47.146 Z-1.550 F400.000
G1 X66.231 Y47.146 Z-1.800 F400.000
G1 X66.456 Y47.146 Z-1.800 F400.000
G1 X66.456 Y40.321 Z-1.800 F400.000
G1 X66.231 Y40.321 Z-1.800 F400.000
G1 X66.231 Y47.146 Z-1.800 F400.000
G1 X66.231 Y47.146 Z-2.050 F400.000
G1 X66.456 Y47.146 Z-2.050 F400.000
G1 X66.456 Y40.321 Z-2.050 F400.000
G1 X66.231 Y40.321 Z-2.050 F400.000
G1 X66.231 Y47.146 Z-2.050 F400.000
G1 X66.231 Y47.146 Z-2.300 F400.000
G1 X66.456 Y47.146 Z-2.300 F400.000
G1 X66.456 Y40.321 Z-2.300 F400.000
G1 X66.231 Y40.321 Z-2.300 F400.000
G1 X66.231 Y47.146 Z-2.300 F400.000
G1 X66.231 Y47.146 Z-2.530 F400.000
G1 X66.456 Y47.146 Z-2.530 F400.000
G1 X66.456 Y40.321 Z-2.530 F400.000
G1 X66.231 Y40.321 Z-2.530 F400.000
G1 X66.231 Y47.146 Z-2.530 F400.000
G0 Z5.250
G0 Z5.250
(finish operation: Profile009)
(begin operation: Profile005)
(machine: not set, mm/min)
(Profile005)
(Compensated Tool Path. Diameter: 3.175)
G0 Z5.250
G0 X47.856 Y47.146
G0 Z3.250
G1 X47.856 Y47.146 Z-0.000 F400.000
G1 X47.856 Y40.321 Z-0.000 F400.000
G1 X47.831 Y40.321 Z-0.000 F400.000
G1 X47.831 Y47.146 Z-0.000 F400.000
G1 X47.856 Y47.146 Z-0.000 F400.000
G1 X47.856 Y47.146 Z-0.250 F400.000
G1 X47.856 Y40.321 Z-0.250 F400.000
G1 X47.831 Y40.321 Z-0.250 F400.000
G1 X47.831 Y47.146 Z-0.250 F400.000
G1 X47.856 Y47.146 Z-0.250 F400.000
G1 X47.856 Y47.146 Z-0.500 F400.000
G1 X47.856 Y40.321 Z-0.500 F400.000
G1 X47.831 Y40.321 Z-0.500 F400.000
G1 X47.831 Y47.146 Z-0.500 F400.000
G1 X47.856 Y47.146 Z-0.500 F400.000
G1 X47.856 Y47.146 Z-0.750 F400.000
G1 X47.856 Y40.321 Z-0.750 F400.000
G1 X47.831 Y40.321 Z-0.750 F400.000
G1 X47.831 Y47.146 Z-0.750 F400.000
G1 X47.856 Y47.146 Z-0.750 F400.000
G1 X47.856 Y47.146 Z-1.000 F400.000
G1 X47.856 Y40.321 Z-1.000 F400.000
G1 X47.831 Y40.321 Z-1.000 F400.000
G1 X47.831 Y47.146 Z-1.000 F400.000
G1 X47.856 Y47.146 Z-1.000 F400.000
G1 X47.856 Y47.146 Z-1.250 F400.000
G1 X47.856 Y40.321 Z-1.250 F400.000
G1 X47.831 Y40.321 Z-1.250 F400.000
G1 X47.831 Y47.146 Z-1.250 F400.000
G1 X47.856 Y47.146 Z-1.250 F400.000
G1 X47.856 Y47.146 Z-1.300 F400.000
G1 X47.856 Y40.321 Z-1.300 F400.000
G1 X47.831 Y40.321 Z-1.300 F400.000
G1 X47.831 Y47.146 Z-1.300 F400.000
G1 X47.856 Y47.146 Z-1.300 F400.000
G0 Z5.250
G0 Z5.250
G0 X47.856 Y47.146
G0 X56.231 Y47.146
G0 X56.231 Y47.146 Z3.250
G1 X56.231 Y47.146 Z-0.000 F400.000
G1 X56.256 Y47.146 Z-0.000 F400.000
G1 X56.256 Y40.321 Z-0.000 F400.000
G1 X56.231 Y40.321 Z-0.000 F400.000
G1 X56.231 Y47.146 Z-0.000 F400.000
G1 X56.231 Y47.146 Z-0.250 F400.000
G1 X56.256 Y47.146 Z-0.250 F400.000
G1 X56.256 Y40.321 Z-0.250 F400.000
G1 X56.231 Y40.321 Z-0.250 F400.000
G1 X56.231 Y47.146 Z-0.250 F400.000
G1 X56.231 Y47.146 Z-0.500 F400.000
G1 X56.256 Y47.146 Z-0.500 F400.000
G1 X56.256 Y40.321 Z-0.500 F400.000
G1 X56.231 Y40.321 Z-0.500 F400.000
G1 X56.231 Y47.146 Z-0.500 F400.000
G1 X56.231 Y47.146 Z-0.750 F400.000
G1 X56.256 Y47.146 Z-0.750 F400.000
G1 X56.256 Y40.321 Z-0.750 F400.000
G1 X56.231 Y40.321 Z-0.750 F400.000
G1 X56.231 Y47.146 Z-0.750 F400.000
G1 X56.231 Y47.146 Z-1.000 F400.000
G1 X56.256 Y47.146 Z-1.000 F400.000
G1 X56.256 Y40.321 Z-1.000 F400.000
G1 X56.231 Y40.321 Z-1.000 F400.000
G1 X56.231 Y47.146 Z-1.000 F400.000
G1 X56.231 Y47.146 Z-1.250 F400.000
G1 X56.256 Y47.146 Z-1.250 F400.000
G1 X56.256 Y40.321 Z-1.250 F400.000
G1 X56.231 Y40.321 Z-1.250 F400.000
G1 X56.231 Y47.146 Z-1.250 F400.000
G1 X56.231 Y47.146 Z-1.300 F400.000
G1 X56.256 Y47.146 Z-1.300 F400.000
G1 X56.256 Y40.321 Z-1.300 F400.000
G1 X56.231 Y40.321 Z-1.300 F400.000
G1 X56.231 Y47.146 Z-1.300 F400.000
G0 Z5.250
G0 Z5.250
(finish operation: Profile005)
(begin operation: Profile006)
(machine: not set, mm/min)
(Profile006)
(Compensated Tool Path. Diameter: 3.175)
G0 Z5.250
G0 X52.206 Y39.996
G0 Z3.250
G1 X52.206 Y39.996 Z-0.000 F400.000
G2 X52.153 Y39.632 Z-0.000 I-0.162 J-0.162 F400.000
G1 X52.111 Y39.614 Z-0.000 F400.000
G2 X51.972 Y40.051 Z-0.000 I-0.067 J0.219 F400.000
G2 X52.206 Y39.996 Z-0.000 I0.071 J-0.218 F400.000
G1 X52.206 Y39.996 Z-0.250 F400.000
G2 X52.153 Y39.632 Z-0.250 I-0.162 J-0.162 F400.000
G1 X52.111 Y39.614 Z-0.250 F400.000
G2 X51.972 Y40.051 Z-0.250 I-0.067 J0.219 F400.000
G2 X52.206 Y39.996 Z-0.250 I0.071 J-0.218 F400.000
G1 X52.206 Y39.996 Z-0.500 F400.000
G2 X52.153 Y39.632 Z-0.500 I-0.162 J-0.162 F400.000
G1 X52.111 Y39.614 Z-0.500 F400.000
G2 X51.972 Y40.051 Z-0.500 I-0.067 J0.219 F400.000
G2 X52.206 Y39.996 Z-0.500 I0.071 J-0.218 F400.000
G1 X52.206 Y39.996 Z-0.750 F400.000
G2 X52.153 Y39.632 Z-0.750 I-0.162 J-0.162 F400.000
G1 X52.111 Y39.614 Z-0.750 F400.000
G2 X51.972 Y40.051 Z-0.750 I-0.067 J0.219 F400.000
G2 X52.206 Y39.996 Z-0.750 I0.071 J-0.218 F400.000
G1 X52.206 Y39.996 Z-1.000 F400.000
G2 X52.153 Y39.632 Z-1.000 I-0.162 J-0.162 F400.000
G1 X52.111 Y39.614 Z-1.000 F400.000
G2 X51.972 Y40.051 Z-1.000 I-0.067 J0.219 F400.000
G2 X52.206 Y39.996 Z-1.000 I0.071 J-0.218 F400.000
G1 X52.206 Y39.996 Z-1.250 F400.000
G2 X52.153 Y39.632 Z-1.250 I-0.162 J-0.162 F400.000
G1 X52.111 Y39.614 Z-1.250 F400.000
G2 X51.972 Y40.051 Z-1.250 I-0.067 J0.219 F400.000
G2 X52.206 Y39.996 Z-1.250 I0.071 J-0.218 F400.000
G1 X52.206 Y39.996 Z-1.500 F400.000
G2 X52.153 Y39.632 Z-1.500 I-0.162 J-0.162 F400.000
G1 X52.111 Y39.614 Z-1.500 F400.000
G2 X51.972 Y40.051 Z-1.500 I-0.067 J0.219 F400.000
G2 X52.206 Y39.996 Z-1.500 I0.071 J-0.218 F400.000
G1 X52.206 Y39.996 Z-1.750 F400.000
G2 X52.153 Y39.632 Z-1.750 I-0.162 J-0.162 F400.000
G1 X52.111 Y39.614 Z-1.750 F400.000
G2 X51.972 Y40.051 Z-1.750 I-0.067 J0.219 F400.000
G2 X52.206 Y39.996 Z-1.750 I0.071 J-0.218 F400.000
G1 X52.206 Y39.996 Z-2.000 F400.000
G2 X52.153 Y39.632 Z-2.000 I-0.162 J-0.162 F400.000
G1 X52.111 Y39.614 Z-2.000 F400.000
G2 X51.972 Y40.051 Z-2.000 I-0.067 J0.219 F400.000
G2 X52.206 Y39.996 Z-2.000 I0.071 J-0.218 F400.000
G1 X52.206 Y39.996 Z-2.250 F400.000
G2 X52.153 Y39.632 Z-2.250 I-0.162 J-0.162 F400.000
G1 X52.111 Y39.614 Z-2.250 F400.000
G2 X51.972 Y40.051 Z-2.250 I-0.067 J0.219 F400.000
G2 X52.206 Y39.996 Z-2.250 I0.071 J-0.218 F400.000
G1 X52.206 Y39.996 Z-2.500 F400.000
G2 X52.153 Y39.632 Z-2.500 I-0.162 J-0.162 F400.000
G1 X52.111 Y39.614 Z-2.500 F400.000
G2 X51.972 Y40.051 Z-2.500 I-0.067 J0.219 F400.000
G2 X52.206 Y39.996 Z-2.500 I0.071 J-0.218 F400.000
G1 X52.206 Y39.996 Z-2.530 F400.000
G2 X52.153 Y39.632 Z-2.530 I-0.162 J-0.162 F400.000
G1 X52.111 Y39.614 Z-2.530 F400.000
G2 X51.972 Y40.051 Z-2.530 I-0.067 J0.219 F400.000
G2 X52.206 Y39.996 Z-2.530 I0.071 J-0.218 F400.000
G0 Z5.250
G0 Z5.250
G0 X52.206 Y39.996
G0 X52.049 Y47.404
G0 X52.049 Y47.404 Z3.250
G1 X52.049 Y47.404 Z-0.000 F400.000
G2 X51.972 Y47.851 Z-0.000 I-0.005 J0.229 F400.000
G2 X52.153 Y47.432 Z-0.000 I0.071 J-0.218 F400.000
G1 X52.111 Y47.414 Z-0.000 F400.000
G2 X52.049 Y47.404 Z-0.000 I-0.067 J0.219 F400.000
G1 X52.049 Y47.404 Z-0.250 F400.000
G2 X51.972 Y47.851 Z-0.250 I-0.005 J0.229 F400.000
G2 X52.153 Y47.432 Z-0.250 I0.071 J-0.218 F400.000
G1 X52.111 Y47.414 Z-0.250 F400.000
G2 X52.049 Y47.404 Z-0.250 I-0.067 J0.219 F400.000
G1 X52.049 Y47.404 Z-0.500 F400.000
G2 X51.972 Y47.851 Z-0.500 I-0.005 J0.229 F400.000
G2 X52.153 Y47.432 Z-0.500 I0.071 J-0.218 F400.000
G1 X52.111 Y47.414 Z-0.500 F400.000
G2 X52.049 Y47.404 Z-0.500 I-0.067 J0.219 F400.000
G1 X52.049 Y47.404 Z-0.750 F400.000
G2 X51.972 Y47.851 Z-0.750 I-0.005 J0.229 F400.000
G2 X52.153 Y47.432 Z-0.750 I0.071 J-0.218 F400.000
G1 X52.111 Y47.414 Z-0.750 F400.000
G2 X52.049 Y47.404 Z-0.750 I-0.067 J0.219 F400.000
G1 X52.049 Y47.404 Z-1.000 F400.000
G2 X51.972 Y47.851 Z-1.000 I-0.005 J0.229 F400.000
G2 X52.153 Y47.432 Z-1.000 I0.071 J-0.218 F400.000
G1 X52.111 Y47.414 Z-1.000 F400.000
G2 X52.049 Y47.404 Z-1.000 I-0.067 J0.219 F400.000
G1 X52.049 Y47.404 Z-1.250 F400.000
G2 X51.972 Y47.851 Z-1.250 I-0.005 J0.229 F400.000
G2 X52.153 Y47.432 Z-1.250 I0.071 J-0.218 F400.000
G1 X52.111 Y47.414 Z-1.250 F400.000
G2 X52.049 Y47.404 Z-1.250 I-0.067 J0.219 F400.000
G1 X52.049 Y47.404 Z-1.500 F400.000
G2 X51.972 Y47.851 Z-1.500 I-0.005 J0.229 F400.000
G2 X52.153 Y47.432 Z-1.500 I0.071 J-0.218 F400.000
G1 X52.111 Y47.414 Z-1.500 F400.000
G2 X52.049 Y47.404 Z-1.500 I-0.067 J0.219 F400.000
G1 X52.049 Y47.404 Z-1.750 F400.000
G2 X51.972 Y47.851 Z-1.750 I-0.005 J0.229 F400.000
G2 X52.153 Y47.432 Z-1.750 I0.071 J-0.218 F400.000
G1 X52.111 Y47.414 Z-1.750 F400.000
G2 X52.049 Y47.404 Z-1.750 I-0.067 J0.219 F400.000
G1 X52.049 Y47.404 Z-2.000 F400.000
G2 X51.972 Y47.851 Z-2.000 I-0.005 J0.229 F400.000
G2 X52.153 Y47.432 Z-2.000 I0.071 J-0.218 F400.000
G1 X52.111 Y47.414 Z-2.000 F400.000
G2 X52.049 Y47.404 Z-2.000 I-0.067 J0.219 F400.000
G1 X52.049 Y47.404 Z-2.250 F400.000
G2 X51.972 Y47.851 Z-2.250 I-0.005 J0.229 F400.000
G2 X52.153 Y47.432 Z-2.250 I0.071 J-0.218 F400.000
G1 X52.111 Y47.414 Z-2.250 F400.000
G2 X52.049 Y47.404 Z-2.250 I-0.067 J0.219 F400.000
G1 X52.049 Y47.404 Z-2.500 F400.000
G2 X51.972 Y47.851 Z-2.500 I-0.005 J0.229 F400.000
G2 X52.153 Y47.432 Z-2.500 I0.071 J-0.218 F400.000
G1 X52.111 Y47.414 Z-2.500 F400.000
G2 X52.049 Y47.404 Z-2.500 I-0.067 J0.219 F400.000
G1 X52.049 Y47.404 Z-2.530 F400.000
G2 X51.972 Y47.851 Z-2.530 I-0.005 J0.229 F400.000
G2 X52.153 Y47.432 Z-2.530 I0.071 J-0.218 F400.000
G1 X52.111 Y47.414 Z-2.530 F400.000
G2 X52.049 Y47.404 Z-2.530 I-0.067 J0.219 F400.000
G0 Z5.250
G0 Z5.250
(finish operation: Profile006)
(begin operation: Profile007)
(machine: not set, mm/min)
(Profile007)
(Compensated Tool Path. Diameter: 3.175)
G0 Z5.250
G0 X70.076 Y53.768
G0 Z3.250
G1 X70.076 Y53.768 Z-0.000 F400.000
G2 X71.123 Y51.389 Z-0.000 I-2.541 J-2.538 F400.000
G1 X71.131 Y36.234 Z-0.000 F400.000
G2 X67.699 Y32.654 Z-0.000 I-3.591 J0.008 F400.000
G1 X36.543 Y32.646 Z-0.000 F400.000
G2 X32.963 Y36.078 Z-0.000 I0.008 J3.591 F400.000
G1 X32.956 Y51.234 Z-0.000 F400.000
G2 X36.388 Y54.814 Z-0.000 I3.591 J-0.008 F400.000
G1 X67.543 Y54.821 Z-0.000 F400.000
G2 X70.076 Y53.768 Z-0.000 I-0.008 J-3.591 F400.000
G1 X70.076 Y53.768 Z-0.250 F400.000
G2 X71.123 Y51.389 Z-0.250 I-2.541 J-2.538 F400.000
G1 X71.131 Y36.234 Z-0.250 F400.000
G2 X67.699 Y32.654 Z-0.250 I-3.591 J0.008 F400.000
G1 X36.543 Y32.646 Z-0.250 F400.000
G2 X32.963 Y36.078 Z-0.250 I0.008 J3.591 F400.000
G1 X32.956 Y51.234 Z-0.250 F400.000
G2 X36.388 Y54.814 Z-0.250 I3.591 J-0.008 F400.000
G1 X67.543 Y54.821 Z-0.250 F400.000
G2 X70.076 Y53.768 Z-0.250 I-0.008 J-3.591 F400.000
G1 X70.076 Y53.768 Z-0.500 F400.000
G2 X71.123 Y51.389 Z-0.500 I-2.541 J-2.538 F400.000
G1 X71.131 Y36.234 Z-0.500 F400.000
G2 X67.699 Y32.654 Z-0.500 I-3.591 J0.008 F400.000
G1 X36.543 Y32.646 Z-0.500 F400.000
G2 X32.963 Y36.078 Z-0.500 I0.008 J3.591 F400.000
G1 X32.956 Y51.234 Z-0.500 F400.000
G2 X36.388 Y54.814 Z-0.500 I3.591 J-0.008 F400.000
G1 X67.543 Y54.821 Z-0.500 F400.000
G2 X70.076 Y53.768 Z-0.500 I-0.008 J-3.591 F400.000
G1 X70.076 Y53.768 Z-0.750 F400.000
G2 X71.123 Y51.389 Z-0.750 I-2.541 J-2.538 F400.000
G1 X71.131 Y36.234 Z-0.750 F400.000
G2 X67.699 Y32.654 Z-0.750 I-3.591 J0.008 F400.000
G1 X36.543 Y32.646 Z-0.750 F400.000
G2 X32.963 Y36.078 Z-0.750 I0.008 J3.591 F400.000
G1 X32.956 Y51.234 Z-0.750 F400.000
G2 X36.388 Y54.814 Z-0.750 I3.591 J-0.008 F400.000
G1 X67.543 Y54.821 Z-0.750 F400.000
G2 X70.076 Y53.768 Z-0.750 I-0.008 J-3.591 F400.000
G1 X70.076 Y53.768 Z-1.000 F400.000
G2 X71.123 Y51.389 Z-1.000 I-2.541 J-2.538 F400.000
G1 X71.131 Y36.234 Z-1.000 F400.000
G2 X67.699 Y32.654 Z-1.000 I-3.591 J0.008 F400.000
G1 X36.543 Y32.646 Z-1.000 F400.000
G2 X32.963 Y36.078 Z-1.000 I0.008 J3.591 F400.000
G1 X32.956 Y51.234 Z-1.000 F400.000
G2 X36.388 Y54.814 Z-1.000 I3.591 J-0.008 F400.000
G1 X67.543 Y54.821 Z-1.000 F400.000
G2 X70.076 Y53.768 Z-1.000 I-0.008 J-3.591 F400.000
G1 X70.076 Y53.768 Z-1.250 F400.000
G2 X71.123 Y51.389 Z-1.250 I-2.541 J-2.538 F400.000
G1 X71.131 Y36.234 Z-1.250 F400.000
G2 X67.699 Y32.654 Z-1.250 I-3.591 J0.008 F400.000
G1 X36.543 Y32.646 Z-1.250 F400.000
G2 X32.963 Y36.078 Z-1.250 I0.008 J3.591 F400.000
G1 X32.956 Y51.234 Z-1.250 F400.000
G2 X36.388 Y54.814 Z-1.250 I3.591 J-0.008 F400.000
G1 X67.543 Y54.821 Z-1.250 F400.000
G2 X70.076 Y53.768 Z-1.250 I-0.008 J-3.591 F400.000
G1 X70.076 Y53.768 Z-1.500 F400.000
G2 X71.123 Y51.389 Z-1.500 I-2.541 J-2.538 F400.000
G1 X71.131 Y36.234 Z-1.500 F400.000
G2 X67.699 Y32.654 Z-1.500 I-3.591 J0.008 F400.000
G1 X36.543 Y32.646 Z-1.500 F400.000
G2 X32.963 Y36.078 Z-1.500 I0.008 J3.591 F400.000
G1 X32.956 Y51.234 Z-1.500 F400.000
G2 X36.388 Y54.814 Z-1.500 I3.591 J-0.008 F400.000
G1 X67.543 Y54.821 Z-1.500 F400.000
G2 X70.076 Y53.768 Z-1.500 I-0.008 J-3.591 F400.000
G1 X70.076 Y53.768 Z-1.750 F400.000
G2 X71.123 Y51.389 Z-1.750 I-2.541 J-2.538 F400.000
G1 X71.131 Y36.234 Z-1.750 F400.000
G2 X67.699 Y32.654 Z-1.750 I-3.591 J0.008 F400.000
G1 X36.543 Y32.646 Z-1.750 F400.000
G2 X32.963 Y36.078 Z-1.750 I0.008 J3.591 F400.000
G1 X32.956 Y51.234 Z-1.750 F400.000
G2 X36.388 Y54.814 Z-1.750 I3.591 J-0.008 F400.000
G1 X67.543 Y54.821 Z-1.750 F400.000
G2 X70.076 Y53.768 Z-1.750 I-0.008 J-3.591 F400.000
G1 X70.076 Y53.768 Z-2.000 F400.000
G2 X71.123 Y51.389 Z-2.000 I-2.541 J-2.538 F400.000
G1 X71.131 Y36.234 Z-2.000 F400.000
G2 X67.699 Y32.654 Z-2.000 I-3.591 J0.008 F400.000
G1 X36.543 Y32.646 Z-2.000 F400.000
G2 X32.963 Y36.078 Z-2.000 I0.008 J3.591 F400.000
G1 X32.956 Y51.234 Z-2.000 F400.000
G2 X36.388 Y54.814 Z-2.000 I3.591 J-0.008 F400.000
G1 X67.543 Y54.821 Z-2.000 F400.000
G2 X70.076 Y53.768 Z-2.000 I-0.008 J-3.591 F400.000
G1 X70.076 Y53.768 Z-2.250 F400.000
G2 X71.123 Y51.389 Z-2.250 I-2.541 J-2.538 F400.000
G1 X71.131 Y36.234 Z-2.250 F400.000
G2 X67.699 Y32.654 Z-2.250 I-3.591 J0.008 F400.000
G1 X36.543 Y32.646 Z-2.250 F400.000
G2 X32.963 Y36.078 Z-2.250 I0.008 J3.591 F400.000
G1 X32.956 Y51.234 Z-2.250 F400.000
G2 X36.388 Y54.814 Z-2.250 I3.591 J-0.008 F400.000
G1 X67.543 Y54.821 Z-2.250 F400.000
G2 X70.076 Y53.768 Z-2.250 I-0.008 J-3.591 F400.000
G1 X70.076 Y53.768 Z-2.500 F400.000
G2 X71.123 Y51.389 Z-2.500 I-2.541 J-2.538 F400.000
G1 X71.131 Y36.234 Z-2.500 F400.000
G2 X67.699 Y32.654 Z-2.500 I-3.591 J0.008 F400.000
G1 X36.543 Y32.646 Z-2.500 F400.000
G2 X32.963 Y36.078 Z-2.500 I0.008 J3.591 F400.000
G1 X32.956 Y51.234 Z-2.500 F400.000
G2 X36.388 Y54.814 Z-2.500 I3.591 J-0.008 F400.000
G1 X67.543 Y54.821 Z-2.500 F400.000
G2 X70.076 Y53.768 Z-2.500 I-0.008 J-3.591 F400.000
G1 X70.076 Y53.768 Z-2.530 F400.000
G2 X71.123 Y51.389 Z-2.530 I-2.541 J-2.538 F400.000
G1 X71.131 Y36.234 Z-2.530 F400.000
G2 X67.699 Y32.654 Z-2.530 I-3.591 J0.008 F400.000
G1 X36.543 Y32.646 Z-2.530 F400.000
G2 X32.963 Y36.078 Z-2.530 I0.008 J3.591 F400.000
G1 X32.956 Y51.234 Z-2.530 F400.000
G2 X36.388 Y54.814 Z-2.530 I3.591 J-0.008 F400.000
G1 X67.543 Y54.821 Z-2.530 F400.000
G2 X70.076 Y53.768 Z-2.530 I-0.008 J-3.591 F400.000
G0 Z5.250
G0 Z5.250
(finish operation: Profile007)
(begin postamble)
M05 M09
G17 G90 G80 G40
M30
