(Exported by FreeCAD)
(Post Processor: script_module)
(Output Time:2024-11-24 17:35:03.123405)
(begin preamble)
%
G17 G21 G40 G49 G80 G90
M08
G21
(begin operation: Fixture)
(machine: not set, mm/min)
G54
(finish operation: Fixture)
(begin operation: Pocket_Shape)
(machine: not set, mm/min)
(inactive operation)
(finish operation: Pocket_Shape)
(begin operation: Profile004)
(machine: not set, mm/min)
(inactive operation)
(finish operation: Profile004)
(begin operation: Profile002)
(machine: not set, mm/min)
(inactive operation)
(finish operation: Profile002)
(begin operation: 1/8in Endmill004)
(machine: not set, mm/min)
(1/8in Endmill004)
M05
M09M6 T1
M3 S15000
(finish operation: 1/8in Endmill004)
(begin operation: Profile003)
(machine: not set, mm/min)
(Profile003)
(Compensated Tool Path. Diameter: 3.175)
G0 Z5.250
G0 X69.930 Y29.035
G0 Z3.250
G1 X69.930 Y29.035 Z-0.000 F400.000
G2 X71.125 Y26.286 Z-0.000 I-2.894 J-2.891 F400.000
G1 X71.131 Y7.147 Z-0.000 F400.000
G2 X67.182 Y3.066 Z-0.000 I-4.091 J0.007 F400.000
G1 X61.293 Y3.060 Z-0.000 F400.000
G2 X60.115 Y3.583 Z-0.000 I-0.000 J1.588 F400.000
G1 X57.228 Y6.778 Z-0.000 F400.000
G1 X48.859 Y6.778 Z-0.000 F400.000
G1 X45.971 Y3.583 Z-0.000 F400.000
G2 X44.793 Y3.060 Z-0.000 I-1.178 J1.064 F400.000
G1 X39.043 Y3.060 Z-0.000 F400.000
G2 X34.962 Y7.009 Z-0.000 I0.007 J4.091 F400.000
G1 X34.956 Y26.147 Z-0.000 F400.000
G2 X38.905 Y30.229 Z-0.000 I4.091 J-0.007 F400.000
G1 X44.793 Y30.235 Z-0.000 F400.000
G2 X45.971 Y29.712 Z-0.000 I0.000 J-1.587 F400.000
G1 X48.859 Y26.517 Z-0.000 F400.000
G1 X57.228 Y26.517 Z-0.000 F400.000
G1 X60.115 Y29.712 Z-0.000 F400.000
G2 X61.293 Y30.235 Z-0.000 I1.178 J-1.064 F400.000
G1 X67.043 Y30.235 Z-0.000 F400.000
G2 X69.930 Y29.035 Z-0.000 I-0.007 J-4.091 F400.000
G1 X69.930 Y29.035 Z-0.250 F400.000
G2 X71.125 Y26.286 Z-0.250 I-2.894 J-2.891 F400.000
G1 X71.131 Y7.147 Z-0.250 F400.000
G2 X67.182 Y3.066 Z-0.250 I-4.091 J0.007 F400.000
G1 X61.293 Y3.060 Z-0.250 F400.000
G2 X60.115 Y3.583 Z-0.250 I-0.000 J1.588 F400.000
G1 X57.228 Y6.778 Z-0.250 F400.000
G1 X48.859 Y6.778 Z-0.250 F400.000
G1 X45.971 Y3.583 Z-0.250 F400.000
G2 X44.793 Y3.060 Z-0.250 I-1.178 J1.064 F400.000
G1 X39.043 Y3.060 Z-0.250 F400.000
G2 X34.962 Y7.009 Z-0.250 I0.007 J4.091 F400.000
G1 X34.956 Y26.147 Z-0.250 F400.000
G2 X38.905 Y30.229 Z-0.250 I4.091 J-0.007 F400.000
G1 X44.793 Y30.235 Z-0.250 F400.000
G2 X45.971 Y29.712 Z-0.250 I0.000 J-1.587 F400.000
G1 X48.859 Y26.517 Z-0.250 F400.000
G1 X57.228 Y26.517 Z-0.250 F400.000
G1 X60.115 Y29.712 Z-0.250 F400.000
G2 X61.293 Y30.235 Z-0.250 I1.178 J-1.064 F400.000
G1 X67.043 Y30.235 Z-0.250 F400.000
G2 X69.930 Y29.035 Z-0.250 I-0.007 J-4.091 F400.000
G1 X69.930 Y29.035 Z-0.500 F400.000
G2 X71.125 Y26.286 Z-0.500 I-2.894 J-2.891 F400.000
G1 X71.131 Y7.147 Z-0.500 F400.000
G2 X67.182 Y3.066 Z-0.500 I-4.091 J0.007 F400.000
G1 X61.293 Y3.060 Z-0.500 F400.000
G2 X60.115 Y3.583 Z-0.500 I-0.000 J1.588 F400.000
G1 X57.228 Y6.778 Z-0.500 F400.000
G1 X48.859 Y6.778 Z-0.500 F400.000
G1 X45.971 Y3.583 Z-0.500 F400.000
G2 X44.793 Y3.060 Z-0.500 I-1.178 J1.064 F400.000
G1 X39.043 Y3.060 Z-0.500 F400.000
G2 X34.962 Y7.009 Z-0.500 I0.007 J4.091 F400.000
G1 X34.956 Y26.147 Z-0.500 F400.000
G2 X38.905 Y30.229 Z-0.500 I4.091 J-0.007 F400.000
G1 X44.793 Y30.235 Z-0.500 F400.000
G2 X45.971 Y29.712 Z-0.500 I0.000 J-1.587 F400.000
G1 X48.859 Y26.517 Z-0.500 F400.000
G1 X57.228 Y26.517 Z-0.500 F400.000
G1 X60.115 Y29.712 Z-0.500 F400.000
G2 X61.293 Y30.235 Z-0.500 I1.178 J-1.064 F400.000
G1 X67.043 Y30.235 Z-0.500 F400.000
G2 X69.930 Y29.035 Z-0.500 I-0.007 J-4.091 F400.000
G1 X69.930 Y29.035 Z-0.750 F400.000
G2 X71.125 Y26.286 Z-0.750 I-2.894 J-2.891 F400.000
G1 X71.131 Y7.147 Z-0.750 F400.000
G2 X67.182 Y3.066 Z-0.750 I-4.091 J0.007 F400.000
G1 X61.293 Y3.060 Z-0.750 F400.000
G2 X60.115 Y3.583 Z-0.750 I-0.000 J1.588 F400.000
G1 X57.228 Y6.778 Z-0.750 F400.000
G1 X48.859 Y6.778 Z-0.750 F400.000
G1 X45.971 Y3.583 Z-0.750 F400.000
G2 X44.793 Y3.060 Z-0.750 I-1.178 J1.064 F400.000
G1 X39.043 Y3.060 Z-0.750 F400.000
G2 X34.962 Y7.009 Z-0.750 I0.007 J4.091 F400.000
G1 X34.956 Y26.147 Z-0.750 F400.000
G2 X38.905 Y30.229 Z-0.750 I4.091 J-0.007 F400.000
G1 X44.793 Y30.235 Z-0.750 F400.000
G2 X45.971 Y29.712 Z-0.750 I0.000 J-1.587 F400.000
G1 X48.859 Y26.517 Z-0.750 F400.000
G1 X57.228 Y26.517 Z-0.750 F400.000
G1 X60.115 Y29.712 Z-0.750 F400.000
G2 X61.293 Y30.235 Z-0.750 I1.178 J-1.064 F400.000
G1 X67.043 Y30.235 Z-0.750 F400.000
G2 X69.930 Y29.035 Z-0.750 I-0.007 J-4.091 F400.000
G1 X69.930 Y29.035 Z-1.000 F400.000
G2 X71.125 Y26.286 Z-1.000 I-2.894 J-2.891 F400.000
G1 X71.131 Y7.147 Z-1.000 F400.000
G2 X67.182 Y3.066 Z-1.000 I-4.091 J0.007 F400.000
G1 X61.293 Y3.060 Z-1.000 F400.000
G2 X60.115 Y3.583 Z-1.000 I-0.000 J1.588 F400.000
G1 X57.228 Y6.778 Z-1.000 F400.000
G1 X48.859 Y6.778 Z-1.000 F400.000
G1 X45.971 Y3.583 Z-1.000 F400.000
G2 X44.793 Y3.060 Z-1.000 I-1.178 J1.064 F400.000
G1 X39.043 Y3.060 Z-1.000 F400.000
G2 X34.962 Y7.009 Z-1.000 I0.007 J4.091 F400.000
G1 X34.956 Y26.147 Z-1.000 F400.000
G2 X38.905 Y30.229 Z-1.000 I4.091 J-0.007 F400.000
G1 X44.793 Y30.235 Z-1.000 F400.000
G2 X45.971 Y29.712 Z-1.000 I0.000 J-1.587 F400.000
G1 X48.859 Y26.517 Z-1.000 F400.000
G1 X57.228 Y26.517 Z-1.000 F400.000
G1 X60.115 Y29.712 Z-1.000 F400.000
G2 X61.293 Y30.235 Z-1.000 I1.178 J-1.064 F400.000
G1 X67.043 Y30.235 Z-1.000 F400.000
G2 X69.930 Y29.035 Z-1.000 I-0.007 J-4.091 F400.000
G1 X69.930 Y29.035 Z-1.250 F400.000
G2 X71.125 Y26.286 Z-1.250 I-2.894 J-2.891 F400.000
G1 X71.131 Y7.147 Z-1.250 F400.000
G2 X67.182 Y3.066 Z-1.250 I-4.091 J0.007 F400.000
G1 X61.293 Y3.060 Z-1.250 F400.000
G2 X60.115 Y3.583 Z-1.250 I-0.000 J1.588 F400.000
G1 X57.228 Y6.778 Z-1.250 F400.000
G1 X48.859 Y6.778 Z-1.250 F400.000
G1 X45.971 Y3.583 Z-1.250 F400.000
G2 X44.793 Y3.060 Z-1.250 I-1.178 J1.064 F400.000
G1 X39.043 Y3.060 Z-1.250 F400.000
G2 X34.962 Y7.009 Z-1.250 I0.007 J4.091 F400.000
G1 X34.956 Y26.147 Z-1.250 F400.000
G2 X38.905 Y30.229 Z-1.250 I4.091 J-0.007 F400.000
G1 X44.793 Y30.235 Z-1.250 F400.000
G2 X45.971 Y29.712 Z-1.250 I0.000 J-1.587 F400.000
G1 X48.859 Y26.517 Z-1.250 F400.000
G1 X57.228 Y26.517 Z-1.250 F400.000
G1 X60.115 Y29.712 Z-1.250 F400.000
G2 X61.293 Y30.235 Z-1.250 I1.178 J-1.064 F400.000
G1 X67.043 Y30.235 Z-1.250 F400.000
G2 X69.930 Y29.035 Z-1.250 I-0.007 J-4.091 F400.000
G1 X69.930 Y29.035 Z-1.500 F400.000
G2 X71.125 Y26.286 Z-1.500 I-2.894 J-2.891 F400.000
G1 X71.131 Y7.147 Z-1.500 F400.000
G2 X67.182 Y3.066 Z-1.500 I-4.091 J0.007 F400.000
G1 X61.293 Y3.060 Z-1.500 F400.000
G2 X60.115 Y3.583 Z-1.500 I-0.000 J1.588 F400.000
G1 X57.228 Y6.778 Z-1.500 F400.000
G1 X48.859 Y6.778 Z-1.500 F400.000
G1 X45.971 Y3.583 Z-1.500 F400.000
G2 X44.793 Y3.060 Z-1.500 I-1.178 J1.064 F400.000
G1 X39.043 Y3.060 Z-1.500 F400.000
G2 X34.962 Y7.009 Z-1.500 I0.007 J4.091 F400.000
G1 X34.956 Y26.147 Z-1.500 F400.000
G2 X38.905 Y30.229 Z-1.500 I4.091 J-0.007 F400.000
G1 X44.793 Y30.235 Z-1.500 F400.000
G2 X45.971 Y29.712 Z-1.500 I0.000 J-1.587 F400.000
G1 X48.859 Y26.517 Z-1.500 F400.000
G1 X57.228 Y26.517 Z-1.500 F400.000
G1 X60.115 Y29.712 Z-1.500 F400.000
G2 X61.293 Y30.235 Z-1.500 I1.178 J-1.064 F400.000
G1 X67.043 Y30.235 Z-1.500 F400.000
G2 X69.930 Y29.035 Z-1.500 I-0.007 J-4.091 F400.000
G1 X69.930 Y29.035 Z-1.750 F400.000
G2 X71.125 Y26.286 Z-1.750 I-2.894 J-2.891 F400.000
G1 X71.131 Y7.147 Z-1.750 F400.000
G2 X67.182 Y3.066 Z-1.750 I-4.091 J0.007 F400.000
G1 X61.293 Y3.060 Z-1.750 F400.000
G2 X60.115 Y3.583 Z-1.750 I-0.000 J1.588 F400.000
G1 X57.228 Y6.778 Z-1.750 F400.000
G1 X48.859 Y6.778 Z-1.750 F400.000
G1 X45.971 Y3.583 Z-1.750 F400.000
G2 X44.793 Y3.060 Z-1.750 I-1.178 J1.064 F400.000
G1 X39.043 Y3.060 Z-1.750 F400.000
G2 X34.962 Y7.009 Z-1.750 I0.007 J4.091 F400.000
G1 X34.956 Y26.147 Z-1.750 F400.000
G2 X38.905 Y30.229 Z-1.750 I4.091 J-0.007 F400.000
G1 X44.793 Y30.235 Z-1.750 F400.000
G2 X45.971 Y29.712 Z-1.750 I0.000 J-1.587 F400.000
G1 X48.859 Y26.517 Z-1.750 F400.000
G1 X57.228 Y26.517 Z-1.750 F400.000
G1 X60.115 Y29.712 Z-1.750 F400.000
G2 X61.293 Y30.235 Z-1.750 I1.178 J-1.064 F400.000
G1 X67.043 Y30.235 Z-1.750 F400.000
G2 X69.930 Y29.035 Z-1.750 I-0.007 J-4.091 F400.000
G1 X69.930 Y29.035 Z-2.000 F400.000
G2 X71.125 Y26.286 Z-2.000 I-2.894 J-2.891 F400.000
G1 X71.131 Y7.147 Z-2.000 F400.000
G2 X67.182 Y3.066 Z-2.000 I-4.091 J0.007 F400.000
G1 X61.293 Y3.060 Z-2.000 F400.000
G2 X60.115 Y3.583 Z-2.000 I-0.000 J1.588 F400.000
G1 X57.228 Y6.778 Z-2.000 F400.000
G1 X48.859 Y6.778 Z-2.000 F400.000
G1 X45.971 Y3.583 Z-2.000 F400.000
G2 X44.793 Y3.060 Z-2.000 I-1.178 J1.064 F400.000
G1 X39.043 Y3.060 Z-2.000 F400.000
G2 X34.962 Y7.009 Z-2.000 I0.007 J4.091 F400.000
G1 X34.956 Y26.147 Z-2.000 F400.000
G2 X38.905 Y30.229 Z-2.000 I4.091 J-0.007 F400.000
G1 X44.793 Y30.235 Z-2.000 F400.000
G2 X45.971 Y29.712 Z-2.000 I0.000 J-1.587 F400.000
G1 X48.859 Y26.517 Z-2.000 F400.000
G1 X57.228 Y26.517 Z-2.000 F400.000
G1 X60.115 Y29.712 Z-2.000 F400.000
G2 X61.293 Y30.235 Z-2.000 I1.178 J-1.064 F400.000
G1 X67.043 Y30.235 Z-2.000 F400.000
G2 X69.930 Y29.035 Z-2.000 I-0.007 J-4.091 F400.000
G1 X69.930 Y29.035 Z-2.250 F400.000
G2 X71.125 Y26.286 Z-2.250 I-2.894 J-2.891 F400.000
G1 X71.131 Y7.147 Z-2.250 F400.000
G2 X67.182 Y3.066 Z-2.250 I-4.091 J0.007 F400.000
G1 X61.293 Y3.060 Z-2.250 F400.000
G2 X60.115 Y3.583 Z-2.250 I-0.000 J1.588 F400.000
G1 X57.228 Y6.778 Z-2.250 F400.000
G1 X48.859 Y6.778 Z-2.250 F400.000
G1 X45.971 Y3.583 Z-2.250 F400.000
G2 X44.793 Y3.060 Z-2.250 I-1.178 J1.064 F400.000
G1 X39.043 Y3.060 Z-2.250 F400.000
G2 X34.962 Y7.009 Z-2.250 I0.007 J4.091 F400.000
G1 X34.956 Y26.147 Z-2.250 F400.000
G2 X38.905 Y30.229 Z-2.250 I4.091 J-0.007 F400.000
G1 X44.793 Y30.235 Z-2.250 F400.000
G2 X45.971 Y29.712 Z-2.250 I0.000 J-1.587 F400.000
G1 X48.859 Y26.517 Z-2.250 F400.000
G1 X57.228 Y26.517 Z-2.250 F400.000
G1 X60.115 Y29.712 Z-2.250 F400.000
G2 X61.293 Y30.235 Z-2.250 I1.178 J-1.064 F400.000
G1 X67.043 Y30.235 Z-2.250 F400.000
G2 X69.930 Y29.035 Z-2.250 I-0.007 J-4.091 F400.000
G1 X69.930 Y29.035 Z-2.500 F400.000
G2 X71.125 Y26.286 Z-2.500 I-2.894 J-2.891 F400.000
G1 X71.131 Y7.147 Z-2.500 F400.000
G2 X67.182 Y3.066 Z-2.500 I-4.091 J0.007 F400.000
G1 X61.293 Y3.060 Z-2.500 F400.000
G2 X60.115 Y3.583 Z-2.500 I-0.000 J1.588 F400.000
G1 X57.228 Y6.778 Z-2.500 F400.000
G1 X48.859 Y6.778 Z-2.500 F400.000
G1 X45.971 Y3.583 Z-2.500 F400.000
G2 X44.793 Y3.060 Z-2.500 I-1.178 J1.064 F400.000
G1 X39.043 Y3.060 Z-2.500 F400.000
G2 X34.962 Y7.009 Z-2.500 I0.007 J4.091 F400.000
G1 X34.956 Y26.147 Z-2.500 F400.000
G2 X38.905 Y30.229 Z-2.500 I4.091 J-0.007 F400.000
G1 X44.793 Y30.235 Z-2.500 F400.000
G2 X45.971 Y29.712 Z-2.500 I0.000 J-1.587 F400.000
G1 X48.859 Y26.517 Z-2.500 F400.000
G1 X57.228 Y26.517 Z-2.500 F400.000
G1 X60.115 Y29.712 Z-2.500 F400.000
G2 X61.293 Y30.235 Z-2.500 I1.178 J-1.064 F400.000
G1 X67.043 Y30.235 Z-2.500 F400.000
G2 X69.930 Y29.035 Z-2.500 I-0.007 J-4.091 F400.000
G1 X69.930 Y29.035 Z-2.525 F400.000
G2 X71.125 Y26.286 Z-2.525 I-2.894 J-2.891 F400.000
G1 X71.131 Y7.147 Z-2.525 F400.000
G2 X67.182 Y3.066 Z-2.525 I-4.091 J0.007 F400.000
G1 X61.293 Y3.060 Z-2.525 F400.000
G2 X60.115 Y3.583 Z-2.525 I-0.000 J1.588 F400.000
G1 X57.228 Y6.778 Z-2.525 F400.000
G1 X48.859 Y6.778 Z-2.525 F400.000
G1 X45.971 Y3.583 Z-2.525 F400.000
G2 X44.793 Y3.060 Z-2.525 I-1.178 J1.064 F400.000
G1 X39.043 Y3.060 Z-2.525 F400.000
G2 X34.962 Y7.009 Z-2.525 I0.007 J4.091 F400.000
G1 X34.956 Y26.147 Z-2.525 F400.000
G2 X38.905 Y30.229 Z-2.525 I4.091 J-0.007 F400.000
G1 X44.793 Y30.235 Z-2.525 F400.000
G2 X45.971 Y29.712 Z-2.525 I0.000 J-1.587 F400.000
G1 X48.859 Y26.517 Z-2.525 F400.000
G1 X57.228 Y26.517 Z-2.525 F400.000
G1 X60.115 Y29.712 Z-2.525 F400.000
G2 X61.293 Y30.235 Z-2.525 I1.178 J-1.064 F400.000
G1 X67.043 Y30.235 Z-2.525 F400.000
G2 X69.930 Y29.035 Z-2.525 I-0.007 J-4.091 F400.000
G0 Z5.250
G0 Z5.250
(finish operation: Profile003)
(begin postamble)
M05 M09
G17 G90 G80 G40
M30
