(Exported by FreeCAD)
(Post Processor: script_module)
(Output Time:2024-11-21 21:40:44.750680)
(begin preamble)
%
G17 G21 G40 G49 G80 G90
M08
G21
(begin operation: Fixture)
(machine: not set, mm/min)
G54
(finish operation: Fixture)
(begin operation: TC: Default Tool)
(machine: not set, mm/min)
(TC: Default Tool)
M05
M09M6 T1
M3 S15000
(finish operation: TC: Default Tool)
(begin operation: Pocket_Shape)
(machine: not set, mm/min)
(Pocket_Shape)
G0 Z5.250
G0 X41.543 Y17.735
G0 Z3.250
G1 X41.543 Y17.735 Z-0.000 F400.000
G1 X41.543 Y19.980 Z-0.000 F400.000
G1 X39.298 Y17.735 Z-0.000 F400.000
G1 X37.053 Y17.735 Z-0.000 F400.000
G1 X41.543 Y22.225 Z-0.000 F400.000
G1 X41.543 Y23.560 Z-0.000 F400.000
G1 X40.633 Y23.560 Z-0.000 F400.000
G1 X34.808 Y17.735 Z-0.000 F400.000
G1 X32.563 Y17.735 Z-0.000 F400.000
G1 X38.388 Y23.560 Z-0.000 F400.000
G1 X36.143 Y23.560 Z-0.000 F400.000
G1 X30.318 Y17.735 Z-0.000 F400.000
G1 X28.073 Y17.735 Z-0.000 F400.000
G1 X33.898 Y23.560 Z-0.000 F400.000
G1 X31.653 Y23.560 Z-0.000 F400.000
G1 X25.828 Y17.735 Z-0.000 F400.000
G1 X23.583 Y17.735 Z-0.000 F400.000
G1 X29.408 Y23.560 Z-0.000 F400.000
G1 X27.163 Y23.560 Z-0.000 F400.000
G1 X21.338 Y17.735 Z-0.000 F400.000
G1 X19.093 Y17.735 Z-0.000 F400.000
G1 X24.918 Y23.560 Z-0.000 F400.000
G1 X22.672 Y23.560 Z-0.000 F400.000
G1 X16.847 Y17.735 Z-0.000 F400.000
G1 X14.602 Y17.735 Z-0.000 F400.000
G1 X20.427 Y23.560 Z-0.000 F400.000
G1 X18.182 Y23.560 Z-0.000 F400.000
G1 X12.357 Y17.735 Z-0.000 F400.000
G1 X10.112 Y17.735 Z-0.000 F400.000
G1 X15.937 Y23.560 Z-0.000 F400.000
G1 X13.692 Y23.560 Z-0.000 F400.000
G1 X8.543 Y18.411 Z-0.000 F400.000
G1 X8.543 Y20.656 Z-0.000 F400.000
G1 X11.447 Y23.560 Z-0.000 F400.000
G1 X9.202 Y23.560 Z-0.000 F400.000
G1 X8.543 Y23.560 Z-0.000 F400.000
G1 X8.543 Y22.901 Z-0.000 F400.000
G1 X9.202 Y23.560 Z-0.000 F400.000
G1 X9.202 Y23.560 Z-0.250 F400.000
G1 X8.543 Y22.901 Z-0.250 F400.000
G1 X8.543 Y23.560 Z-0.250 F400.000
G1 X9.202 Y23.560 Z-0.250 F400.000
G1 X11.447 Y23.560 Z-0.250 F400.000
G1 X8.543 Y20.656 Z-0.250 F400.000
G1 X8.543 Y18.411 Z-0.250 F400.000
G1 X13.692 Y23.560 Z-0.250 F400.000
G1 X15.937 Y23.560 Z-0.250 F400.000
G1 X10.112 Y17.735 Z-0.250 F400.000
G1 X12.357 Y17.735 Z-0.250 F400.000
G1 X18.182 Y23.560 Z-0.250 F400.000
G1 X20.427 Y23.560 Z-0.250 F400.000
G1 X14.602 Y17.735 Z-0.250 F400.000
G1 X16.847 Y17.735 Z-0.250 F400.000
G1 X22.672 Y23.560 Z-0.250 F400.000
G1 X24.918 Y23.560 Z-0.250 F400.000
G1 X19.093 Y17.735 Z-0.250 F400.000
G1 X21.338 Y17.735 Z-0.250 F400.000
G1 X27.163 Y23.560 Z-0.250 F400.000
G1 X29.408 Y23.560 Z-0.250 F400.000
G1 X23.583 Y17.735 Z-0.250 F400.000
G1 X25.828 Y17.735 Z-0.250 F400.000
G1 X31.653 Y23.560 Z-0.250 F400.000
G1 X33.898 Y23.560 Z-0.250 F400.000
G1 X28.073 Y17.735 Z-0.250 F400.000
G1 X30.318 Y17.735 Z-0.250 F400.000
G1 X36.143 Y23.560 Z-0.250 F400.000
G1 X38.388 Y23.560 Z-0.250 F400.000
G1 X32.563 Y17.735 Z-0.250 F400.000
G1 X34.808 Y17.735 Z-0.250 F400.000
G1 X40.633 Y23.560 Z-0.250 F400.000
G1 X41.543 Y23.560 Z-0.250 F400.000
G1 X41.543 Y22.225 Z-0.250 F400.000
G1 X37.053 Y17.735 Z-0.250 F400.000
G1 X39.298 Y17.735 Z-0.250 F400.000
G1 X41.543 Y19.980 Z-0.250 F400.000
G1 X41.543 Y17.735 Z-0.250 F400.000
G1 X41.543 Y17.735 Z-0.500 F400.000
G1 X41.543 Y19.980 Z-0.500 F400.000
G1 X39.298 Y17.735 Z-0.500 F400.000
G1 X37.053 Y17.735 Z-0.500 F400.000
G1 X41.543 Y22.225 Z-0.500 F400.000
G1 X41.543 Y23.560 Z-0.500 F400.000
G1 X40.633 Y23.560 Z-0.500 F400.000
G1 X34.808 Y17.735 Z-0.500 F400.000
G1 X32.563 Y17.735 Z-0.500 F400.000
G1 X38.388 Y23.560 Z-0.500 F400.000
G1 X36.143 Y23.560 Z-0.500 F400.000
G1 X30.318 Y17.735 Z-0.500 F400.000
G1 X28.073 Y17.735 Z-0.500 F400.000
G1 X33.898 Y23.560 Z-0.500 F400.000
G1 X31.653 Y23.560 Z-0.500 F400.000
G1 X25.828 Y17.735 Z-0.500 F400.000
G1 X23.583 Y17.735 Z-0.500 F400.000
G1 X29.408 Y23.560 Z-0.500 F400.000
G1 X27.163 Y23.560 Z-0.500 F400.000
G1 X21.338 Y17.735 Z-0.500 F400.000
G1 X19.093 Y17.735 Z-0.500 F400.000
G1 X24.918 Y23.560 Z-0.500 F400.000
G1 X22.672 Y23.560 Z-0.500 F400.000
G1 X16.847 Y17.735 Z-0.500 F400.000
G1 X14.602 Y17.735 Z-0.500 F400.000
G1 X20.427 Y23.560 Z-0.500 F400.000
G1 X18.182 Y23.560 Z-0.500 F400.000
G1 X12.357 Y17.735 Z-0.500 F400.000
G1 X10.112 Y17.735 Z-0.500 F400.000
G1 X15.937 Y23.560 Z-0.500 F400.000
G1 X13.692 Y23.560 Z-0.500 F400.000
G1 X8.543 Y18.411 Z-0.500 F400.000
G1 X8.543 Y20.656 Z-0.500 F400.000
G1 X11.447 Y23.560 Z-0.500 F400.000
G1 X9.202 Y23.560 Z-0.500 F400.000
G1 X8.543 Y23.560 Z-0.500 F400.000
G1 X8.543 Y22.901 Z-0.500 F400.000
G1 X9.202 Y23.560 Z-0.500 F400.000
G1 X9.202 Y23.560 Z-0.750 F400.000
G1 X8.543 Y22.901 Z-0.750 F400.000
G1 X8.543 Y23.560 Z-0.750 F400.000
G1 X9.202 Y23.560 Z-0.750 F400.000
G1 X11.447 Y23.560 Z-0.750 F400.000
G1 X8.543 Y20.656 Z-0.750 F400.000
G1 X8.543 Y18.411 Z-0.750 F400.000
G1 X13.692 Y23.560 Z-0.750 F400.000
G1 X15.937 Y23.560 Z-0.750 F400.000
G1 X10.112 Y17.735 Z-0.750 F400.000
G1 X12.357 Y17.735 Z-0.750 F400.000
G1 X18.182 Y23.560 Z-0.750 F400.000
G1 X20.427 Y23.560 Z-0.750 F400.000
G1 X14.602 Y17.735 Z-0.750 F400.000
G1 X16.847 Y17.735 Z-0.750 F400.000
G1 X22.672 Y23.560 Z-0.750 F400.000
G1 X24.918 Y23.560 Z-0.750 F400.000
G1 X19.093 Y17.735 Z-0.750 F400.000
G1 X21.338 Y17.735 Z-0.750 F400.000
G1 X27.163 Y23.560 Z-0.750 F400.000
G1 X29.408 Y23.560 Z-0.750 F400.000
G1 X23.583 Y17.735 Z-0.750 F400.000
G1 X25.828 Y17.735 Z-0.750 F400.000
G1 X31.653 Y23.560 Z-0.750 F400.000
G1 X33.898 Y23.560 Z-0.750 F400.000
G1 X28.073 Y17.735 Z-0.750 F400.000
G1 X30.318 Y17.735 Z-0.750 F400.000
G1 X36.143 Y23.560 Z-0.750 F400.000
G1 X38.388 Y23.560 Z-0.750 F400.000
G1 X32.563 Y17.735 Z-0.750 F400.000
G1 X34.808 Y17.735 Z-0.750 F400.000
G1 X40.633 Y23.560 Z-0.750 F400.000
G1 X41.543 Y23.560 Z-0.750 F400.000
G1 X41.543 Y22.225 Z-0.750 F400.000
G1 X37.053 Y17.735 Z-0.750 F400.000
G1 X39.298 Y17.735 Z-0.750 F400.000
G1 X41.543 Y19.980 Z-0.750 F400.000
G1 X41.543 Y17.735 Z-0.750 F400.000
G1 X41.543 Y17.735 Z-1.000 F400.000
G1 X41.543 Y19.980 Z-1.000 F400.000
G1 X39.298 Y17.735 Z-1.000 F400.000
G1 X37.053 Y17.735 Z-1.000 F400.000
G1 X41.543 Y22.225 Z-1.000 F400.000
G1 X41.543 Y23.560 Z-1.000 F400.000
G1 X40.633 Y23.560 Z-1.000 F400.000
G1 X34.808 Y17.735 Z-1.000 F400.000
G1 X32.563 Y17.735 Z-1.000 F400.000
G1 X38.388 Y23.560 Z-1.000 F400.000
G1 X36.143 Y23.560 Z-1.000 F400.000
G1 X30.318 Y17.735 Z-1.000 F400.000
G1 X28.073 Y17.735 Z-1.000 F400.000
G1 X33.898 Y23.560 Z-1.000 F400.000
G1 X31.653 Y23.560 Z-1.000 F400.000
G1 X25.828 Y17.735 Z-1.000 F400.000
G1 X23.583 Y17.735 Z-1.000 F400.000
G1 X29.408 Y23.560 Z-1.000 F400.000
G1 X27.163 Y23.560 Z-1.000 F400.000
G1 X21.338 Y17.735 Z-1.000 F400.000
G1 X19.093 Y17.735 Z-1.000 F400.000
G1 X24.918 Y23.560 Z-1.000 F400.000
G1 X22.672 Y23.560 Z-1.000 F400.000
G1 X16.847 Y17.735 Z-1.000 F400.000
G1 X14.602 Y17.735 Z-1.000 F400.000
G1 X20.427 Y23.560 Z-1.000 F400.000
G1 X18.182 Y23.560 Z-1.000 F400.000
G1 X12.357 Y17.735 Z-1.000 F400.000
G1 X10.112 Y17.735 Z-1.000 F400.000
G1 X15.937 Y23.560 Z-1.000 F400.000
G1 X13.692 Y23.560 Z-1.000 F400.000
G1 X8.543 Y18.411 Z-1.000 F400.000
G1 X8.543 Y20.656 Z-1.000 F400.000
G1 X11.447 Y23.560 Z-1.000 F400.000
G1 X9.202 Y23.560 Z-1.000 F400.000
G1 X8.543 Y23.560 Z-1.000 F400.000
G1 X8.543 Y22.901 Z-1.000 F400.000
G1 X9.202 Y23.560 Z-1.000 F400.000
G0 Z5.250
G0 Z5.250
(finish operation: Pocket_Shape)
(begin operation: Profile)
(machine: not set, mm/min)
(Profile)
(Compensated Tool Path. Diameter: 3.175)
G0 Z5.250
G0 X39.956 Y23.560
G0 Z3.250
G1 X39.956 Y23.560 Z-0.100 F400.000
G1 X39.956 Y17.735 Z-0.100 F400.000
G1 X10.131 Y17.735 Z-0.100 F400.000
G1 X10.131 Y23.560 Z-0.100 F400.000
G1 X39.956 Y23.560 Z-0.100 F400.000
G1 X39.956 Y23.560 Z-0.450 F400.000
G1 X39.956 Y17.735 Z-0.450 F400.000
G1 X10.131 Y17.735 Z-0.450 F400.000
G1 X10.131 Y23.560 Z-0.450 F400.000
G1 X39.956 Y23.560 Z-0.450 F400.000
G1 X39.956 Y23.560 Z-0.800 F400.000
G1 X39.956 Y17.735 Z-0.800 F400.000
G1 X10.131 Y17.735 Z-0.800 F400.000
G1 X10.131 Y23.560 Z-0.800 F400.000
G1 X39.956 Y23.560 Z-0.800 F400.000
G1 X39.956 Y23.560 Z-1.000 F400.000
G1 X39.956 Y17.735 Z-1.000 F400.000
G1 X10.131 Y17.735 Z-1.000 F400.000
G1 X10.131 Y23.560 Z-1.000 F400.000
G1 X39.956 Y23.560 Z-1.000 F400.000
G0 Z5.250
G0 Z5.250
(finish operation: Profile)
(begin operation: Profile001)
(machine: not set, mm/min)
(Profile001)
(Compensated Tool Path. Diameter: 3.175)
G0 Z5.250
G0 X37.706 Y29.091
G0 Z3.250
G1 X37.706 Y29.091 Z-0.000 F400.000
G2 X37.653 Y28.727 Z-0.000 I-0.162 J-0.162 F400.000
G1 X37.611 Y28.710 Z-0.000 F400.000
G2 X37.472 Y29.147 Z-0.000 I-0.067 J0.219 F400.000
G2 X37.706 Y29.091 Z-0.000 I0.071 J-0.218 F400.000
G0 Z5.250
G0 X37.546 Y12.594 Z5.250
G0 X37.546 Y12.594 Z3.250
G1 X37.546 Y12.594 Z-0.000 F400.000
G2 X37.653 Y12.163 Z-0.000 I-0.002 J-0.229 F400.000
G1 X37.611 Y12.146 Z-0.000 F400.000
G2 X37.472 Y12.583 Z-0.000 I-0.067 J0.219 F400.000
G2 X37.546 Y12.594 Z-0.000 I0.071 J-0.218 F400.000
G0 Z5.250
G0 X12.773 Y12.367 Z5.250
G0 X12.773 Y12.367 Z3.250
G1 X12.773 Y12.367 Z-0.000 F400.000
G2 X12.653 Y12.163 Z-0.000 I-0.229 J-0.002 F400.000
G1 X12.611 Y12.146 Z-0.000 F400.000
G2 X12.472 Y12.583 Z-0.000 I-0.067 J0.219 F400.000
G2 X12.773 Y12.367 Z-0.000 I0.071 J-0.218 F400.000
G0 Z5.250
G0 X12.547 Y28.700 Z5.250
G0 X12.547 Y28.700 Z3.250
G1 X12.547 Y28.700 Z-0.000 F400.000
G2 X12.472 Y29.147 Z-0.000 I-0.003 J0.229 F400.000
G2 X12.653 Y28.727 Z-0.000 I0.071 J-0.218 F400.000
G1 X12.611 Y28.710 Z-0.000 F400.000
G2 X12.547 Y28.700 Z-0.000 I-0.067 J0.219 F400.000
G1 X12.547 Y28.700 Z-0.250 F400.000
G2 X12.472 Y29.147 Z-0.250 I-0.003 J0.229 F400.000
G2 X12.653 Y28.727 Z-0.250 I0.071 J-0.218 F400.000
G1 X12.611 Y28.710 Z-0.250 F400.000
G2 X12.547 Y28.700 Z-0.250 I-0.067 J0.219 F400.000
G0 Z5.250
G0 X12.544 Y12.594 Z5.250
G0 X12.544 Y12.594 Z3.250
G1 X12.544 Y12.594 Z-0.250 F400.000
G2 X12.653 Y12.163 Z-0.250 I-0.000 J-0.229 F400.000
G1 X12.611 Y12.146 Z-0.250 F400.000
G2 X12.472 Y12.583 Z-0.250 I-0.067 J0.219 F400.000
G2 X12.544 Y12.594 Z-0.250 I0.071 J-0.218 F400.000
G0 Z5.250
G0 X37.315 Y12.367 Z5.250
G0 X37.315 Y12.367 Z3.250
G1 X37.315 Y12.367 Z-0.250 F400.000
G2 X37.472 Y12.583 Z-0.250 I0.229 J-0.002 F400.000
G2 X37.653 Y12.163 Z-0.250 I0.071 J-0.218 F400.000
G1 X37.611 Y12.146 Z-0.250 F400.000
G2 X37.315 Y12.367 Z-0.250 I-0.067 J0.219 F400.000
G0 Z5.250
G0 X37.541 Y28.700 Z5.250
G0 X37.541 Y28.700 Z3.250
G1 X37.541 Y28.700 Z-0.250 F400.000
G2 X37.472 Y29.147 Z-0.250 I0.003 J0.229 F400.000
G2 X37.653 Y28.727 Z-0.250 I0.071 J-0.218 F400.000
G1 X37.611 Y28.710 Z-0.250 F400.000
G2 X37.541 Y28.700 Z-0.250 I-0.067 J0.219 F400.000
G1 X37.541 Y28.700 Z-0.500 F400.000
G2 X37.472 Y29.147 Z-0.500 I0.003 J0.229 F400.000
G2 X37.653 Y28.727 Z-0.500 I0.071 J-0.218 F400.000
G1 X37.611 Y28.710 Z-0.500 F400.000
G2 X37.541 Y28.700 Z-0.500 I-0.067 J0.219 F400.000
G0 Z5.250
G0 X37.544 Y12.594 Z5.250
G0 X37.544 Y12.594 Z3.250
G1 X37.544 Y12.594 Z-0.500 F400.000
G2 X37.653 Y12.163 Z-0.500 I0.000 J-0.229 F400.000
G1 X37.611 Y12.146 Z-0.500 F400.000
G2 X37.472 Y12.583 Z-0.500 I-0.067 J0.219 F400.000
G2 X37.544 Y12.594 Z-0.500 I0.071 J-0.218 F400.000
G0 Z5.250
G0 X12.773 Y12.367 Z5.250
G0 X12.773 Y12.367 Z3.250
G1 X12.773 Y12.367 Z-0.500 F400.000
G2 X12.653 Y12.163 Z-0.500 I-0.229 J-0.002 F400.000
G1 X12.611 Y12.146 Z-0.500 F400.000
G2 X12.472 Y12.583 Z-0.500 I-0.067 J0.219 F400.000
G2 X12.773 Y12.367 Z-0.500 I0.071 J-0.218 F400.000
G0 Z5.250
G0 X12.547 Y28.700 Z5.250
G0 X12.547 Y28.700 Z3.250
G1 X12.547 Y28.700 Z-0.500 F400.000
G2 X12.472 Y29.147 Z-0.500 I-0.003 J0.229 F400.000
G2 X12.653 Y28.727 Z-0.500 I0.071 J-0.218 F400.000
G1 X12.611 Y28.710 Z-0.500 F400.000
G2 X12.547 Y28.700 Z-0.500 I-0.067 J0.219 F400.000
G1 X12.547 Y28.700 Z-0.750 F400.000
G2 X12.472 Y29.147 Z-0.750 I-0.003 J0.229 F400.000
G2 X12.653 Y28.727 Z-0.750 I0.071 J-0.218 F400.000
G1 X12.611 Y28.710 Z-0.750 F400.000
G2 X12.547 Y28.700 Z-0.750 I-0.067 J0.219 F400.000
G0 Z5.250
G0 X12.544 Y12.594 Z5.250
G0 X12.544 Y12.594 Z3.250
G1 X12.544 Y12.594 Z-0.750 F400.000
G2 X12.653 Y12.163 Z-0.750 I-0.000 J-0.229 F400.000
G1 X12.611 Y12.146 Z-0.750 F400.000
G2 X12.472 Y12.583 Z-0.750 I-0.067 J0.219 F400.000
G2 X12.544 Y12.594 Z-0.750 I0.071 J-0.218 F400.000
G0 Z5.250
G0 X37.315 Y12.367 Z5.250
G0 X37.315 Y12.367 Z3.250
G1 X37.315 Y12.367 Z-0.750 F400.000
G2 X37.472 Y12.583 Z-0.750 I0.229 J-0.002 F400.000
G2 X37.653 Y12.163 Z-0.750 I0.071 J-0.218 F400.000
G1 X37.611 Y12.146 Z-0.750 F400.000
G2 X37.315 Y12.367 Z-0.750 I-0.067 J0.219 F400.000
G0 Z5.250
G0 X37.541 Y28.700 Z5.250
G0 X37.541 Y28.700 Z3.250
G1 X37.541 Y28.700 Z-0.750 F400.000
G2 X37.472 Y29.147 Z-0.750 I0.003 J0.229 F400.000
G2 X37.653 Y28.727 Z-0.750 I0.071 J-0.218 F400.000
G1 X37.611 Y28.710 Z-0.750 F400.000
G2 X37.541 Y28.700 Z-0.750 I-0.067 J0.219 F400.000
G1 X37.541 Y28.700 Z-1.000 F400.000
G2 X37.472 Y29.147 Z-1.000 I0.003 J0.229 F400.000
G2 X37.653 Y28.727 Z-1.000 I0.071 J-0.218 F400.000
G1 X37.611 Y28.710 Z-1.000 F400.000
G2 X37.541 Y28.700 Z-1.000 I-0.067 J0.219 F400.000
G0 Z5.250
G0 X37.544 Y12.594 Z5.250
G0 X37.544 Y12.594 Z3.250
G1 X37.544 Y12.594 Z-1.000 F400.000
G2 X37.653 Y12.163 Z-1.000 I0.000 J-0.229 F400.000
G1 X37.611 Y12.146 Z-1.000 F400.000
G2 X37.472 Y12.583 Z-1.000 I-0.067 J0.219 F400.000
G2 X37.544 Y12.594 Z-1.000 I0.071 J-0.218 F400.000
G0 Z5.250
G0 X12.773 Y12.367 Z5.250
G0 X12.773 Y12.367 Z3.250
G1 X12.773 Y12.367 Z-1.000 F400.000
G2 X12.653 Y12.163 Z-1.000 I-0.229 J-0.002 F400.000
G1 X12.611 Y12.146 Z-1.000 F400.000
G2 X12.472 Y12.583 Z-1.000 I-0.067 J0.219 F400.000
G2 X12.773 Y12.367 Z-1.000 I0.071 J-0.218 F400.000
G0 Z5.250
G0 X12.547 Y28.700 Z5.250
G0 X12.547 Y28.700 Z3.250
G1 X12.547 Y28.700 Z-1.000 F400.000
G2 X12.472 Y29.147 Z-1.000 I-0.003 J0.229 F400.000
G2 X12.653 Y28.727 Z-1.000 I0.071 J-0.218 F400.000
G1 X12.611 Y28.710 Z-1.000 F400.000
G2 X12.547 Y28.700 Z-1.000 I-0.067 J0.219 F400.000
G1 X12.547 Y28.700 Z-1.250 F400.000
G2 X12.472 Y29.147 Z-1.250 I-0.003 J0.229 F400.000
G2 X12.653 Y28.727 Z-1.250 I0.071 J-0.218 F400.000
G1 X12.611 Y28.710 Z-1.250 F400.000
G2 X12.547 Y28.700 Z-1.250 I-0.067 J0.219 F400.000
G0 Z5.250
G0 X12.544 Y12.594 Z5.250
G0 X12.544 Y12.594 Z3.250
G1 X12.544 Y12.594 Z-1.250 F400.000
G2 X12.653 Y12.163 Z-1.250 I-0.000 J-0.229 F400.000
G1 X12.611 Y12.146 Z-1.250 F400.000
G2 X12.472 Y12.583 Z-1.250 I-0.067 J0.219 F400.000
G2 X12.544 Y12.594 Z-1.250 I0.071 J-0.218 F400.000
G0 Z5.250
G0 X37.315 Y12.367 Z5.250
G0 X37.315 Y12.367 Z3.250
G1 X37.315 Y12.367 Z-1.250 F400.000
G2 X37.472 Y12.583 Z-1.250 I0.229 J-0.002 F400.000
G2 X37.653 Y12.163 Z-1.250 I0.071 J-0.218 F400.000
G1 X37.611 Y12.146 Z-1.250 F400.000
G2 X37.315 Y12.367 Z-1.250 I-0.067 J0.219 F400.000
G0 Z5.250
G0 X37.541 Y28.700 Z5.250
G0 X37.541 Y28.700 Z3.250
G1 X37.541 Y28.700 Z-1.250 F400.000
G2 X37.472 Y29.147 Z-1.250 I0.003 J0.229 F400.000
G2 X37.653 Y28.727 Z-1.250 I0.071 J-0.218 F400.000
G1 X37.611 Y28.710 Z-1.250 F400.000
G2 X37.541 Y28.700 Z-1.250 I-0.067 J0.219 F400.000
G1 X37.541 Y28.700 Z-1.500 F400.000
G2 X37.472 Y29.147 Z-1.500 I0.003 J0.229 F400.000
G2 X37.653 Y28.727 Z-1.500 I0.071 J-0.218 F400.000
G1 X37.611 Y28.710 Z-1.500 F400.000
G2 X37.541 Y28.700 Z-1.500 I-0.067 J0.219 F400.000
G0 Z5.250
G0 X37.544 Y12.594 Z5.250
G0 X37.544 Y12.594 Z3.250
G1 X37.544 Y12.594 Z-1.500 F400.000
G2 X37.653 Y12.163 Z-1.500 I0.000 J-0.229 F400.000
G1 X37.611 Y12.146 Z-1.500 F400.000
G2 X37.472 Y12.583 Z-1.500 I-0.067 J0.219 F400.000
G2 X37.544 Y12.594 Z-1.500 I0.071 J-0.218 F400.000
G0 Z5.250
G0 X12.773 Y12.367 Z5.250
G0 X12.773 Y12.367 Z3.250
G1 X12.773 Y12.367 Z-1.500 F400.000
G2 X12.653 Y12.163 Z-1.500 I-0.229 J-0.002 F400.000
G1 X12.611 Y12.146 Z-1.500 F400.000
G2 X12.472 Y12.583 Z-1.500 I-0.067 J0.219 F400.000
G2 X12.773 Y12.367 Z-1.500 I0.071 J-0.218 F400.000
G0 Z5.250
G0 X12.547 Y28.700 Z5.250
G0 X12.547 Y28.700 Z3.250
G1 X12.547 Y28.700 Z-1.500 F400.000
G2 X12.472 Y29.147 Z-1.500 I-0.003 J0.229 F400.000
G2 X12.653 Y28.727 Z-1.500 I0.071 J-0.218 F400.000
G1 X12.611 Y28.710 Z-1.500 F400.000
G2 X12.547 Y28.700 Z-1.500 I-0.067 J0.219 F400.000
G1 X12.547 Y28.700 Z-1.750 F400.000
G2 X12.472 Y29.147 Z-1.750 I-0.003 J0.229 F400.000
G2 X12.653 Y28.727 Z-1.750 I0.071 J-0.218 F400.000
G1 X12.611 Y28.710 Z-1.750 F400.000
G2 X12.547 Y28.700 Z-1.750 I-0.067 J0.219 F400.000
G0 Z5.250
G0 X12.544 Y12.594 Z5.250
G0 X12.544 Y12.594 Z3.250
G1 X12.544 Y12.594 Z-1.750 F400.000
G2 X12.653 Y12.163 Z-1.750 I-0.000 J-0.229 F400.000
G1 X12.611 Y12.146 Z-1.750 F400.000
G2 X12.472 Y12.583 Z-1.750 I-0.067 J0.219 F400.000
G2 X12.544 Y12.594 Z-1.750 I0.071 J-0.218 F400.000
G0 Z5.250
G0 X37.315 Y12.367 Z5.250
G0 X37.315 Y12.367 Z3.250
G1 X37.315 Y12.367 Z-1.750 F400.000
G2 X37.472 Y12.583 Z-1.750 I0.229 J-0.002 F400.000
G2 X37.653 Y12.163 Z-1.750 I0.071 J-0.218 F400.000
G1 X37.611 Y12.146 Z-1.750 F400.000
G2 X37.315 Y12.367 Z-1.750 I-0.067 J0.219 F400.000
G0 Z5.250
G0 X37.541 Y28.700 Z5.250
G0 X37.541 Y28.700 Z3.250
G1 X37.541 Y28.700 Z-1.750 F400.000
G2 X37.472 Y29.147 Z-1.750 I0.003 J0.229 F400.000
G2 X37.653 Y28.727 Z-1.750 I0.071 J-0.218 F400.000
G1 X37.611 Y28.710 Z-1.750 F400.000
G2 X37.541 Y28.700 Z-1.750 I-0.067 J0.219 F400.000
G1 X37.541 Y28.700 Z-2.000 F400.000
G2 X37.472 Y29.147 Z-2.000 I0.003 J0.229 F400.000
G2 X37.653 Y28.727 Z-2.000 I0.071 J-0.218 F400.000
G1 X37.611 Y28.710 Z-2.000 F400.000
G2 X37.541 Y28.700 Z-2.000 I-0.067 J0.219 F400.000
G0 Z5.250
G0 X37.544 Y12.594 Z5.250
G0 X37.544 Y12.594 Z3.250
G1 X37.544 Y12.594 Z-2.000 F400.000
G2 X37.653 Y12.163 Z-2.000 I0.000 J-0.229 F400.000
G1 X37.611 Y12.146 Z-2.000 F400.000
G2 X37.472 Y12.583 Z-2.000 I-0.067 J0.219 F400.000
G2 X37.544 Y12.594 Z-2.000 I0.071 J-0.218 F400.000
G0 Z5.250
G0 X12.773 Y12.367 Z5.250
G0 X12.773 Y12.367 Z3.250
G1 X12.773 Y12.367 Z-2.000 F400.000
G2 X12.653 Y12.163 Z-2.000 I-0.229 J-0.002 F400.000
G1 X12.611 Y12.146 Z-2.000 F400.000
G2 X12.472 Y12.583 Z-2.000 I-0.067 J0.219 F400.000
G2 X12.773 Y12.367 Z-2.000 I0.071 J-0.218 F400.000
G0 Z5.250
G0 X12.547 Y28.700 Z5.250
G0 X12.547 Y28.700 Z3.250
G1 X12.547 Y28.700 Z-2.000 F400.000
G2 X12.472 Y29.147 Z-2.000 I-0.003 J0.229 F400.000
G2 X12.653 Y28.727 Z-2.000 I0.071 J-0.218 F400.000
G1 X12.611 Y28.710 Z-2.000 F400.000
G2 X12.547 Y28.700 Z-2.000 I-0.067 J0.219 F400.000
G1 X12.547 Y28.700 Z-2.250 F400.000
G2 X12.472 Y29.147 Z-2.250 I-0.003 J0.229 F400.000
G2 X12.653 Y28.727 Z-2.250 I0.071 J-0.218 F400.000
G1 X12.611 Y28.710 Z-2.250 F400.000
G2 X12.547 Y28.700 Z-2.250 I-0.067 J0.219 F400.000
G0 Z5.250
G0 X12.544 Y12.594 Z5.250
G0 X12.544 Y12.594 Z3.250
G1 X12.544 Y12.594 Z-2.250 F400.000
G2 X12.653 Y12.163 Z-2.250 I-0.000 J-0.229 F400.000
G1 X12.611 Y12.146 Z-2.250 F400.000
G2 X12.472 Y12.583 Z-2.250 I-0.067 J0.219 F400.000
G2 X12.544 Y12.594 Z-2.250 I0.071 J-0.218 F400.000
G0 Z5.250
G0 X37.315 Y12.367 Z5.250
G0 X37.315 Y12.367 Z3.250
G1 X37.315 Y12.367 Z-2.250 F400.000
G2 X37.472 Y12.583 Z-2.250 I0.229 J-0.002 F400.000
G2 X37.653 Y12.163 Z-2.250 I0.071 J-0.218 F400.000
G1 X37.611 Y12.146 Z-2.250 F400.000
G2 X37.315 Y12.367 Z-2.250 I-0.067 J0.219 F400.000
G0 Z5.250
G0 X37.541 Y28.700 Z5.250
G0 X37.541 Y28.700 Z3.250
G1 X37.541 Y28.700 Z-2.250 F400.000
G2 X37.472 Y29.147 Z-2.250 I0.003 J0.229 F400.000
G2 X37.653 Y28.727 Z-2.250 I0.071 J-0.218 F400.000
G1 X37.611 Y28.710 Z-2.250 F400.000
G2 X37.541 Y28.700 Z-2.250 I-0.067 J0.219 F400.000
G1 X37.541 Y28.700 Z-2.500 F400.000
G2 X37.472 Y29.147 Z-2.500 I0.003 J0.229 F400.000
G2 X37.653 Y28.727 Z-2.500 I0.071 J-0.218 F400.000
G1 X37.611 Y28.710 Z-2.500 F400.000
G2 X37.541 Y28.700 Z-2.500 I-0.067 J0.219 F400.000
G0 Z5.250
G0 X37.544 Y12.594 Z5.250
G0 X37.544 Y12.594 Z3.250
G1 X37.544 Y12.594 Z-2.500 F400.000
G2 X37.653 Y12.163 Z-2.500 I0.000 J-0.229 F400.000
G1 X37.611 Y12.146 Z-2.500 F400.000
G2 X37.472 Y12.583 Z-2.500 I-0.067 J0.219 F400.000
G2 X37.544 Y12.594 Z-2.500 I0.071 J-0.218 F400.000
G0 Z5.250
G0 X12.773 Y12.367 Z5.250
G0 X12.773 Y12.367 Z3.250
G1 X12.773 Y12.367 Z-2.500 F400.000
G2 X12.653 Y12.163 Z-2.500 I-0.229 J-0.002 F400.000
G1 X12.611 Y12.146 Z-2.500 F400.000
G2 X12.472 Y12.583 Z-2.500 I-0.067 J0.219 F400.000
G2 X12.773 Y12.367 Z-2.500 I0.071 J-0.218 F400.000
G0 Z5.250
G0 X12.547 Y28.700 Z5.250
G0 X12.547 Y28.700 Z3.250
G1 X12.547 Y28.700 Z-2.500 F400.000
G2 X12.472 Y29.147 Z-2.500 I-0.003 J0.229 F400.000
G2 X12.653 Y28.727 Z-2.500 I0.071 J-0.218 F400.000
G1 X12.611 Y28.710 Z-2.500 F400.000
G2 X12.547 Y28.700 Z-2.500 I-0.067 J0.219 F400.000
G1 X12.547 Y28.700 Z-2.750 F400.000
G2 X12.472 Y29.147 Z-2.750 I-0.003 J0.229 F400.000
G2 X12.653 Y28.727 Z-2.750 I0.071 J-0.218 F400.000
G1 X12.611 Y28.710 Z-2.750 F400.000
G2 X12.547 Y28.700 Z-2.750 I-0.067 J0.219 F400.000
G0 Z5.250
G0 X12.544 Y12.594 Z5.250
G0 X12.544 Y12.594 Z3.250
G1 X12.544 Y12.594 Z-2.750 F400.000
G2 X12.653 Y12.163 Z-2.750 I-0.000 J-0.229 F400.000
G1 X12.611 Y12.146 Z-2.750 F400.000
G2 X12.472 Y12.583 Z-2.750 I-0.067 J0.219 F400.000
G2 X12.544 Y12.594 Z-2.750 I0.071 J-0.218 F400.000
G0 Z5.250
G0 X37.315 Y12.367 Z5.250
G0 X37.315 Y12.367 Z3.250
G1 X37.315 Y12.367 Z-2.750 F400.000
G2 X37.472 Y12.583 Z-2.750 I0.229 J-0.002 F400.000
G2 X37.653 Y12.163 Z-2.750 I0.071 J-0.218 F400.000
G1 X37.611 Y12.146 Z-2.750 F400.000
G2 X37.315 Y12.367 Z-2.750 I-0.067 J0.219 F400.000
G0 Z5.250
G0 X37.541 Y28.700 Z5.250
G0 X37.541 Y28.700 Z3.250
G1 X37.541 Y28.700 Z-2.750 F400.000
G2 X37.472 Y29.147 Z-2.750 I0.003 J0.229 F400.000
G2 X37.653 Y28.727 Z-2.750 I0.071 J-0.218 F400.000
G1 X37.611 Y28.710 Z-2.750 F400.000
G2 X37.541 Y28.700 Z-2.750 I-0.067 J0.219 F400.000
G1 X37.541 Y28.700 Z-3.000 F400.000
G2 X37.472 Y29.147 Z-3.000 I0.003 J0.229 F400.000
G2 X37.653 Y28.727 Z-3.000 I0.071 J-0.218 F400.000
G1 X37.611 Y28.710 Z-3.000 F400.000
G2 X37.541 Y28.700 Z-3.000 I-0.067 J0.219 F400.000
G0 Z5.250
G0 X37.544 Y12.594 Z5.250
G0 X37.544 Y12.594 Z3.250
G1 X37.544 Y12.594 Z-3.000 F400.000
G2 X37.653 Y12.163 Z-3.000 I0.000 J-0.229 F400.000
G1 X37.611 Y12.146 Z-3.000 F400.000
G2 X37.472 Y12.583 Z-3.000 I-0.067 J0.219 F400.000
G2 X37.544 Y12.594 Z-3.000 I0.071 J-0.218 F400.000
G0 Z5.250
G0 X12.773 Y12.367 Z5.250
G0 X12.773 Y12.367 Z3.250
G1 X12.773 Y12.367 Z-3.000 F400.000
G2 X12.653 Y12.163 Z-3.000 I-0.229 J-0.002 F400.000
G1 X12.611 Y12.146 Z-3.000 F400.000
G2 X12.472 Y12.583 Z-3.000 I-0.067 J0.219 F400.000
G2 X12.773 Y12.367 Z-3.000 I0.071 J-0.218 F400.000
G0 Z5.250
G0 X12.547 Y28.700 Z5.250
G0 X12.547 Y28.700 Z3.250
G1 X12.547 Y28.700 Z-3.000 F400.000
G2 X12.472 Y29.147 Z-3.000 I-0.003 J0.229 F400.000
G2 X12.653 Y28.727 Z-3.000 I0.071 J-0.218 F400.000
G1 X12.611 Y28.710 Z-3.000 F400.000
G2 X12.547 Y28.700 Z-3.000 I-0.067 J0.219 F400.000
G1 X12.547 Y28.700 Z-3.250 F400.000
G2 X12.472 Y29.147 Z-3.250 I-0.003 J0.229 F400.000
G2 X12.653 Y28.727 Z-3.250 I0.071 J-0.218 F400.000
G1 X12.611 Y28.710 Z-3.250 F400.000
G2 X12.547 Y28.700 Z-3.250 I-0.067 J0.219 F400.000
G0 Z5.250
G0 X12.544 Y12.594 Z5.250
G0 X12.544 Y12.594 Z3.250
G1 X12.544 Y12.594 Z-3.250 F400.000
G2 X12.653 Y12.163 Z-3.250 I-0.000 J-0.229 F400.000
G1 X12.611 Y12.146 Z-3.250 F400.000
G2 X12.472 Y12.583 Z-3.250 I-0.067 J0.219 F400.000
G2 X12.544 Y12.594 Z-3.250 I0.071 J-0.218 F400.000
G0 Z5.250
G0 X37.315 Y12.367 Z5.250
G0 X37.315 Y12.367 Z3.250
G1 X37.315 Y12.367 Z-3.250 F400.000
G2 X37.472 Y12.583 Z-3.250 I0.229 J-0.002 F400.000
G2 X37.653 Y12.163 Z-3.250 I0.071 J-0.218 F400.000
G1 X37.611 Y12.146 Z-3.250 F400.000
G2 X37.315 Y12.367 Z-3.250 I-0.067 J0.219 F400.000
G0 Z5.250
G0 X37.541 Y28.700 Z5.250
G0 X37.541 Y28.700 Z3.250
G1 X37.541 Y28.700 Z-3.250 F400.000
G2 X37.472 Y29.147 Z-3.250 I0.003 J0.229 F400.000
G2 X37.653 Y28.727 Z-3.250 I0.071 J-0.218 F400.000
G1 X37.611 Y28.710 Z-3.250 F400.000
G2 X37.541 Y28.700 Z-3.250 I-0.067 J0.219 F400.000
G0 Z5.250
G0 Z5.250
(finish operation: Profile001)
(begin operation: Profile003)
(machine: not set, mm/min)
(Profile003)
(Compensated Tool Path. Diameter: 3.175)
G0 Z5.250
G0 X11.656 Y23.310
G0 Z3.250
G1 X11.656 Y23.310 Z-1.100 F400.000
G1 X11.656 Y17.985 Z-1.100 F400.000
G1 X11.631 Y17.985 Z-1.100 F400.000
G1 X11.631 Y23.310 Z-1.100 F400.000
G1 X11.656 Y23.310 Z-1.100 F400.000
G1 X11.656 Y23.310 Z-1.350 F400.000
G1 X11.656 Y17.985 Z-1.350 F400.000
G1 X11.631 Y17.985 Z-1.350 F400.000
G1 X11.631 Y23.310 Z-1.350 F400.000
G1 X11.656 Y23.310 Z-1.350 F400.000
G1 X11.656 Y23.310 Z-1.600 F400.000
G1 X11.656 Y17.985 Z-1.600 F400.000
G1 X11.631 Y17.985 Z-1.600 F400.000
G1 X11.631 Y23.310 Z-1.600 F400.000
G1 X11.656 Y23.310 Z-1.600 F400.000
G1 X11.656 Y23.310 Z-1.850 F400.000
G1 X11.656 Y17.985 Z-1.850 F400.000
G1 X11.631 Y17.985 Z-1.850 F400.000
G1 X11.631 Y23.310 Z-1.850 F400.000
G1 X11.656 Y23.310 Z-1.850 F400.000
G1 X11.656 Y23.310 Z-2.100 F400.000
G1 X11.656 Y17.985 Z-2.100 F400.000
G1 X11.631 Y17.985 Z-2.100 F400.000
G1 X11.631 Y23.310 Z-2.100 F400.000
G1 X11.656 Y23.310 Z-2.100 F400.000
G1 X11.656 Y23.310 Z-2.350 F400.000
G1 X11.656 Y17.985 Z-2.350 F400.000
G1 X11.631 Y17.985 Z-2.350 F400.000
G1 X11.631 Y23.310 Z-2.350 F400.000
G1 X11.656 Y23.310 Z-2.350 F400.000
G1 X11.656 Y23.310 Z-2.600 F400.000
G1 X11.656 Y17.985 Z-2.600 F400.000
G1 X11.631 Y17.985 Z-2.600 F400.000
G1 X11.631 Y23.310 Z-2.600 F400.000
G1 X11.656 Y23.310 Z-2.600 F400.000
G1 X11.656 Y23.310 Z-2.850 F400.000
G1 X11.656 Y17.985 Z-2.850 F400.000
G1 X11.631 Y17.985 Z-2.850 F400.000
G1 X11.631 Y23.310 Z-2.850 F400.000
G1 X11.656 Y23.310 Z-2.850 F400.000
G1 X11.656 Y23.310 Z-3.100 F400.000
G1 X11.656 Y17.985 Z-3.100 F400.000
G1 X11.631 Y17.985 Z-3.100 F400.000
G1 X11.631 Y23.310 Z-3.100 F400.000
G1 X11.656 Y23.310 Z-3.100 F400.000
G1 X11.656 Y23.310 Z-3.250 F400.000
G1 X11.656 Y17.985 Z-3.250 F400.000
G1 X11.631 Y17.985 Z-3.250 F400.000
G1 X11.631 Y23.310 Z-3.250 F400.000
G1 X11.656 Y23.310 Z-3.250 F400.000
G0 Z5.250
G0 Z5.250
G0 X11.656 Y23.310
G0 X16.631 Y23.310
G0 X16.631 Y23.310 Z3.250
G1 X16.631 Y23.310 Z-1.100 F400.000
G1 X16.656 Y23.310 Z-1.100 F400.000
G1 X16.656 Y17.985 Z-1.100 F400.000
G1 X16.631 Y17.985 Z-1.100 F400.000
G1 X16.631 Y23.310 Z-1.100 F400.000
G1 X16.631 Y23.310 Z-1.350 F400.000
G1 X16.656 Y23.310 Z-1.350 F400.000
G1 X16.656 Y17.985 Z-1.350 F400.000
G1 X16.631 Y17.985 Z-1.350 F400.000
G1 X16.631 Y23.310 Z-1.350 F400.000
G1 X16.631 Y23.310 Z-1.600 F400.000
G1 X16.656 Y23.310 Z-1.600 F400.000
G1 X16.656 Y17.985 Z-1.600 F400.000
G1 X16.631 Y17.985 Z-1.600 F400.000
G1 X16.631 Y23.310 Z-1.600 F400.000
G1 X16.631 Y23.310 Z-1.850 F400.000
G1 X16.656 Y23.310 Z-1.850 F400.000
G1 X16.656 Y17.985 Z-1.850 F400.000
G1 X16.631 Y17.985 Z-1.850 F400.000
G1 X16.631 Y23.310 Z-1.850 F400.000
G1 X16.631 Y23.310 Z-2.100 F400.000
G1 X16.656 Y23.310 Z-2.100 F400.000
G1 X16.656 Y17.985 Z-2.100 F400.000
G1 X16.631 Y17.985 Z-2.100 F400.000
G1 X16.631 Y23.310 Z-2.100 F400.000
G1 X16.631 Y23.310 Z-2.350 F400.000
G1 X16.656 Y23.310 Z-2.350 F400.000
G1 X16.656 Y17.985 Z-2.350 F400.000
G1 X16.631 Y17.985 Z-2.350 F400.000
G1 X16.631 Y23.310 Z-2.350 F400.000
G1 X16.631 Y23.310 Z-2.600 F400.000
G1 X16.656 Y23.310 Z-2.600 F400.000
G1 X16.656 Y17.985 Z-2.600 F400.000
G1 X16.631 Y17.985 Z-2.600 F400.000
G1 X16.631 Y23.310 Z-2.600 F400.000
G1 X16.631 Y23.310 Z-2.850 F400.000
G1 X16.656 Y23.310 Z-2.850 F400.000
G1 X16.656 Y17.985 Z-2.850 F400.000
G1 X16.631 Y17.985 Z-2.850 F400.000
G1 X16.631 Y23.310 Z-2.850 F400.000
G1 X16.631 Y23.310 Z-3.100 F400.000
G1 X16.656 Y23.310 Z-3.100 F400.000
G1 X16.656 Y17.985 Z-3.100 F400.000
G1 X16.631 Y17.985 Z-3.100 F400.000
G1 X16.631 Y23.310 Z-3.100 F400.000
G1 X16.631 Y23.310 Z-3.250 F400.000
G1 X16.656 Y23.310 Z-3.250 F400.000
G1 X16.656 Y17.985 Z-3.250 F400.000
G1 X16.631 Y17.985 Z-3.250 F400.000
G1 X16.631 Y23.310 Z-3.250 F400.000
G0 Z5.250
G0 Z5.250
G0 X16.631 Y23.310
G0 X21.631
G0 X21.631 Z3.250
G1 X21.631 Y23.310 Z-1.100 F400.000
G1 X21.656 Y23.310 Z-1.100 F400.000
G1 X21.656 Y17.985 Z-1.100 F400.000
G1 X21.631 Y17.985 Z-1.100 F400.000
G1 X21.631 Y23.310 Z-1.100 F400.000
G1 X21.631 Y23.310 Z-1.350 F400.000
G1 X21.656 Y23.310 Z-1.350 F400.000
G1 X21.656 Y17.985 Z-1.350 F400.000
G1 X21.631 Y17.985 Z-1.350 F400.000
G1 X21.631 Y23.310 Z-1.350 F400.000
G1 X21.631 Y23.310 Z-1.600 F400.000
G1 X21.656 Y23.310 Z-1.600 F400.000
G1 X21.656 Y17.985 Z-1.600 F400.000
G1 X21.631 Y17.985 Z-1.600 F400.000
G1 X21.631 Y23.310 Z-1.600 F400.000
G1 X21.631 Y23.310 Z-1.850 F400.000
G1 X21.656 Y23.310 Z-1.850 F400.000
G1 X21.656 Y17.985 Z-1.850 F400.000
G1 X21.631 Y17.985 Z-1.850 F400.000
G1 X21.631 Y23.310 Z-1.850 F400.000
G1 X21.631 Y23.310 Z-2.100 F400.000
G1 X21.656 Y23.310 Z-2.100 F400.000
G1 X21.656 Y17.985 Z-2.100 F400.000
G1 X21.631 Y17.985 Z-2.100 F400.000
G1 X21.631 Y23.310 Z-2.100 F400.000
G1 X21.631 Y23.310 Z-2.350 F400.000
G1 X21.656 Y23.310 Z-2.350 F400.000
G1 X21.656 Y17.985 Z-2.350 F400.000
G1 X21.631 Y17.985 Z-2.350 F400.000
G1 X21.631 Y23.310 Z-2.350 F400.000
G1 X21.631 Y23.310 Z-2.600 F400.000
G1 X21.656 Y23.310 Z-2.600 F400.000
G1 X21.656 Y17.985 Z-2.600 F400.000
G1 X21.631 Y17.985 Z-2.600 F400.000
G1 X21.631 Y23.310 Z-2.600 F400.000
G1 X21.631 Y23.310 Z-2.850 F400.000
G1 X21.656 Y23.310 Z-2.850 F400.000
G1 X21.656 Y17.985 Z-2.850 F400.000
G1 X21.631 Y17.985 Z-2.850 F400.000
G1 X21.631 Y23.310 Z-2.850 F400.000
G1 X21.631 Y23.310 Z-3.100 F400.000
G1 X21.656 Y23.310 Z-3.100 F400.000
G1 X21.656 Y17.985 Z-3.100 F400.000
G1 X21.631 Y17.985 Z-3.100 F400.000
G1 X21.631 Y23.310 Z-3.100 F400.000
G1 X21.631 Y23.310 Z-3.250 F400.000
G1 X21.656 Y23.310 Z-3.250 F400.000
G1 X21.656 Y17.985 Z-3.250 F400.000
G1 X21.631 Y17.985 Z-3.250 F400.000
G1 X21.631 Y23.310 Z-3.250 F400.000
G0 Z5.250
G0 Z5.250
G0 X21.631 Y23.310
G0 X28.431 Y23.310
G0 X28.431 Y23.310 Z3.250
G1 X28.431 Y23.310 Z-1.100 F400.000
G1 X28.456 Y23.310 Z-1.100 F400.000
G1 X28.456 Y17.985 Z-1.100 F400.000
G1 X28.431 Y17.985 Z-1.100 F400.000
G1 X28.431 Y23.310 Z-1.100 F400.000
G1 X28.431 Y23.310 Z-1.350 F400.000
G1 X28.456 Y23.310 Z-1.350 F400.000
G1 X28.456 Y17.985 Z-1.350 F400.000
G1 X28.431 Y17.985 Z-1.350 F400.000
G1 X28.431 Y23.310 Z-1.350 F400.000
G1 X28.431 Y23.310 Z-1.600 F400.000
G1 X28.456 Y23.310 Z-1.600 F400.000
G1 X28.456 Y17.985 Z-1.600 F400.000
G1 X28.431 Y17.985 Z-1.600 F400.000
G1 X28.431 Y23.310 Z-1.600 F400.000
G1 X28.431 Y23.310 Z-1.850 F400.000
G1 X28.456 Y23.310 Z-1.850 F400.000
G1 X28.456 Y17.985 Z-1.850 F400.000
G1 X28.431 Y17.985 Z-1.850 F400.000
G1 X28.431 Y23.310 Z-1.850 F400.000
G1 X28.431 Y23.310 Z-2.100 F400.000
G1 X28.456 Y23.310 Z-2.100 F400.000
G1 X28.456 Y17.985 Z-2.100 F400.000
G1 X28.431 Y17.985 Z-2.100 F400.000
G1 X28.431 Y23.310 Z-2.100 F400.000
G1 X28.431 Y23.310 Z-2.350 F400.000
G1 X28.456 Y23.310 Z-2.350 F400.000
G1 X28.456 Y17.985 Z-2.350 F400.000
G1 X28.431 Y17.985 Z-2.350 F400.000
G1 X28.431 Y23.310 Z-2.350 F400.000
G1 X28.431 Y23.310 Z-2.600 F400.000
G1 X28.456 Y23.310 Z-2.600 F400.000
G1 X28.456 Y17.985 Z-2.600 F400.000
G1 X28.431 Y17.985 Z-2.600 F400.000
G1 X28.431 Y23.310 Z-2.600 F400.000
G1 X28.431 Y23.310 Z-2.850 F400.000
G1 X28.456 Y23.310 Z-2.850 F400.000
G1 X28.456 Y17.985 Z-2.850 F400.000
G1 X28.431 Y17.985 Z-2.850 F400.000
G1 X28.431 Y23.310 Z-2.850 F400.000
G1 X28.431 Y23.310 Z-3.100 F400.000
G1 X28.456 Y23.310 Z-3.100 F400.000
G1 X28.456 Y17.985 Z-3.100 F400.000
G1 X28.431 Y17.985 Z-3.100 F400.000
G1 X28.431 Y23.310 Z-3.100 F400.000
G1 X28.431 Y23.310 Z-3.250 F400.000
G1 X28.456 Y23.310 Z-3.250 F400.000
G1 X28.456 Y17.985 Z-3.250 F400.000
G1 X28.431 Y17.985 Z-3.250 F400.000
G1 X28.431 Y23.310 Z-3.250 F400.000
G0 Z5.250
G0 Z5.250
G0 X28.431 Y23.310
G0 X33.431 Y23.310
G0 X33.431 Y23.310 Z3.250
G1 X33.431 Y23.310 Z-1.100 F400.000
G1 X33.456 Y23.310 Z-1.100 F400.000
G1 X33.456 Y17.985 Z-1.100 F400.000
G1 X33.431 Y17.985 Z-1.100 F400.000
G1 X33.431 Y23.310 Z-1.100 F400.000
G1 X33.431 Y23.310 Z-1.350 F400.000
G1 X33.456 Y23.310 Z-1.350 F400.000
G1 X33.456 Y17.985 Z-1.350 F400.000
G1 X33.431 Y17.985 Z-1.350 F400.000
G1 X33.431 Y23.310 Z-1.350 F400.000
G1 X33.431 Y23.310 Z-1.600 F400.000
G1 X33.456 Y23.310 Z-1.600 F400.000
G1 X33.456 Y17.985 Z-1.600 F400.000
G1 X33.431 Y17.985 Z-1.600 F400.000
G1 X33.431 Y23.310 Z-1.600 F400.000
G1 X33.431 Y23.310 Z-1.850 F400.000
G1 X33.456 Y23.310 Z-1.850 F400.000
G1 X33.456 Y17.985 Z-1.850 F400.000
G1 X33.431 Y17.985 Z-1.850 F400.000
G1 X33.431 Y23.310 Z-1.850 F400.000
G1 X33.431 Y23.310 Z-2.100 F400.000
G1 X33.456 Y23.310 Z-2.100 F400.000
G1 X33.456 Y17.985 Z-2.100 F400.000
G1 X33.431 Y17.985 Z-2.100 F400.000
G1 X33.431 Y23.310 Z-2.100 F400.000
G1 X33.431 Y23.310 Z-2.350 F400.000
G1 X33.456 Y23.310 Z-2.350 F400.000
G1 X33.456 Y17.985 Z-2.350 F400.000
G1 X33.431 Y17.985 Z-2.350 F400.000
G1 X33.431 Y23.310 Z-2.350 F400.000
G1 X33.431 Y23.310 Z-2.600 F400.000
G1 X33.456 Y23.310 Z-2.600 F400.000
G1 X33.456 Y17.985 Z-2.600 F400.000
G1 X33.431 Y17.985 Z-2.600 F400.000
G1 X33.431 Y23.310 Z-2.600 F400.000
G1 X33.431 Y23.310 Z-2.850 F400.000
G1 X33.456 Y23.310 Z-2.850 F400.000
G1 X33.456 Y17.985 Z-2.850 F400.000
G1 X33.431 Y17.985 Z-2.850 F400.000
G1 X33.431 Y23.310 Z-2.850 F400.000
G1 X33.431 Y23.310 Z-3.100 F400.000
G1 X33.456 Y23.310 Z-3.100 F400.000
G1 X33.456 Y17.985 Z-3.100 F400.000
G1 X33.431 Y17.985 Z-3.100 F400.000
G1 X33.431 Y23.310 Z-3.100 F400.000
G1 X33.431 Y23.310 Z-3.250 F400.000
G1 X33.456 Y23.310 Z-3.250 F400.000
G1 X33.456 Y17.985 Z-3.250 F400.000
G1 X33.431 Y17.985 Z-3.250 F400.000
G1 X33.431 Y23.310 Z-3.250 F400.000
G0 Z5.250
G0 Z5.250
G0 X33.431 Y23.310
G0 X38.431 Y23.310
G0 X38.431 Y23.310 Z3.250
G1 X38.431 Y23.310 Z-1.100 F400.000
G1 X38.456 Y23.310 Z-1.100 F400.000
G1 X38.456 Y17.985 Z-1.100 F400.000
G1 X38.431 Y17.985 Z-1.100 F400.000
G1 X38.431 Y23.310 Z-1.100 F400.000
G1 X38.431 Y23.310 Z-1.350 F400.000
G1 X38.456 Y23.310 Z-1.350 F400.000
G1 X38.456 Y17.985 Z-1.350 F400.000
G1 X38.431 Y17.985 Z-1.350 F400.000
G1 X38.431 Y23.310 Z-1.350 F400.000
G1 X38.431 Y23.310 Z-1.600 F400.000
G1 X38.456 Y23.310 Z-1.600 F400.000
G1 X38.456 Y17.985 Z-1.600 F400.000
G1 X38.431 Y17.985 Z-1.600 F400.000
G1 X38.431 Y23.310 Z-1.600 F400.000
G1 X38.431 Y23.310 Z-1.850 F400.000
G1 X38.456 Y23.310 Z-1.850 F400.000
G1 X38.456 Y17.985 Z-1.850 F400.000
G1 X38.431 Y17.985 Z-1.850 F400.000
G1 X38.431 Y23.310 Z-1.850 F400.000
G1 X38.431 Y23.310 Z-2.100 F400.000
G1 X38.456 Y23.310 Z-2.100 F400.000
G1 X38.456 Y17.985 Z-2.100 F400.000
G1 X38.431 Y17.985 Z-2.100 F400.000
G1 X38.431 Y23.310 Z-2.100 F400.000
G1 X38.431 Y23.310 Z-2.350 F400.000
G1 X38.456 Y23.310 Z-2.350 F400.000
G1 X38.456 Y17.985 Z-2.350 F400.000
G1 X38.431 Y17.985 Z-2.350 F400.000
G1 X38.431 Y23.310 Z-2.350 F400.000
G1 X38.431 Y23.310 Z-2.600 F400.000
G1 X38.456 Y23.310 Z-2.600 F400.000
G1 X38.456 Y17.985 Z-2.600 F400.000
G1 X38.431 Y17.985 Z-2.600 F400.000
G1 X38.431 Y23.310 Z-2.600 F400.000
G1 X38.431 Y23.310 Z-2.850 F400.000
G1 X38.456 Y23.310 Z-2.850 F400.000
G1 X38.456 Y17.985 Z-2.850 F400.000
G1 X38.431 Y17.985 Z-2.850 F400.000
G1 X38.431 Y23.310 Z-2.850 F400.000
G1 X38.431 Y23.310 Z-3.100 F400.000
G1 X38.456 Y23.310 Z-3.100 F400.000
G1 X38.456 Y17.985 Z-3.100 F400.000
G1 X38.431 Y17.985 Z-3.100 F400.000
G1 X38.431 Y23.310 Z-3.100 F400.000
G1 X38.431 Y23.310 Z-3.250 F400.000
G1 X38.456 Y23.310 Z-3.250 F400.000
G1 X38.456 Y17.985 Z-3.250 F400.000
G1 X38.431 Y17.985 Z-3.250 F400.000
G1 X38.431 Y23.310 Z-3.250 F400.000
G0 Z5.250
G0 Z5.250
(finish operation: Profile003)
(begin operation: Profile002)
(machine: not set, mm/min)
(Profile002)
(Compensated Tool Path. Diameter: 3.175)
G0 Z5.250
G0 X41.930 Y33.035
G0 Z3.250
G1 X41.930 Y33.035 Z-0.000 F400.000
G2 X43.125 Y30.286 Z-0.000 I-2.894 J-2.891 F400.000
G1 X43.131 Y11.147 Z-0.000 F400.000
G2 X39.182 Y7.066 Z-0.000 I-4.091 J0.007 F400.000
G1 X33.293 Y7.060 Z-0.000 F400.000
G2 X32.115 Y7.583 Z-0.000 I-0.000 J1.588 F400.000
G1 X29.228 Y10.778 Z-0.000 F400.000
G1 X20.859 Y10.778 Z-0.000 F400.000
G1 X17.971 Y7.583 Z-0.000 F400.000
G2 X16.793 Y7.060 Z-0.000 I-1.178 J1.064 F400.000
G1 X11.043 Y7.060 Z-0.000 F400.000
G2 X6.962 Y11.009 Z-0.000 I0.007 J4.091 F400.000
G1 X6.956 Y30.147 Z-0.000 F400.000
G2 X10.905 Y34.229 Z-0.000 I4.091 J-0.007 F400.000
G1 X16.793 Y34.235 Z-0.000 F400.000
G2 X17.971 Y33.712 Z-0.000 I0.000 J-1.587 F400.000
G1 X20.859 Y30.517 Z-0.000 F400.000
G1 X29.228 Y30.517 Z-0.000 F400.000
G1 X32.115 Y33.712 Z-0.000 F400.000
G2 X33.293 Y34.235 Z-0.000 I1.178 J-1.064 F400.000
G1 X39.043 Y34.235 Z-0.000 F400.000
G2 X41.930 Y33.035 Z-0.000 I-0.007 J-4.091 F400.000
G1 X41.930 Y33.035 Z-0.250 F400.000
G2 X43.125 Y30.286 Z-0.250 I-2.894 J-2.891 F400.000
G1 X43.131 Y11.147 Z-0.250 F400.000
G2 X39.182 Y7.066 Z-0.250 I-4.091 J0.007 F400.000
G1 X33.293 Y7.060 Z-0.250 F400.000
G2 X32.115 Y7.583 Z-0.250 I-0.000 J1.588 F400.000
G1 X29.228 Y10.778 Z-0.250 F400.000
G1 X20.859 Y10.778 Z-0.250 F400.000
G1 X17.971 Y7.583 Z-0.250 F400.000
G2 X16.793 Y7.060 Z-0.250 I-1.178 J1.064 F400.000
G1 X11.043 Y7.060 Z-0.250 F400.000
G2 X6.962 Y11.009 Z-0.250 I0.007 J4.091 F400.000
G1 X6.956 Y30.147 Z-0.250 F400.000
G2 X10.905 Y34.229 Z-0.250 I4.091 J-0.007 F400.000
G1 X16.793 Y34.235 Z-0.250 F400.000
G2 X17.971 Y33.712 Z-0.250 I0.000 J-1.587 F400.000
G1 X20.859 Y30.517 Z-0.250 F400.000
G1 X29.228 Y30.517 Z-0.250 F400.000
G1 X32.115 Y33.712 Z-0.250 F400.000
G2 X33.293 Y34.235 Z-0.250 I1.178 J-1.064 F400.000
G1 X39.043 Y34.235 Z-0.250 F400.000
G2 X41.930 Y33.035 Z-0.250 I-0.007 J-4.091 F400.000
G1 X41.930 Y33.035 Z-0.500 F400.000
G2 X43.125 Y30.286 Z-0.500 I-2.894 J-2.891 F400.000
G1 X43.131 Y11.147 Z-0.500 F400.000
G2 X39.182 Y7.066 Z-0.500 I-4.091 J0.007 F400.000
G1 X33.293 Y7.060 Z-0.500 F400.000
G2 X32.115 Y7.583 Z-0.500 I-0.000 J1.588 F400.000
G1 X29.228 Y10.778 Z-0.500 F400.000
G1 X20.859 Y10.778 Z-0.500 F400.000
G1 X17.971 Y7.583 Z-0.500 F400.000
G2 X16.793 Y7.060 Z-0.500 I-1.178 J1.064 F400.000
G1 X11.043 Y7.060 Z-0.500 F400.000
G2 X6.962 Y11.009 Z-0.500 I0.007 J4.091 F400.000
G1 X6.956 Y30.147 Z-0.500 F400.000
G2 X10.905 Y34.229 Z-0.500 I4.091 J-0.007 F400.000
G1 X16.793 Y34.235 Z-0.500 F400.000
G2 X17.971 Y33.712 Z-0.500 I0.000 J-1.587 F400.000
G1 X20.859 Y30.517 Z-0.500 F400.000
G1 X29.228 Y30.517 Z-0.500 F400.000
G1 X32.115 Y33.712 Z-0.500 F400.000
G2 X33.293 Y34.235 Z-0.500 I1.178 J-1.064 F400.000
G1 X39.043 Y34.235 Z-0.500 F400.000
G2 X41.930 Y33.035 Z-0.500 I-0.007 J-4.091 F400.000
G1 X41.930 Y33.035 Z-0.750 F400.000
G2 X43.125 Y30.286 Z-0.750 I-2.894 J-2.891 F400.000
G1 X43.131 Y11.147 Z-0.750 F400.000
G2 X39.182 Y7.066 Z-0.750 I-4.091 J0.007 F400.000
G1 X33.293 Y7.060 Z-0.750 F400.000
G2 X32.115 Y7.583 Z-0.750 I-0.000 J1.588 F400.000
G1 X29.228 Y10.778 Z-0.750 F400.000
G1 X20.859 Y10.778 Z-0.750 F400.000
G1 X17.971 Y7.583 Z-0.750 F400.000
G2 X16.793 Y7.060 Z-0.750 I-1.178 J1.064 F400.000
G1 X11.043 Y7.060 Z-0.750 F400.000
G2 X6.962 Y11.009 Z-0.750 I0.007 J4.091 F400.000
G1 X6.956 Y30.147 Z-0.750 F400.000
G2 X10.905 Y34.229 Z-0.750 I4.091 J-0.007 F400.000
G1 X16.793 Y34.235 Z-0.750 F400.000
G2 X17.971 Y33.712 Z-0.750 I0.000 J-1.587 F400.000
G1 X20.859 Y30.517 Z-0.750 F400.000
G1 X29.228 Y30.517 Z-0.750 F400.000
G1 X32.115 Y33.712 Z-0.750 F400.000
G2 X33.293 Y34.235 Z-0.750 I1.178 J-1.064 F400.000
G1 X39.043 Y34.235 Z-0.750 F400.000
G2 X41.930 Y33.035 Z-0.750 I-0.007 J-4.091 F400.000
G1 X41.930 Y33.035 Z-1.000 F400.000
G2 X43.125 Y30.286 Z-1.000 I-2.894 J-2.891 F400.000
G1 X43.131 Y11.147 Z-1.000 F400.000
G2 X39.182 Y7.066 Z-1.000 I-4.091 J0.007 F400.000
G1 X33.293 Y7.060 Z-1.000 F400.000
G2 X32.115 Y7.583 Z-1.000 I-0.000 J1.588 F400.000
G1 X29.228 Y10.778 Z-1.000 F400.000
G1 X20.859 Y10.778 Z-1.000 F400.000
G1 X17.971 Y7.583 Z-1.000 F400.000
G2 X16.793 Y7.060 Z-1.000 I-1.178 J1.064 F400.000
G1 X11.043 Y7.060 Z-1.000 F400.000
G2 X6.962 Y11.009 Z-1.000 I0.007 J4.091 F400.000
G1 X6.956 Y30.147 Z-1.000 F400.000
G2 X10.905 Y34.229 Z-1.000 I4.091 J-0.007 F400.000
G1 X16.793 Y34.235 Z-1.000 F400.000
G2 X17.971 Y33.712 Z-1.000 I0.000 J-1.587 F400.000
G1 X20.859 Y30.517 Z-1.000 F400.000
G1 X29.228 Y30.517 Z-1.000 F400.000
G1 X32.115 Y33.712 Z-1.000 F400.000
G2 X33.293 Y34.235 Z-1.000 I1.178 J-1.064 F400.000
G1 X39.043 Y34.235 Z-1.000 F400.000
G2 X41.930 Y33.035 Z-1.000 I-0.007 J-4.091 F400.000
G1 X41.930 Y33.035 Z-1.250 F400.000
G2 X43.125 Y30.286 Z-1.250 I-2.894 J-2.891 F400.000
G1 X43.131 Y11.147 Z-1.250 F400.000
G2 X39.182 Y7.066 Z-1.250 I-4.091 J0.007 F400.000
G1 X33.293 Y7.060 Z-1.250 F400.000
G2 X32.115 Y7.583 Z-1.250 I-0.000 J1.588 F400.000
G1 X29.228 Y10.778 Z-1.250 F400.000
G1 X20.859 Y10.778 Z-1.250 F400.000
G1 X17.971 Y7.583 Z-1.250 F400.000
G2 X16.793 Y7.060 Z-1.250 I-1.178 J1.064 F400.000
G1 X11.043 Y7.060 Z-1.250 F400.000
G2 X6.962 Y11.009 Z-1.250 I0.007 J4.091 F400.000
G1 X6.956 Y30.147 Z-1.250 F400.000
G2 X10.905 Y34.229 Z-1.250 I4.091 J-0.007 F400.000
G1 X16.793 Y34.235 Z-1.250 F400.000
G2 X17.971 Y33.712 Z-1.250 I0.000 J-1.587 F400.000
G1 X20.859 Y30.517 Z-1.250 F400.000
G1 X29.228 Y30.517 Z-1.250 F400.000
G1 X32.115 Y33.712 Z-1.250 F400.000
G2 X33.293 Y34.235 Z-1.250 I1.178 J-1.064 F400.000
G1 X39.043 Y34.235 Z-1.250 F400.000
G2 X41.930 Y33.035 Z-1.250 I-0.007 J-4.091 F400.000
G1 X41.930 Y33.035 Z-1.500 F400.000
G2 X43.125 Y30.286 Z-1.500 I-2.894 J-2.891 F400.000
G1 X43.131 Y11.147 Z-1.500 F400.000
G2 X39.182 Y7.066 Z-1.500 I-4.091 J0.007 F400.000
G1 X33.293 Y7.060 Z-1.500 F400.000
G2 X32.115 Y7.583 Z-1.500 I-0.000 J1.588 F400.000
G1 X29.228 Y10.778 Z-1.500 F400.000
G1 X20.859 Y10.778 Z-1.500 F400.000
G1 X17.971 Y7.583 Z-1.500 F400.000
G2 X16.793 Y7.060 Z-1.500 I-1.178 J1.064 F400.000
G1 X11.043 Y7.060 Z-1.500 F400.000
G2 X6.962 Y11.009 Z-1.500 I0.007 J4.091 F400.000
G1 X6.956 Y30.147 Z-1.500 F400.000
G2 X10.905 Y34.229 Z-1.500 I4.091 J-0.007 F400.000
G1 X16.793 Y34.235 Z-1.500 F400.000
G2 X17.971 Y33.712 Z-1.500 I0.000 J-1.587 F400.000
G1 X20.859 Y30.517 Z-1.500 F400.000
G1 X29.228 Y30.517 Z-1.500 F400.000
G1 X32.115 Y33.712 Z-1.500 F400.000
G2 X33.293 Y34.235 Z-1.500 I1.178 J-1.064 F400.000
G1 X39.043 Y34.235 Z-1.500 F400.000
G2 X41.930 Y33.035 Z-1.500 I-0.007 J-4.091 F400.000
G1 X41.930 Y33.035 Z-1.750 F400.000
G2 X43.125 Y30.286 Z-1.750 I-2.894 J-2.891 F400.000
G1 X43.131 Y11.147 Z-1.750 F400.000
G2 X39.182 Y7.066 Z-1.750 I-4.091 J0.007 F400.000
G1 X33.293 Y7.060 Z-1.750 F400.000
G2 X32.115 Y7.583 Z-1.750 I-0.000 J1.588 F400.000
G1 X29.228 Y10.778 Z-1.750 F400.000
G1 X20.859 Y10.778 Z-1.750 F400.000
G1 X17.971 Y7.583 Z-1.750 F400.000
G2 X16.793 Y7.060 Z-1.750 I-1.178 J1.064 F400.000
G1 X11.043 Y7.060 Z-1.750 F400.000
G2 X6.962 Y11.009 Z-1.750 I0.007 J4.091 F400.000
G1 X6.956 Y30.147 Z-1.750 F400.000
G2 X10.905 Y34.229 Z-1.750 I4.091 J-0.007 F400.000
G1 X16.793 Y34.235 Z-1.750 F400.000
G2 X17.971 Y33.712 Z-1.750 I0.000 J-1.587 F400.000
G1 X20.859 Y30.517 Z-1.750 F400.000
G1 X29.228 Y30.517 Z-1.750 F400.000
G1 X32.115 Y33.712 Z-1.750 F400.000
G2 X33.293 Y34.235 Z-1.750 I1.178 J-1.064 F400.000
G1 X39.043 Y34.235 Z-1.750 F400.000
G2 X41.930 Y33.035 Z-1.750 I-0.007 J-4.091 F400.000
G1 X41.930 Y33.035 Z-2.000 F400.000
G2 X43.125 Y30.286 Z-2.000 I-2.894 J-2.891 F400.000
G1 X43.131 Y11.147 Z-2.000 F400.000
G2 X39.182 Y7.066 Z-2.000 I-4.091 J0.007 F400.000
G1 X33.293 Y7.060 Z-2.000 F400.000
G2 X32.115 Y7.583 Z-2.000 I-0.000 J1.588 F400.000
G1 X29.228 Y10.778 Z-2.000 F400.000
G1 X20.859 Y10.778 Z-2.000 F400.000
G1 X17.971 Y7.583 Z-2.000 F400.000
G2 X16.793 Y7.060 Z-2.000 I-1.178 J1.064 F400.000
G1 X11.043 Y7.060 Z-2.000 F400.000
G2 X6.962 Y11.009 Z-2.000 I0.007 J4.091 F400.000
G1 X6.956 Y30.147 Z-2.000 F400.000
G2 X10.905 Y34.229 Z-2.000 I4.091 J-0.007 F400.000
G1 X16.793 Y34.235 Z-2.000 F400.000
G2 X17.971 Y33.712 Z-2.000 I0.000 J-1.587 F400.000
G1 X20.859 Y30.517 Z-2.000 F400.000
G1 X29.228 Y30.517 Z-2.000 F400.000
G1 X32.115 Y33.712 Z-2.000 F400.000
G2 X33.293 Y34.235 Z-2.000 I1.178 J-1.064 F400.000
G1 X39.043 Y34.235 Z-2.000 F400.000
G2 X41.930 Y33.035 Z-2.000 I-0.007 J-4.091 F400.000
G1 X41.930 Y33.035 Z-2.250 F400.000
G2 X43.125 Y30.286 Z-2.250 I-2.894 J-2.891 F400.000
G1 X43.131 Y11.147 Z-2.250 F400.000
G2 X39.182 Y7.066 Z-2.250 I-4.091 J0.007 F400.000
G1 X33.293 Y7.060 Z-2.250 F400.000
G2 X32.115 Y7.583 Z-2.250 I-0.000 J1.588 F400.000
G1 X29.228 Y10.778 Z-2.250 F400.000
G1 X20.859 Y10.778 Z-2.250 F400.000
G1 X17.971 Y7.583 Z-2.250 F400.000
G2 X16.793 Y7.060 Z-2.250 I-1.178 J1.064 F400.000
G1 X11.043 Y7.060 Z-2.250 F400.000
G2 X6.962 Y11.009 Z-2.250 I0.007 J4.091 F400.000
G1 X6.956 Y30.147 Z-2.250 F400.000
G2 X10.905 Y34.229 Z-2.250 I4.091 J-0.007 F400.000
G1 X16.793 Y34.235 Z-2.250 F400.000
G2 X17.971 Y33.712 Z-2.250 I0.000 J-1.587 F400.000
G1 X20.859 Y30.517 Z-2.250 F400.000
G1 X29.228 Y30.517 Z-2.250 F400.000
G1 X32.115 Y33.712 Z-2.250 F400.000
G2 X33.293 Y34.235 Z-2.250 I1.178 J-1.064 F400.000
G1 X39.043 Y34.235 Z-2.250 F400.000
G2 X41.930 Y33.035 Z-2.250 I-0.007 J-4.091 F400.000
G1 X41.930 Y33.035 Z-2.500 F400.000
G2 X43.125 Y30.286 Z-2.500 I-2.894 J-2.891 F400.000
G1 X43.131 Y11.147 Z-2.500 F400.000
G2 X39.182 Y7.066 Z-2.500 I-4.091 J0.007 F400.000
G1 X33.293 Y7.060 Z-2.500 F400.000
G2 X32.115 Y7.583 Z-2.500 I-0.000 J1.588 F400.000
G1 X29.228 Y10.778 Z-2.500 F400.000
G1 X20.859 Y10.778 Z-2.500 F400.000
G1 X17.971 Y7.583 Z-2.500 F400.000
G2 X16.793 Y7.060 Z-2.500 I-1.178 J1.064 F400.000
G1 X11.043 Y7.060 Z-2.500 F400.000
G2 X6.962 Y11.009 Z-2.500 I0.007 J4.091 F400.000
G1 X6.956 Y30.147 Z-2.500 F400.000
G2 X10.905 Y34.229 Z-2.500 I4.091 J-0.007 F400.000
G1 X16.793 Y34.235 Z-2.500 F400.000
G2 X17.971 Y33.712 Z-2.500 I0.000 J-1.587 F400.000
G1 X20.859 Y30.517 Z-2.500 F400.000
G1 X29.228 Y30.517 Z-2.500 F400.000
G1 X32.115 Y33.712 Z-2.500 F400.000
G2 X33.293 Y34.235 Z-2.500 I1.178 J-1.064 F400.000
G1 X39.043 Y34.235 Z-2.500 F400.000
G2 X41.930 Y33.035 Z-2.500 I-0.007 J-4.091 F400.000
G1 X41.930 Y33.035 Z-2.750 F400.000
G2 X43.125 Y30.286 Z-2.750 I-2.894 J-2.891 F400.000
G1 X43.131 Y11.147 Z-2.750 F400.000
G2 X39.182 Y7.066 Z-2.750 I-4.091 J0.007 F400.000
G1 X33.293 Y7.060 Z-2.750 F400.000
G2 X32.115 Y7.583 Z-2.750 I-0.000 J1.588 F400.000
G1 X29.228 Y10.778 Z-2.750 F400.000
G1 X20.859 Y10.778 Z-2.750 F400.000
G1 X17.971 Y7.583 Z-2.750 F400.000
G2 X16.793 Y7.060 Z-2.750 I-1.178 J1.064 F400.000
G1 X11.043 Y7.060 Z-2.750 F400.000
G2 X6.962 Y11.009 Z-2.750 I0.007 J4.091 F400.000
G1 X6.956 Y30.147 Z-2.750 F400.000
G2 X10.905 Y34.229 Z-2.750 I4.091 J-0.007 F400.000
G1 X16.793 Y34.235 Z-2.750 F400.000
G2 X17.971 Y33.712 Z-2.750 I0.000 J-1.587 F400.000
G1 X20.859 Y30.517 Z-2.750 F400.000
G1 X29.228 Y30.517 Z-2.750 F400.000
G1 X32.115 Y33.712 Z-2.750 F400.000
G2 X33.293 Y34.235 Z-2.750 I1.178 J-1.064 F400.000
G1 X39.043 Y34.235 Z-2.750 F400.000
G2 X41.930 Y33.035 Z-2.750 I-0.007 J-4.091 F400.000
G1 X41.930 Y33.035 Z-3.000 F400.000
G2 X43.125 Y30.286 Z-3.000 I-2.894 J-2.891 F400.000
G1 X43.131 Y11.147 Z-3.000 F400.000
G2 X39.182 Y7.066 Z-3.000 I-4.091 J0.007 F400.000
G1 X33.293 Y7.060 Z-3.000 F400.000
G2 X32.115 Y7.583 Z-3.000 I-0.000 J1.588 F400.000
G1 X29.228 Y10.778 Z-3.000 F400.000
G1 X20.859 Y10.778 Z-3.000 F400.000
G1 X17.971 Y7.583 Z-3.000 F400.000
G2 X16.793 Y7.060 Z-3.000 I-1.178 J1.064 F400.000
G1 X11.043 Y7.060 Z-3.000 F400.000
G2 X6.962 Y11.009 Z-3.000 I0.007 J4.091 F400.000
G1 X6.956 Y30.147 Z-3.000 F400.000
G2 X10.905 Y34.229 Z-3.000 I4.091 J-0.007 F400.000
G1 X16.793 Y34.235 Z-3.000 F400.000
G2 X17.971 Y33.712 Z-3.000 I0.000 J-1.587 F400.000
G1 X20.859 Y30.517 Z-3.000 F400.000
G1 X29.228 Y30.517 Z-3.000 F400.000
G1 X32.115 Y33.712 Z-3.000 F400.000
G2 X33.293 Y34.235 Z-3.000 I1.178 J-1.064 F400.000
G1 X39.043 Y34.235 Z-3.000 F400.000
G2 X41.930 Y33.035 Z-3.000 I-0.007 J-4.091 F400.000
G1 X41.930 Y33.035 Z-3.250 F400.000
G2 X43.125 Y30.286 Z-3.250 I-2.894 J-2.891 F400.000
G1 X43.131 Y11.147 Z-3.250 F400.000
G2 X39.182 Y7.066 Z-3.250 I-4.091 J0.007 F400.000
G1 X33.293 Y7.060 Z-3.250 F400.000
G2 X32.115 Y7.583 Z-3.250 I-0.000 J1.588 F400.000
G1 X29.228 Y10.778 Z-3.250 F400.000
G1 X20.859 Y10.778 Z-3.250 F400.000
G1 X17.971 Y7.583 Z-3.250 F400.000
G2 X16.793 Y7.060 Z-3.250 I-1.178 J1.064 F400.000
G1 X11.043 Y7.060 Z-3.250 F400.000
G2 X6.962 Y11.009 Z-3.250 I0.007 J4.091 F400.000
G1 X6.956 Y30.147 Z-3.250 F400.000
G2 X10.905 Y34.229 Z-3.250 I4.091 J-0.007 F400.000
G1 X16.793 Y34.235 Z-3.250 F400.000
G2 X17.971 Y33.712 Z-3.250 I0.000 J-1.587 F400.000
G1 X20.859 Y30.517 Z-3.250 F400.000
G1 X29.228 Y30.517 Z-3.250 F400.000
G1 X32.115 Y33.712 Z-3.250 F400.000
G2 X33.293 Y34.235 Z-3.250 I1.178 J-1.064 F400.000
G1 X39.043 Y34.235 Z-3.250 F400.000
G2 X41.930 Y33.035 Z-3.250 I-0.007 J-4.091 F400.000
G0 Z5.250
G0 Z5.250
(finish operation: Profile002)
(begin postamble)
M05 M09
G17 G90 G80 G40
M30
