(Exported by FreeCAD)
(Post Processor: script_module)
(Output Time:2024-11-24 17:29:27.291604)
(begin preamble)
%
G17 G21 G40 G49 G80 G90
M08
G21
(begin operation: Fixture)
(machine: not set, mm/min)
G54
(finish operation: Fixture)
(begin operation: Pocket_Shape)
(machine: not set, mm/min)
(inactive operation)
(finish operation: Pocket_Shape)
(begin operation: 1/8in Endmill004)
(machine: not set, mm/min)
(1/8in Endmill004)
M05
M09M6 T1
M3 S15000
(finish operation: 1/8in Endmill004)
(begin operation: Profile004)
(machine: not set, mm/min)
(Profile004)
(Compensated Tool Path. Diameter: 3.175)
G0 Z5.250
G0 X39.856 Y20.060
G0 Z3.250
G1 X39.856 Y20.060 Z-1.300 F400.000
G1 X39.856 Y13.235 Z-1.300 F400.000
G1 X39.631 Y13.235 Z-1.300 F400.000
G1 X39.631 Y20.060 Z-1.300 F400.000
G1 X39.856 Y20.060 Z-1.300 F400.000
G1 X39.856 Y20.060 Z-1.550 F400.000
G1 X39.856 Y13.235 Z-1.550 F400.000
G1 X39.631 Y13.235 Z-1.550 F400.000
G1 X39.631 Y20.060 Z-1.550 F400.000
G1 X39.856 Y20.060 Z-1.550 F400.000
G1 X39.856 Y20.060 Z-1.800 F400.000
G1 X39.856 Y13.235 Z-1.800 F400.000
G1 X39.631 Y13.235 Z-1.800 F400.000
G1 X39.631 Y20.060 Z-1.800 F400.000
G1 X39.856 Y20.060 Z-1.800 F400.000
G1 X39.856 Y20.060 Z-2.050 F400.000
G1 X39.856 Y13.235 Z-2.050 F400.000
G1 X39.631 Y13.235 Z-2.050 F400.000
G1 X39.631 Y20.060 Z-2.050 F400.000
G1 X39.856 Y20.060 Z-2.050 F400.000
G1 X39.856 Y20.060 Z-2.300 F400.000
G1 X39.856 Y13.235 Z-2.300 F400.000
G1 X39.631 Y13.235 Z-2.300 F400.000
G1 X39.631 Y20.060 Z-2.300 F400.000
G1 X39.856 Y20.060 Z-2.300 F400.000
G1 X39.856 Y20.060 Z-2.450 F400.000
G1 X39.856 Y13.235 Z-2.450 F400.000
G1 X39.631 Y13.235 Z-2.450 F400.000
G1 X39.631 Y20.060 Z-2.450 F400.000
G1 X39.856 Y20.060 Z-2.450 F400.000
G0 Z5.250
G0 Z5.250
G0 X39.856 Y20.060
G0 X44.631
G0 X44.631 Z3.250
G1 X44.631 Y20.060 Z-1.300 F400.000
G1 X44.856 Y20.060 Z-1.300 F400.000
G1 X44.856 Y13.235 Z-1.300 F400.000
G1 X44.631 Y13.235 Z-1.300 F400.000
G1 X44.631 Y20.060 Z-1.300 F400.000
G1 X44.631 Y20.060 Z-1.550 F400.000
G1 X44.856 Y20.060 Z-1.550 F400.000
G1 X44.856 Y13.235 Z-1.550 F400.000
G1 X44.631 Y13.235 Z-1.550 F400.000
G1 X44.631 Y20.060 Z-1.550 F400.000
G1 X44.631 Y20.060 Z-1.800 F400.000
G1 X44.856 Y20.060 Z-1.800 F400.000
G1 X44.856 Y13.235 Z-1.800 F400.000
G1 X44.631 Y13.235 Z-1.800 F400.000
G1 X44.631 Y20.060 Z-1.800 F400.000
G1 X44.631 Y20.060 Z-2.050 F400.000
G1 X44.856 Y20.060 Z-2.050 F400.000
G1 X44.856 Y13.235 Z-2.050 F400.000
G1 X44.631 Y13.235 Z-2.050 F400.000
G1 X44.631 Y20.060 Z-2.050 F400.000
G1 X44.631 Y20.060 Z-2.300 F400.000
G1 X44.856 Y20.060 Z-2.300 F400.000
G1 X44.856 Y13.235 Z-2.300 F400.000
G1 X44.631 Y13.235 Z-2.300 F400.000
G1 X44.631 Y20.060 Z-2.300 F400.000
G1 X44.631 Y20.060 Z-2.450 F400.000
G1 X44.856 Y20.060 Z-2.450 F400.000
G1 X44.856 Y13.235 Z-2.450 F400.000
G1 X44.631 Y13.235 Z-2.450 F400.000
G1 X44.631 Y20.060 Z-2.450 F400.000
G0 Z5.250
G0 Z5.250
G0 X44.631 Y20.060
G0 X49.631
G0 X49.631 Z3.250
G1 X49.631 Y20.060 Z-1.300 F400.000
G1 X49.856 Y20.060 Z-1.300 F400.000
G1 X49.856 Y13.235 Z-1.300 F400.000
G1 X49.631 Y13.235 Z-1.300 F400.000
G1 X49.631 Y20.060 Z-1.300 F400.000
G1 X49.631 Y20.060 Z-1.550 F400.000
G1 X49.856 Y20.060 Z-1.550 F400.000
G1 X49.856 Y13.235 Z-1.550 F400.000
G1 X49.631 Y13.235 Z-1.550 F400.000
G1 X49.631 Y20.060 Z-1.550 F400.000
G1 X49.631 Y20.060 Z-1.800 F400.000
G1 X49.856 Y20.060 Z-1.800 F400.000
G1 X49.856 Y13.235 Z-1.800 F400.000
G1 X49.631 Y13.235 Z-1.800 F400.000
G1 X49.631 Y20.060 Z-1.800 F400.000
G1 X49.631 Y20.060 Z-2.050 F400.000
G1 X49.856 Y20.060 Z-2.050 F400.000
G1 X49.856 Y13.235 Z-2.050 F400.000
G1 X49.631 Y13.235 Z-2.050 F400.000
G1 X49.631 Y20.060 Z-2.050 F400.000
G1 X49.631 Y20.060 Z-2.300 F400.000
G1 X49.856 Y20.060 Z-2.300 F400.000
G1 X49.856 Y13.235 Z-2.300 F400.000
G1 X49.631 Y13.235 Z-2.300 F400.000
G1 X49.631 Y20.060 Z-2.300 F400.000
G1 X49.631 Y20.060 Z-2.450 F400.000
G1 X49.856 Y20.060 Z-2.450 F400.000
G1 X49.856 Y13.235 Z-2.450 F400.000
G1 X49.631 Y13.235 Z-2.450 F400.000
G1 X49.631 Y20.060 Z-2.450 F400.000
G0 Z5.250
G0 Z5.250
G0 X49.631 Y20.060
G0 X56.231 Y20.060
G0 X56.231 Y20.060 Z3.250
G1 X56.231 Y20.060 Z-1.300 F400.000
G1 X56.456 Y20.060 Z-1.300 F400.000
G1 X56.456 Y13.235 Z-1.300 F400.000
G1 X56.231 Y13.235 Z-1.300 F400.000
G1 X56.231 Y20.060 Z-1.300 F400.000
G1 X56.231 Y20.060 Z-1.550 F400.000
G1 X56.456 Y20.060 Z-1.550 F400.000
G1 X56.456 Y13.235 Z-1.550 F400.000
G1 X56.231 Y13.235 Z-1.550 F400.000
G1 X56.231 Y20.060 Z-1.550 F400.000
G1 X56.231 Y20.060 Z-1.800 F400.000
G1 X56.456 Y20.060 Z-1.800 F400.000
G1 X56.456 Y13.235 Z-1.800 F400.000
G1 X56.231 Y13.235 Z-1.800 F400.000
G1 X56.231 Y20.060 Z-1.800 F400.000
G1 X56.231 Y20.060 Z-2.050 F400.000
G1 X56.456 Y20.060 Z-2.050 F400.000
G1 X56.456 Y13.235 Z-2.050 F400.000
G1 X56.231 Y13.235 Z-2.050 F400.000
G1 X56.231 Y20.060 Z-2.050 F400.000
G1 X56.231 Y20.060 Z-2.300 F400.000
G1 X56.456 Y20.060 Z-2.300 F400.000
G1 X56.456 Y13.235 Z-2.300 F400.000
G1 X56.231 Y13.235 Z-2.300 F400.000
G1 X56.231 Y20.060 Z-2.300 F400.000
G1 X56.231 Y20.060 Z-2.450 F400.000
G1 X56.456 Y20.060 Z-2.450 F400.000
G1 X56.456 Y13.235 Z-2.450 F400.000
G1 X56.231 Y13.235 Z-2.450 F400.000
G1 X56.231 Y20.060 Z-2.450 F400.000
G0 Z5.250
G0 Z5.250
G0 X56.231 Y20.060
G0 X61.231 Y20.060
G0 X61.231 Y20.060 Z3.250
G1 X61.231 Y20.060 Z-1.300 F400.000
G1 X61.456 Y20.060 Z-1.300 F400.000
G1 X61.456 Y13.235 Z-1.300 F400.000
G1 X61.231 Y13.235 Z-1.300 F400.000
G1 X61.231 Y20.060 Z-1.300 F400.000
G1 X61.231 Y20.060 Z-1.550 F400.000
G1 X61.456 Y20.060 Z-1.550 F400.000
G1 X61.456 Y13.235 Z-1.550 F400.000
G1 X61.231 Y13.235 Z-1.550 F400.000
G1 X61.231 Y20.060 Z-1.550 F400.000
G1 X61.231 Y20.060 Z-1.800 F400.000
G1 X61.456 Y20.060 Z-1.800 F400.000
G1 X61.456 Y13.235 Z-1.800 F400.000
G1 X61.231 Y13.235 Z-1.800 F400.000
G1 X61.231 Y20.060 Z-1.800 F400.000
G1 X61.231 Y20.060 Z-2.050 F400.000
G1 X61.456 Y20.060 Z-2.050 F400.000
G1 X61.456 Y13.235 Z-2.050 F400.000
G1 X61.231 Y13.235 Z-2.050 F400.000
G1 X61.231 Y20.060 Z-2.050 F400.000
G1 X61.231 Y20.060 Z-2.300 F400.000
G1 X61.456 Y20.060 Z-2.300 F400.000
G1 X61.456 Y13.235 Z-2.300 F400.000
G1 X61.231 Y13.235 Z-2.300 F400.000
G1 X61.231 Y20.060 Z-2.300 F400.000
G1 X61.231 Y20.060 Z-2.450 F400.000
G1 X61.456 Y20.060 Z-2.450 F400.000
G1 X61.456 Y13.235 Z-2.450 F400.000
G1 X61.231 Y13.235 Z-2.450 F400.000
G1 X61.231 Y20.060 Z-2.450 F400.000
G0 Z5.250
G0 Z5.250
G0 X61.231 Y20.060
G0 X66.231 Y20.060
G0 X66.231 Y20.060 Z3.250
G1 X66.231 Y20.060 Z-1.300 F400.000
G1 X66.456 Y20.060 Z-1.300 F400.000
G1 X66.456 Y13.235 Z-1.300 F400.000
G1 X66.231 Y13.235 Z-1.300 F400.000
G1 X66.231 Y20.060 Z-1.300 F400.000
G1 X66.231 Y20.060 Z-1.550 F400.000
G1 X66.456 Y20.060 Z-1.550 F400.000
G1 X66.456 Y13.235 Z-1.550 F400.000
G1 X66.231 Y13.235 Z-1.550 F400.000
G1 X66.231 Y20.060 Z-1.550 F400.000
G1 X66.231 Y20.060 Z-1.800 F400.000
G1 X66.456 Y20.060 Z-1.800 F400.000
G1 X66.456 Y13.235 Z-1.800 F400.000
G1 X66.231 Y13.235 Z-1.800 F400.000
G1 X66.231 Y20.060 Z-1.800 F400.000
G1 X66.231 Y20.060 Z-2.050 F400.000
G1 X66.456 Y20.060 Z-2.050 F400.000
G1 X66.456 Y13.235 Z-2.050 F400.000
G1 X66.231 Y13.235 Z-2.050 F400.000
G1 X66.231 Y20.060 Z-2.050 F400.000
G1 X66.231 Y20.060 Z-2.300 F400.000
G1 X66.456 Y20.060 Z-2.300 F400.000
G1 X66.456 Y13.235 Z-2.300 F400.000
G1 X66.231 Y13.235 Z-2.300 F400.000
G1 X66.231 Y20.060 Z-2.300 F400.000
G1 X66.231 Y20.060 Z-2.450 F400.000
G1 X66.456 Y20.060 Z-2.450 F400.000
G1 X66.456 Y13.235 Z-2.450 F400.000
G1 X66.231 Y13.235 Z-2.450 F400.000
G1 X66.231 Y20.060 Z-2.450 F400.000
G0 Z5.250
G0 Z5.250
(finish operation: Profile004)
(begin operation: Profile002)
(machine: not set, mm/min)
(Profile002)
(Compensated Tool Path. Diameter: 3.175)
G0 Z5.250
G0 X40.706 Y8.527
G0 Z3.250
G1 X40.706 Y8.527 Z-0.000 F400.000
G2 X40.653 Y8.163 Z-0.000 I-0.162 J-0.162 F400.000
G1 X40.611 Y8.146 Z-0.000 F400.000
G2 X40.472 Y8.583 Z-0.000 I-0.067 J0.219 F400.000
G2 X40.706 Y8.527 Z-0.000 I0.071 J-0.218 F400.000
G1 X40.706 Y8.527 Z-0.250 F400.000
G2 X40.653 Y8.163 Z-0.250 I-0.162 J-0.162 F400.000
G1 X40.611 Y8.146 Z-0.250 F400.000
G2 X40.472 Y8.583 Z-0.250 I-0.067 J0.219 F400.000
G2 X40.706 Y8.527 Z-0.250 I0.071 J-0.218 F400.000
G1 X40.706 Y8.527 Z-0.500 F400.000
G2 X40.653 Y8.163 Z-0.500 I-0.162 J-0.162 F400.000
G1 X40.611 Y8.146 Z-0.500 F400.000
G2 X40.472 Y8.583 Z-0.500 I-0.067 J0.219 F400.000
G2 X40.706 Y8.527 Z-0.500 I0.071 J-0.218 F400.000
G1 X40.706 Y8.527 Z-0.750 F400.000
G2 X40.653 Y8.163 Z-0.750 I-0.162 J-0.162 F400.000
G1 X40.611 Y8.146 Z-0.750 F400.000
G2 X40.472 Y8.583 Z-0.750 I-0.067 J0.219 F400.000
G2 X40.706 Y8.527 Z-0.750 I0.071 J-0.218 F400.000
G1 X40.706 Y8.527 Z-1.000 F400.000
G2 X40.653 Y8.163 Z-1.000 I-0.162 J-0.162 F400.000
G1 X40.611 Y8.146 Z-1.000 F400.000
G2 X40.472 Y8.583 Z-1.000 I-0.067 J0.219 F400.000
G2 X40.706 Y8.527 Z-1.000 I0.071 J-0.218 F400.000
G1 X40.706 Y8.527 Z-1.250 F400.000
G2 X40.653 Y8.163 Z-1.250 I-0.162 J-0.162 F400.000
G1 X40.611 Y8.146 Z-1.250 F400.000
G2 X40.472 Y8.583 Z-1.250 I-0.067 J0.219 F400.000
G2 X40.706 Y8.527 Z-1.250 I0.071 J-0.218 F400.000
G1 X40.706 Y8.527 Z-1.500 F400.000
G2 X40.653 Y8.163 Z-1.500 I-0.162 J-0.162 F400.000
G1 X40.611 Y8.146 Z-1.500 F400.000
G2 X40.472 Y8.583 Z-1.500 I-0.067 J0.219 F400.000
G2 X40.706 Y8.527 Z-1.500 I0.071 J-0.218 F400.000
G1 X40.706 Y8.527 Z-1.750 F400.000
G2 X40.653 Y8.163 Z-1.750 I-0.162 J-0.162 F400.000
G1 X40.611 Y8.146 Z-1.750 F400.000
G2 X40.472 Y8.583 Z-1.750 I-0.067 J0.219 F400.000
G2 X40.706 Y8.527 Z-1.750 I0.071 J-0.218 F400.000
G1 X40.706 Y8.527 Z-2.000 F400.000
G2 X40.653 Y8.163 Z-2.000 I-0.162 J-0.162 F400.000
G1 X40.611 Y8.146 Z-2.000 F400.000
G2 X40.472 Y8.583 Z-2.000 I-0.067 J0.219 F400.000
G2 X40.706 Y8.527 Z-2.000 I0.071 J-0.218 F400.000
G1 X40.706 Y8.527 Z-2.250 F400.000
G2 X40.653 Y8.163 Z-2.250 I-0.162 J-0.162 F400.000
G1 X40.611 Y8.146 Z-2.250 F400.000
G2 X40.472 Y8.583 Z-2.250 I-0.067 J0.219 F400.000
G2 X40.706 Y8.527 Z-2.250 I0.071 J-0.218 F400.000
G1 X40.706 Y8.527 Z-2.450 F400.000
G2 X40.653 Y8.163 Z-2.450 I-0.162 J-0.162 F400.000
G1 X40.611 Y8.146 Z-2.450 F400.000
G2 X40.472 Y8.583 Z-2.450 I-0.067 J0.219 F400.000
G2 X40.706 Y8.527 Z-2.450 I0.071 J-0.218 F400.000
G0 Z5.250
G0 Z5.250
G0 X40.706 Y8.527
G0 X40.546 Y24.700
G0 X40.546 Y24.700 Z3.250
G1 X40.546 Y24.700 Z-0.000 F400.000
G2 X40.472 Y25.147 Z-0.000 I-0.002 J0.229 F400.000
G2 X40.653 Y24.727 Z-0.000 I0.071 J-0.218 F400.000
G1 X40.611 Y24.710 Z-0.000 F400.000
G2 X40.546 Y24.700 Z-0.000 I-0.067 J0.219 F400.000
G1 X40.546 Y24.700 Z-0.250 F400.000
G2 X40.472 Y25.147 Z-0.250 I-0.002 J0.229 F400.000
G2 X40.653 Y24.727 Z-0.250 I0.071 J-0.218 F400.000
G1 X40.611 Y24.710 Z-0.250 F400.000
G2 X40.546 Y24.700 Z-0.250 I-0.067 J0.219 F400.000
G1 X40.546 Y24.700 Z-0.500 F400.000
G2 X40.472 Y25.147 Z-0.500 I-0.002 J0.229 F400.000
G2 X40.653 Y24.727 Z-0.500 I0.071 J-0.218 F400.000
G1 X40.611 Y24.710 Z-0.500 F400.000
G2 X40.546 Y24.700 Z-0.500 I-0.067 J0.219 F400.000
G1 X40.546 Y24.700 Z-0.750 F400.000
G2 X40.472 Y25.147 Z-0.750 I-0.002 J0.229 F400.000
G2 X40.653 Y24.727 Z-0.750 I0.071 J-0.218 F400.000
G1 X40.611 Y24.710 Z-0.750 F400.000
G2 X40.546 Y24.700 Z-0.750 I-0.067 J0.219 F400.000
G1 X40.546 Y24.700 Z-1.000 F400.000
G2 X40.472 Y25.147 Z-1.000 I-0.002 J0.229 F400.000
G2 X40.653 Y24.727 Z-1.000 I0.071 J-0.218 F400.000
G1 X40.611 Y24.710 Z-1.000 F400.000
G2 X40.546 Y24.700 Z-1.000 I-0.067 J0.219 F400.000
G1 X40.546 Y24.700 Z-1.250 F400.000
G2 X40.472 Y25.147 Z-1.250 I-0.002 J0.229 F400.000
G2 X40.653 Y24.727 Z-1.250 I0.071 J-0.218 F400.000
G1 X40.611 Y24.710 Z-1.250 F400.000
G2 X40.546 Y24.700 Z-1.250 I-0.067 J0.219 F400.000
G1 X40.546 Y24.700 Z-1.500 F400.000
G2 X40.472 Y25.147 Z-1.500 I-0.002 J0.229 F400.000
G2 X40.653 Y24.727 Z-1.500 I0.071 J-0.218 F400.000
G1 X40.611 Y24.710 Z-1.500 F400.000
G2 X40.546 Y24.700 Z-1.500 I-0.067 J0.219 F400.000
G1 X40.546 Y24.700 Z-1.750 F400.000
G2 X40.472 Y25.147 Z-1.750 I-0.002 J0.229 F400.000
G2 X40.653 Y24.727 Z-1.750 I0.071 J-0.218 F400.000
G1 X40.611 Y24.710 Z-1.750 F400.000
G2 X40.546 Y24.700 Z-1.750 I-0.067 J0.219 F400.000
G1 X40.546 Y24.700 Z-2.000 F400.000
G2 X40.472 Y25.147 Z-2.000 I-0.002 J0.229 F400.000
G2 X40.653 Y24.727 Z-2.000 I0.071 J-0.218 F400.000
G1 X40.611 Y24.710 Z-2.000 F400.000
G2 X40.546 Y24.700 Z-2.000 I-0.067 J0.219 F400.000
G1 X40.546 Y24.700 Z-2.250 F400.000
G2 X40.472 Y25.147 Z-2.250 I-0.002 J0.229 F400.000
G2 X40.653 Y24.727 Z-2.250 I0.071 J-0.218 F400.000
G1 X40.611 Y24.710 Z-2.250 F400.000
G2 X40.546 Y24.700 Z-2.250 I-0.067 J0.219 F400.000
G1 X40.546 Y24.700 Z-2.450 F400.000
G2 X40.472 Y25.147 Z-2.450 I-0.002 J0.229 F400.000
G2 X40.653 Y24.727 Z-2.450 I0.071 J-0.218 F400.000
G1 X40.611 Y24.710 Z-2.450 F400.000
G2 X40.546 Y24.700 Z-2.450 I-0.067 J0.219 F400.000
G0 Z5.250
G0 Z5.250
G0 X40.546 Y24.700
G0 X65.315 Y24.927
G0 X65.315 Y24.927 Z3.250
G1 X65.315 Y24.927 Z-0.000 F400.000
G2 X65.472 Y25.147 Z-0.000 I0.229 J0.002 F400.000
G2 X65.653 Y24.727 Z-0.000 I0.071 J-0.218 F400.000
G1 X65.611 Y24.710 Z-0.000 F400.000
G2 X65.315 Y24.927 Z-0.000 I-0.067 J0.219 F400.000
G1 X65.315 Y24.927 Z-0.250 F400.000
G2 X65.472 Y25.147 Z-0.250 I0.229 J0.002 F400.000
G2 X65.653 Y24.727 Z-0.250 I0.071 J-0.218 F400.000
G1 X65.611 Y24.710 Z-0.250 F400.000
G2 X65.315 Y24.927 Z-0.250 I-0.067 J0.219 F400.000
G1 X65.315 Y24.927 Z-0.500 F400.000
G2 X65.472 Y25.147 Z-0.500 I0.229 J0.002 F400.000
G2 X65.653 Y24.727 Z-0.500 I0.071 J-0.218 F400.000
G1 X65.611 Y24.710 Z-0.500 F400.000
G2 X65.315 Y24.927 Z-0.500 I-0.067 J0.219 F400.000
G1 X65.315 Y24.927 Z-0.750 F400.000
G2 X65.472 Y25.147 Z-0.750 I0.229 J0.002 F400.000
G2 X65.653 Y24.727 Z-0.750 I0.071 J-0.218 F400.000
G1 X65.611 Y24.710 Z-0.750 F400.000
G2 X65.315 Y24.927 Z-0.750 I-0.067 J0.219 F400.000
G1 X65.315 Y24.927 Z-1.000 F400.000
G2 X65.472 Y25.147 Z-1.000 I0.229 J0.002 F400.000
G2 X65.653 Y24.727 Z-1.000 I0.071 J-0.218 F400.000
G1 X65.611 Y24.710 Z-1.000 F400.000
G2 X65.315 Y24.927 Z-1.000 I-0.067 J0.219 F400.000
G1 X65.315 Y24.927 Z-1.250 F400.000
G2 X65.472 Y25.147 Z-1.250 I0.229 J0.002 F400.000
G2 X65.653 Y24.727 Z-1.250 I0.071 J-0.218 F400.000
G1 X65.611 Y24.710 Z-1.250 F400.000
G2 X65.315 Y24.927 Z-1.250 I-0.067 J0.219 F400.000
G1 X65.315 Y24.927 Z-1.500 F400.000
G2 X65.472 Y25.147 Z-1.500 I0.229 J0.002 F400.000
G2 X65.653 Y24.727 Z-1.500 I0.071 J-0.218 F400.000
G1 X65.611 Y24.710 Z-1.500 F400.000
G2 X65.315 Y24.927 Z-1.500 I-0.067 J0.219 F400.000
G1 X65.315 Y24.927 Z-1.750 F400.000
G2 X65.472 Y25.147 Z-1.750 I0.229 J0.002 F400.000
G2 X65.653 Y24.727 Z-1.750 I0.071 J-0.218 F400.000
G1 X65.611 Y24.710 Z-1.750 F400.000
G2 X65.315 Y24.927 Z-1.750 I-0.067 J0.219 F400.000
G1 X65.315 Y24.927 Z-2.000 F400.000
G2 X65.472 Y25.147 Z-2.000 I0.229 J0.002 F400.000
G2 X65.653 Y24.727 Z-2.000 I0.071 J-0.218 F400.000
G1 X65.611 Y24.710 Z-2.000 F400.000
G2 X65.315 Y24.927 Z-2.000 I-0.067 J0.219 F400.000
G1 X65.315 Y24.927 Z-2.250 F400.000
G2 X65.472 Y25.147 Z-2.250 I0.229 J0.002 F400.000
G2 X65.653 Y24.727 Z-2.250 I0.071 J-0.218 F400.000
G1 X65.611 Y24.710 Z-2.250 F400.000
G2 X65.315 Y24.927 Z-2.250 I-0.067 J0.219 F400.000
G1 X65.315 Y24.927 Z-2.450 F400.000
G2 X65.472 Y25.147 Z-2.450 I0.229 J0.002 F400.000
G2 X65.653 Y24.727 Z-2.450 I0.071 J-0.218 F400.000
G1 X65.611 Y24.710 Z-2.450 F400.000
G2 X65.315 Y24.927 Z-2.450 I-0.067 J0.219 F400.000
G0 Z5.250
G0 Z5.250
G0 X65.315 Y24.927
G0 X65.541 Y8.594
G0 X65.541 Y8.594 Z3.250
G1 X65.541 Y8.594 Z-0.000 F400.000
G2 X65.653 Y8.163 Z-0.000 I0.003 J-0.229 F400.000
G1 X65.611 Y8.146 Z-0.000 F400.000
G2 X65.472 Y8.583 Z-0.000 I-0.067 J0.219 F400.000
G2 X65.541 Y8.594 Z-0.000 I0.071 J-0.218 F400.000
G1 X65.541 Y8.594 Z-0.250 F400.000
G2 X65.653 Y8.163 Z-0.250 I0.003 J-0.229 F400.000
G1 X65.611 Y8.146 Z-0.250 F400.000
G2 X65.472 Y8.583 Z-0.250 I-0.067 J0.219 F400.000
G2 X65.541 Y8.594 Z-0.250 I0.071 J-0.218 F400.000
G1 X65.541 Y8.594 Z-0.500 F400.000
G2 X65.653 Y8.163 Z-0.500 I0.003 J-0.229 F400.000
G1 X65.611 Y8.146 Z-0.500 F400.000
G2 X65.472 Y8.583 Z-0.500 I-0.067 J0.219 F400.000
G2 X65.541 Y8.594 Z-0.500 I0.071 J-0.218 F400.000
G1 X65.541 Y8.594 Z-0.750 F400.000
G2 X65.653 Y8.163 Z-0.750 I0.003 J-0.229 F400.000
G1 X65.611 Y8.146 Z-0.750 F400.000
G2 X65.472 Y8.583 Z-0.750 I-0.067 J0.219 F400.000
G2 X65.541 Y8.594 Z-0.750 I0.071 J-0.218 F400.000
G1 X65.541 Y8.594 Z-1.000 F400.000
G2 X65.653 Y8.163 Z-1.000 I0.003 J-0.229 F400.000
G1 X65.611 Y8.146 Z-1.000 F400.000
G2 X65.472 Y8.583 Z-1.000 I-0.067 J0.219 F400.000
G2 X65.541 Y8.594 Z-1.000 I0.071 J-0.218 F400.000
G1 X65.541 Y8.594 Z-1.250 F400.000
G2 X65.653 Y8.163 Z-1.250 I0.003 J-0.229 F400.000
G1 X65.611 Y8.146 Z-1.250 F400.000
G2 X65.472 Y8.583 Z-1.250 I-0.067 J0.219 F400.000
G2 X65.541 Y8.594 Z-1.250 I0.071 J-0.218 F400.000
G1 X65.541 Y8.594 Z-1.500 F400.000
G2 X65.653 Y8.163 Z-1.500 I0.003 J-0.229 F400.000
G1 X65.611 Y8.146 Z-1.500 F400.000
G2 X65.472 Y8.583 Z-1.500 I-0.067 J0.219 F400.000
G2 X65.541 Y8.594 Z-1.500 I0.071 J-0.218 F400.000
G1 X65.541 Y8.594 Z-1.750 F400.000
G2 X65.653 Y8.163 Z-1.750 I0.003 J-0.229 F400.000
G1 X65.611 Y8.146 Z-1.750 F400.000
G2 X65.472 Y8.583 Z-1.750 I-0.067 J0.219 F400.000
G2 X65.541 Y8.594 Z-1.750 I0.071 J-0.218 F400.000
G1 X65.541 Y8.594 Z-2.000 F400.000
G2 X65.653 Y8.163 Z-2.000 I0.003 J-0.229 F400.000
G1 X65.611 Y8.146 Z-2.000 F400.000
G2 X65.472 Y8.583 Z-2.000 I-0.067 J0.219 F400.000
G2 X65.541 Y8.594 Z-2.000 I0.071 J-0.218 F400.000
G1 X65.541 Y8.594 Z-2.250 F400.000
G2 X65.653 Y8.163 Z-2.250 I0.003 J-0.229 F400.000
G1 X65.611 Y8.146 Z-2.250 F400.000
G2 X65.472 Y8.583 Z-2.250 I-0.067 J0.219 F400.000
G2 X65.541 Y8.594 Z-2.250 I0.071 J-0.218 F400.000
G1 X65.541 Y8.594 Z-2.450 F400.000
G2 X65.653 Y8.163 Z-2.450 I0.003 J-0.229 F400.000
G1 X65.611 Y8.146 Z-2.450 F400.000
G2 X65.472 Y8.583 Z-2.450 I-0.067 J0.219 F400.000
G2 X65.541 Y8.594 Z-2.450 I0.071 J-0.218 F400.000
G0 Z5.250
G0 Z5.250
(finish operation: Profile002)
(begin operation: Profile003)
(machine: not set, mm/min)
(Profile003)
(Compensated Tool Path. Diameter: 3.175)
G0 Z5.250
G0 X69.930 Y29.035
G0 Z3.250
G1 X69.930 Y29.035 Z-0.000 F400.000
G2 X71.125 Y26.286 Z-0.000 I-2.894 J-2.891 F400.000
G1 X71.131 Y7.147 Z-0.000 F400.000
G2 X67.182 Y3.066 Z-0.000 I-4.091 J0.007 F400.000
G1 X61.293 Y3.060 Z-0.000 F400.000
G2 X60.115 Y3.583 Z-0.000 I0.000 J1.588 F400.000
G1 X57.228 Y6.778 Z-0.000 F400.000
G1 X48.859 Y6.778 Z-0.000 F400.000
G1 X45.971 Y3.583 Z-0.000 F400.000
G2 X45.482 Y3.217 Z-0.000 I-1.178 J1.064 F400.000
G2 X44.793 Y3.060 Z-0.000 I-0.689 J1.430 F400.000
G1 X39.043 Y3.060 Z-0.000 F400.000
G2 X34.962 Y7.009 Z-0.000 I0.007 J4.091 F400.000
G1 X34.956 Y26.147 Z-0.000 F400.000
G2 X38.905 Y30.229 Z-0.000 I4.091 J-0.007 F400.000
G1 X44.793 Y30.235 Z-0.000 F400.000
G2 X45.971 Y29.712 Z-0.000 I0.000 J-1.587 F400.000
G1 X48.859 Y26.517 Z-0.000 F400.000
G1 X57.228 Y26.517 Z-0.000 F400.000
G1 X60.115 Y29.712 Z-0.000 F400.000
G2 X61.293 Y30.235 Z-0.000 I1.178 J-1.064 F400.000
G1 X67.043 Y30.235 Z-0.000 F400.000
G2 X69.930 Y29.035 Z-0.000 I-0.007 J-4.091 F400.000
G1 X69.930 Y29.035 Z-0.250 F400.000
G2 X71.125 Y26.286 Z-0.250 I-2.894 J-2.891 F400.000
G1 X71.131 Y7.147 Z-0.250 F400.000
G2 X67.182 Y3.066 Z-0.250 I-4.091 J0.007 F400.000
G1 X61.293 Y3.060 Z-0.250 F400.000
G2 X60.115 Y3.583 Z-0.250 I0.000 J1.588 F400.000
G1 X57.228 Y6.778 Z-0.250 F400.000
G1 X48.859 Y6.778 Z-0.250 F400.000
G1 X45.971 Y3.583 Z-0.250 F400.000
G2 X45.482 Y3.217 Z-0.250 I-1.178 J1.064 F400.000
G2 X44.793 Y3.060 Z-0.250 I-0.689 J1.430 F400.000
G1 X39.043 Y3.060 Z-0.250 F400.000
G2 X34.962 Y7.009 Z-0.250 I0.007 J4.091 F400.000
G1 X34.956 Y26.147 Z-0.250 F400.000
G2 X38.905 Y30.229 Z-0.250 I4.091 J-0.007 F400.000
G1 X44.793 Y30.235 Z-0.250 F400.000
G2 X45.971 Y29.712 Z-0.250 I0.000 J-1.587 F400.000
G1 X48.859 Y26.517 Z-0.250 F400.000
G1 X57.228 Y26.517 Z-0.250 F400.000
G1 X60.115 Y29.712 Z-0.250 F400.000
G2 X61.293 Y30.235 Z-0.250 I1.178 J-1.064 F400.000
G1 X67.043 Y30.235 Z-0.250 F400.000
G2 X69.930 Y29.035 Z-0.250 I-0.007 J-4.091 F400.000
G1 X69.930 Y29.035 Z-0.500 F400.000
G2 X71.125 Y26.286 Z-0.500 I-2.894 J-2.891 F400.000
G1 X71.131 Y7.147 Z-0.500 F400.000
G2 X67.182 Y3.066 Z-0.500 I-4.091 J0.007 F400.000
G1 X61.293 Y3.060 Z-0.500 F400.000
G2 X60.115 Y3.583 Z-0.500 I0.000 J1.588 F400.000
G1 X57.228 Y6.778 Z-0.500 F400.000
G1 X48.859 Y6.778 Z-0.500 F400.000
G1 X45.971 Y3.583 Z-0.500 F400.000
G2 X45.482 Y3.217 Z-0.500 I-1.178 J1.064 F400.000
G2 X44.793 Y3.060 Z-0.500 I-0.689 J1.430 F400.000
G1 X39.043 Y3.060 Z-0.500 F400.000
G2 X34.962 Y7.009 Z-0.500 I0.007 J4.091 F400.000
G1 X34.956 Y26.147 Z-0.500 F400.000
G2 X38.905 Y30.229 Z-0.500 I4.091 J-0.007 F400.000
G1 X44.793 Y30.235 Z-0.500 F400.000
G2 X45.971 Y29.712 Z-0.500 I0.000 J-1.587 F400.000
G1 X48.859 Y26.517 Z-0.500 F400.000
G1 X57.228 Y26.517 Z-0.500 F400.000
G1 X60.115 Y29.712 Z-0.500 F400.000
G2 X61.293 Y30.235 Z-0.500 I1.178 J-1.064 F400.000
G1 X67.043 Y30.235 Z-0.500 F400.000
G2 X69.930 Y29.035 Z-0.500 I-0.007 J-4.091 F400.000
G1 X69.930 Y29.035 Z-0.750 F400.000
G2 X71.125 Y26.286 Z-0.750 I-2.894 J-2.891 F400.000
G1 X71.131 Y7.147 Z-0.750 F400.000
G2 X67.182 Y3.066 Z-0.750 I-4.091 J0.007 F400.000
G1 X61.293 Y3.060 Z-0.750 F400.000
G2 X60.115 Y3.583 Z-0.750 I0.000 J1.588 F400.000
G1 X57.228 Y6.778 Z-0.750 F400.000
G1 X48.859 Y6.778 Z-0.750 F400.000
G1 X45.971 Y3.583 Z-0.750 F400.000
G2 X45.482 Y3.217 Z-0.750 I-1.178 J1.064 F400.000
G2 X44.793 Y3.060 Z-0.750 I-0.689 J1.430 F400.000
G1 X39.043 Y3.060 Z-0.750 F400.000
G2 X34.962 Y7.009 Z-0.750 I0.007 J4.091 F400.000
G1 X34.956 Y26.147 Z-0.750 F400.000
G2 X38.905 Y30.229 Z-0.750 I4.091 J-0.007 F400.000
G1 X44.793 Y30.235 Z-0.750 F400.000
G2 X45.971 Y29.712 Z-0.750 I0.000 J-1.587 F400.000
G1 X48.859 Y26.517 Z-0.750 F400.000
G1 X57.228 Y26.517 Z-0.750 F400.000
G1 X60.115 Y29.712 Z-0.750 F400.000
G2 X61.293 Y30.235 Z-0.750 I1.178 J-1.064 F400.000
G1 X67.043 Y30.235 Z-0.750 F400.000
G2 X69.930 Y29.035 Z-0.750 I-0.007 J-4.091 F400.000
G1 X69.930 Y29.035 Z-1.000 F400.000
G2 X71.125 Y26.286 Z-1.000 I-2.894 J-2.891 F400.000
G1 X71.131 Y7.147 Z-1.000 F400.000
G2 X67.182 Y3.066 Z-1.000 I-4.091 J0.007 F400.000
G1 X61.293 Y3.060 Z-1.000 F400.000
G2 X60.115 Y3.583 Z-1.000 I0.000 J1.588 F400.000
G1 X57.228 Y6.778 Z-1.000 F400.000
G1 X48.859 Y6.778 Z-1.000 F400.000
G1 X45.971 Y3.583 Z-1.000 F400.000
G2 X45.482 Y3.217 Z-1.000 I-1.178 J1.064 F400.000
G2 X44.793 Y3.060 Z-1.000 I-0.689 J1.430 F400.000
G1 X39.043 Y3.060 Z-1.000 F400.000
G2 X34.962 Y7.009 Z-1.000 I0.007 J4.091 F400.000
G1 X34.956 Y26.147 Z-1.000 F400.000
G2 X38.905 Y30.229 Z-1.000 I4.091 J-0.007 F400.000
G1 X44.793 Y30.235 Z-1.000 F400.000
G2 X45.971 Y29.712 Z-1.000 I0.000 J-1.587 F400.000
G1 X48.859 Y26.517 Z-1.000 F400.000
G1 X57.228 Y26.517 Z-1.000 F400.000
G1 X60.115 Y29.712 Z-1.000 F400.000
G2 X61.293 Y30.235 Z-1.000 I1.178 J-1.064 F400.000
G1 X67.043 Y30.235 Z-1.000 F400.000
G2 X69.930 Y29.035 Z-1.000 I-0.007 J-4.091 F400.000
G1 X69.930 Y29.035 Z-1.250 F400.000
G2 X71.125 Y26.286 Z-1.250 I-2.894 J-2.891 F400.000
G1 X71.131 Y7.147 Z-1.250 F400.000
G2 X67.182 Y3.066 Z-1.250 I-4.091 J0.007 F400.000
G1 X61.293 Y3.060 Z-1.250 F400.000
G2 X60.115 Y3.583 Z-1.250 I0.000 J1.588 F400.000
G1 X57.228 Y6.778 Z-1.250 F400.000
G1 X48.859 Y6.778 Z-1.250 F400.000
G1 X45.971 Y3.583 Z-1.250 F400.000
G2 X45.482 Y3.217 Z-1.250 I-1.178 J1.064 F400.000
G2 X44.793 Y3.060 Z-1.250 I-0.689 J1.430 F400.000
G1 X39.043 Y3.060 Z-1.250 F400.000
G2 X34.962 Y7.009 Z-1.250 I0.007 J4.091 F400.000
G1 X34.956 Y26.147 Z-1.250 F400.000
G2 X38.905 Y30.229 Z-1.250 I4.091 J-0.007 F400.000
G1 X44.793 Y30.235 Z-1.250 F400.000
G2 X45.971 Y29.712 Z-1.250 I0.000 J-1.587 F400.000
G1 X48.859 Y26.517 Z-1.250 F400.000
G1 X57.228 Y26.517 Z-1.250 F400.000
G1 X60.115 Y29.712 Z-1.250 F400.000
G2 X61.293 Y30.235 Z-1.250 I1.178 J-1.064 F400.000
G1 X67.043 Y30.235 Z-1.250 F400.000
G2 X69.930 Y29.035 Z-1.250 I-0.007 J-4.091 F400.000
G1 X69.930 Y29.035 Z-1.500 F400.000
G2 X71.125 Y26.286 Z-1.500 I-2.894 J-2.891 F400.000
G1 X71.131 Y7.147 Z-1.500 F400.000
G2 X67.182 Y3.066 Z-1.500 I-4.091 J0.007 F400.000
G1 X61.293 Y3.060 Z-1.500 F400.000
G2 X60.115 Y3.583 Z-1.500 I0.000 J1.588 F400.000
G1 X57.228 Y6.778 Z-1.500 F400.000
G1 X48.859 Y6.778 Z-1.500 F400.000
G1 X45.971 Y3.583 Z-1.500 F400.000
G2 X45.482 Y3.217 Z-1.500 I-1.178 J1.064 F400.000
G2 X44.793 Y3.060 Z-1.500 I-0.689 J1.430 F400.000
G1 X39.043 Y3.060 Z-1.500 F400.000
G2 X34.962 Y7.009 Z-1.500 I0.007 J4.091 F400.000
G1 X34.956 Y26.147 Z-1.500 F400.000
G2 X38.905 Y30.229 Z-1.500 I4.091 J-0.007 F400.000
G1 X44.793 Y30.235 Z-1.500 F400.000
G2 X45.971 Y29.712 Z-1.500 I0.000 J-1.587 F400.000
G1 X48.859 Y26.517 Z-1.500 F400.000
G1 X57.228 Y26.517 Z-1.500 F400.000
G1 X60.115 Y29.712 Z-1.500 F400.000
G2 X61.293 Y30.235 Z-1.500 I1.178 J-1.064 F400.000
G1 X67.043 Y30.235 Z-1.500 F400.000
G2 X69.930 Y29.035 Z-1.500 I-0.007 J-4.091 F400.000
G1 X69.930 Y29.035 Z-1.750 F400.000
G2 X71.125 Y26.286 Z-1.750 I-2.894 J-2.891 F400.000
G1 X71.131 Y7.147 Z-1.750 F400.000
G2 X67.182 Y3.066 Z-1.750 I-4.091 J0.007 F400.000
G1 X61.293 Y3.060 Z-1.750 F400.000
G2 X60.115 Y3.583 Z-1.750 I0.000 J1.588 F400.000
G1 X57.228 Y6.778 Z-1.750 F400.000
G1 X48.859 Y6.778 Z-1.750 F400.000
G1 X45.971 Y3.583 Z-1.750 F400.000
G2 X45.482 Y3.217 Z-1.750 I-1.178 J1.064 F400.000
G2 X44.793 Y3.060 Z-1.750 I-0.689 J1.430 F400.000
G1 X39.043 Y3.060 Z-1.750 F400.000
G2 X34.962 Y7.009 Z-1.750 I0.007 J4.091 F400.000
G1 X34.956 Y26.147 Z-1.750 F400.000
G2 X38.905 Y30.229 Z-1.750 I4.091 J-0.007 F400.000
G1 X44.793 Y30.235 Z-1.750 F400.000
G2 X45.971 Y29.712 Z-1.750 I0.000 J-1.587 F400.000
G1 X48.859 Y26.517 Z-1.750 F400.000
G1 X57.228 Y26.517 Z-1.750 F400.000
G1 X60.115 Y29.712 Z-1.750 F400.000
G2 X61.293 Y30.235 Z-1.750 I1.178 J-1.064 F400.000
G1 X67.043 Y30.235 Z-1.750 F400.000
G2 X69.930 Y29.035 Z-1.750 I-0.007 J-4.091 F400.000
G1 X69.930 Y29.035 Z-2.000 F400.000
G2 X71.125 Y26.286 Z-2.000 I-2.894 J-2.891 F400.000
G1 X71.131 Y7.147 Z-2.000 F400.000
G2 X67.182 Y3.066 Z-2.000 I-4.091 J0.007 F400.000
G1 X61.293 Y3.060 Z-2.000 F400.000
G2 X60.115 Y3.583 Z-2.000 I0.000 J1.588 F400.000
G1 X57.228 Y6.778 Z-2.000 F400.000
G1 X48.859 Y6.778 Z-2.000 F400.000
G1 X45.971 Y3.583 Z-2.000 F400.000
G2 X45.482 Y3.217 Z-2.000 I-1.178 J1.064 F400.000
G2 X44.793 Y3.060 Z-2.000 I-0.689 J1.430 F400.000
G1 X39.043 Y3.060 Z-2.000 F400.000
G2 X34.962 Y7.009 Z-2.000 I0.007 J4.091 F400.000
G1 X34.956 Y26.147 Z-2.000 F400.000
G2 X38.905 Y30.229 Z-2.000 I4.091 J-0.007 F400.000
G1 X44.793 Y30.235 Z-2.000 F400.000
G2 X45.971 Y29.712 Z-2.000 I0.000 J-1.587 F400.000
G1 X48.859 Y26.517 Z-2.000 F400.000
G1 X57.228 Y26.517 Z-2.000 F400.000
G1 X60.115 Y29.712 Z-2.000 F400.000
G2 X61.293 Y30.235 Z-2.000 I1.178 J-1.064 F400.000
G1 X67.043 Y30.235 Z-2.000 F400.000
G2 X69.930 Y29.035 Z-2.000 I-0.007 J-4.091 F400.000
G1 X69.930 Y29.035 Z-2.250 F400.000
G2 X71.125 Y26.286 Z-2.250 I-2.894 J-2.891 F400.000
G1 X71.131 Y7.147 Z-2.250 F400.000
G2 X67.182 Y3.066 Z-2.250 I-4.091 J0.007 F400.000
G1 X61.293 Y3.060 Z-2.250 F400.000
G2 X60.115 Y3.583 Z-2.250 I0.000 J1.588 F400.000
G1 X57.228 Y6.778 Z-2.250 F400.000
G1 X48.859 Y6.778 Z-2.250 F400.000
G1 X45.971 Y3.583 Z-2.250 F400.000
G2 X45.482 Y3.217 Z-2.250 I-1.178 J1.064 F400.000
G2 X44.793 Y3.060 Z-2.250 I-0.689 J1.430 F400.000
G1 X39.043 Y3.060 Z-2.250 F400.000
G2 X34.962 Y7.009 Z-2.250 I0.007 J4.091 F400.000
G1 X34.956 Y26.147 Z-2.250 F400.000
G2 X38.905 Y30.229 Z-2.250 I4.091 J-0.007 F400.000
G1 X44.793 Y30.235 Z-2.250 F400.000
G2 X45.971 Y29.712 Z-2.250 I0.000 J-1.587 F400.000
G1 X48.859 Y26.517 Z-2.250 F400.000
G1 X57.228 Y26.517 Z-2.250 F400.000
G1 X60.115 Y29.712 Z-2.250 F400.000
G2 X61.293 Y30.235 Z-2.250 I1.178 J-1.064 F400.000
G1 X67.043 Y30.235 Z-2.250 F400.000
G2 X69.930 Y29.035 Z-2.250 I-0.007 J-4.091 F400.000
G1 X69.930 Y29.035 Z-2.450 F400.000
G2 X71.125 Y26.286 Z-2.450 I-2.894 J-2.891 F400.000
G1 X71.131 Y7.147 Z-2.450 F400.000
G2 X67.182 Y3.066 Z-2.450 I-4.091 J0.007 F400.000
G1 X61.293 Y3.060 Z-2.450 F400.000
G2 X60.115 Y3.583 Z-2.450 I0.000 J1.588 F400.000
G1 X57.228 Y6.778 Z-2.450 F400.000
G1 X48.859 Y6.778 Z-2.450 F400.000
G1 X45.971 Y3.583 Z-2.450 F400.000
G2 X45.482 Y3.217 Z-2.450 I-1.178 J1.064 F400.000
G2 X44.793 Y3.060 Z-2.450 I-0.689 J1.430 F400.000
G1 X39.043 Y3.060 Z-2.450 F400.000
G2 X34.962 Y7.009 Z-2.450 I0.007 J4.091 F400.000
G1 X34.956 Y26.147 Z-2.450 F400.000
G2 X38.905 Y30.229 Z-2.450 I4.091 J-0.007 F400.000
G1 X44.793 Y30.235 Z-2.450 F400.000
G2 X45.971 Y29.712 Z-2.450 I0.000 J-1.587 F400.000
G1 X48.859 Y26.517 Z-2.450 F400.000
G1 X57.228 Y26.517 Z-2.450 F400.000
G1 X60.115 Y29.712 Z-2.450 F400.000
G2 X61.293 Y30.235 Z-2.450 I1.178 J-1.064 F400.000
G1 X67.043 Y30.235 Z-2.450 F400.000
G2 X69.930 Y29.035 Z-2.450 I-0.007 J-4.091 F400.000
G0 Z5.250
G0 Z5.250
(finish operation: Profile003)
(begin postamble)
M05 M09
G17 G90 G80 G40
M30
