(Exported by FreeCAD)
(Post Processor: script_module)
(Output Time:2024-11-24 16:29:14.605737)
(Begin preamble)
G17 G90
G21
(Begin operation: Fixture)
(Path: Fixture)
G54
(Finish operation: Fixture)
(Begin operation: 1/8in Endmill001)
(Path: 1/8in Endmill001)
(1/8in Endmill001)
(Begin toolchange)
( M6 T1 )
M3 S15000
(Finish operation: 1/8in Endmill001)
(Begin operation: Profile001)
(Path: Profile001)
(Profile001)
(Compensated Tool Path. Diameter: 3.175)
G0 Z5.000
G0 X15.845 Y15.154
G0 Z3.000
G1 X15.845 Y15.154 Z0.000 F400.000
G2 X15.713 Y14.494 Z0.000 I-0.286 J-0.286 K0.000 F400.000
G2 X15.185 Y14.713 Z0.000 I-0.155 J0.374 K0.000 F400.000
G2 X15.404 Y15.242 Z0.000 I0.374 J0.155 K0.000 F400.000
G2 X15.845 Y15.154 Z0.000 I0.155 J-0.374 K0.000 F400.000
G1 X15.845 Y15.154 Z-0.250 F400.000
G2 X15.713 Y14.494 Z-0.250 I-0.286 J-0.286 K0.000 F400.000
G2 X15.185 Y14.713 Z-0.250 I-0.155 J0.374 K0.000 F400.000
G2 X15.404 Y15.242 Z-0.250 I0.374 J0.155 K0.000 F400.000
G2 X15.845 Y15.154 Z-0.250 I0.155 J-0.374 K0.000 F400.000
G1 X15.845 Y15.154 Z-0.500 F400.000
G2 X15.713 Y14.494 Z-0.500 I-0.286 J-0.286 K0.000 F400.000
G2 X15.185 Y14.713 Z-0.500 I-0.155 J0.374 K0.000 F400.000
G2 X15.404 Y15.242 Z-0.500 I0.374 J0.155 K0.000 F400.000
G2 X15.845 Y15.154 Z-0.500 I0.155 J-0.374 K0.000 F400.000
G1 X15.845 Y15.154 Z-0.750 F400.000
G2 X15.713 Y14.494 Z-0.750 I-0.286 J-0.286 K0.000 F400.000
G2 X15.185 Y14.713 Z-0.750 I-0.155 J0.374 K0.000 F400.000
G2 X15.404 Y15.242 Z-0.750 I0.374 J0.155 K0.000 F400.000
G2 X15.845 Y15.154 Z-0.750 I0.155 J-0.374 K0.000 F400.000
G1 X15.845 Y15.154 Z-1.000 F400.000
G2 X15.713 Y14.494 Z-1.000 I-0.286 J-0.286 K0.000 F400.000
G2 X15.185 Y14.713 Z-1.000 I-0.155 J0.374 K0.000 F400.000
G2 X15.404 Y15.242 Z-1.000 I0.374 J0.155 K0.000 F400.000
G2 X15.845 Y15.154 Z-1.000 I0.155 J-0.374 K0.000 F400.000
G1 X15.845 Y15.154 Z-1.250 F400.000
G2 X15.713 Y14.494 Z-1.250 I-0.286 J-0.286 K0.000 F400.000
G2 X15.185 Y14.713 Z-1.250 I-0.155 J0.374 K0.000 F400.000
G2 X15.404 Y15.242 Z-1.250 I0.374 J0.155 K0.000 F400.000
G2 X15.845 Y15.154 Z-1.250 I0.155 J-0.374 K0.000 F400.000
G1 X15.845 Y15.154 Z-1.500 F400.000
G2 X15.713 Y14.494 Z-1.500 I-0.286 J-0.286 K0.000 F400.000
G2 X15.185 Y14.713 Z-1.500 I-0.155 J0.374 K0.000 F400.000
G2 X15.404 Y15.242 Z-1.500 I0.374 J0.155 K0.000 F400.000
G2 X15.845 Y15.154 Z-1.500 I0.155 J-0.374 K0.000 F400.000
G1 X15.845 Y15.154 Z-1.750 F400.000
G2 X15.713 Y14.494 Z-1.750 I-0.286 J-0.286 K0.000 F400.000
G2 X15.185 Y14.713 Z-1.750 I-0.155 J0.374 K0.000 F400.000
G2 X15.404 Y15.242 Z-1.750 I0.374 J0.155 K0.000 F400.000
G2 X15.845 Y15.154 Z-1.750 I0.155 J-0.374 K0.000 F400.000
G1 X15.845 Y15.154 Z-2.000 F400.000
G2 X15.713 Y14.494 Z-2.000 I-0.286 J-0.286 K0.000 F400.000
G2 X15.185 Y14.713 Z-2.000 I-0.155 J0.374 K0.000 F400.000
G2 X15.404 Y15.242 Z-2.000 I0.374 J0.155 K0.000 F400.000
G2 X15.845 Y15.154 Z-2.000 I0.155 J-0.374 K0.000 F400.000
G1 X15.845 Y15.154 Z-2.250 F400.000
G2 X15.713 Y14.494 Z-2.250 I-0.286 J-0.286 K0.000 F400.000
G2 X15.185 Y14.713 Z-2.250 I-0.155 J0.374 K0.000 F400.000
G2 X15.404 Y15.242 Z-2.250 I0.374 J0.155 K0.000 F400.000
G2 X15.845 Y15.154 Z-2.250 I0.155 J-0.374 K0.000 F400.000
G1 X15.845 Y15.154 Z-2.381 F400.000
G2 X15.713 Y14.494 Z-2.381 I-0.286 J-0.286 K0.000 F400.000
G2 X15.185 Y14.713 Z-2.381 I-0.155 J0.374 K0.000 F400.000
G2 X15.404 Y15.242 Z-2.381 I0.374 J0.155 K0.000 F400.000
G2 X15.845 Y15.154 Z-2.381 I0.155 J-0.374 K0.000 F400.000
G0 Z5.000
G0 Z5.000
(Finish operation: Profile001)
(Begin operation: Profile)
(Path: Profile)
(Profile)
(Compensated Tool Path. Diameter: 3.175)
G0 Z5.000
G0 X24.181 Y23.491
G0 Z3.000
G1 X24.181 Y23.491 Z0.000 F400.000
G2 X24.646 Y22.368 Z0.000 I-1.123 J-1.123 K0.000 F400.000
G1 X24.646 Y7.368 Z0.000 F400.000
G2 X23.059 Y5.781 Z0.000 I-1.587 J-0.000 K0.000 F400.000
G1 X8.059 Y5.781 Z0.000 F400.000
G2 X6.471 Y7.368 Z0.000 I-0.000 J1.587 K0.000 F400.000
G1 X6.471 Y22.368 Z0.000 F400.000
G2 X8.059 Y23.956 Z0.000 I1.587 J0.000 K0.000 F400.000
G1 X23.059 Y23.956 Z0.000 F400.000
G2 X24.181 Y23.491 Z0.000 I0.000 J-1.587 K0.000 F400.000
G1 X24.181 Y23.491 Z-0.250 F400.000
G2 X24.646 Y22.368 Z-0.250 I-1.123 J-1.123 K0.000 F400.000
G1 X24.646 Y7.368 Z-0.250 F400.000
G2 X23.059 Y5.781 Z-0.250 I-1.587 J-0.000 K0.000 F400.000
G1 X8.059 Y5.781 Z-0.250 F400.000
G2 X6.471 Y7.368 Z-0.250 I-0.000 J1.587 K0.000 F400.000
G1 X6.471 Y22.368 Z-0.250 F400.000
G2 X8.059 Y23.956 Z-0.250 I1.587 J0.000 K0.000 F400.000
G1 X23.059 Y23.956 Z-0.250 F400.000
G2 X24.181 Y23.491 Z-0.250 I0.000 J-1.587 K0.000 F400.000
G1 X24.181 Y23.491 Z-0.500 F400.000
G2 X24.646 Y22.368 Z-0.500 I-1.123 J-1.123 K0.000 F400.000
G1 X24.646 Y7.368 Z-0.500 F400.000
G2 X23.059 Y5.781 Z-0.500 I-1.587 J-0.000 K0.000 F400.000
G1 X8.059 Y5.781 Z-0.500 F400.000
G2 X6.471 Y7.368 Z-0.500 I-0.000 J1.587 K0.000 F400.000
G1 X6.471 Y22.368 Z-0.500 F400.000
G2 X8.059 Y23.956 Z-0.500 I1.587 J0.000 K0.000 F400.000
G1 X23.059 Y23.956 Z-0.500 F400.000
G2 X24.181 Y23.491 Z-0.500 I0.000 J-1.587 K0.000 F400.000
G1 X24.181 Y23.491 Z-0.750 F400.000
G2 X24.646 Y22.368 Z-0.750 I-1.123 J-1.123 K0.000 F400.000
G1 X24.646 Y7.368 Z-0.750 F400.000
G2 X23.059 Y5.781 Z-0.750 I-1.587 J-0.000 K0.000 F400.000
G1 X8.059 Y5.781 Z-0.750 F400.000
G2 X6.471 Y7.368 Z-0.750 I-0.000 J1.587 K0.000 F400.000
G1 X6.471 Y22.368 Z-0.750 F400.000
G2 X8.059 Y23.956 Z-0.750 I1.587 J0.000 K0.000 F400.000
G1 X23.059 Y23.956 Z-0.750 F400.000
G2 X24.181 Y23.491 Z-0.750 I0.000 J-1.587 K0.000 F400.000
G1 X24.181 Y23.491 Z-1.000 F400.000
G2 X24.646 Y22.368 Z-1.000 I-1.123 J-1.123 K0.000 F400.000
G1 X24.646 Y7.368 Z-1.000 F400.000
G2 X23.059 Y5.781 Z-1.000 I-1.587 J-0.000 K0.000 F400.000
G1 X8.059 Y5.781 Z-1.000 F400.000
G2 X6.471 Y7.368 Z-1.000 I-0.000 J1.587 K0.000 F400.000
G1 X6.471 Y22.368 Z-1.000 F400.000
G2 X8.059 Y23.956 Z-1.000 I1.587 J0.000 K0.000 F400.000
G1 X23.059 Y23.956 Z-1.000 F400.000
G2 X24.181 Y23.491 Z-1.000 I0.000 J-1.587 K0.000 F400.000
G1 X24.181 Y23.491 Z-1.250 F400.000
G2 X24.646 Y22.368 Z-1.250 I-1.123 J-1.123 K0.000 F400.000
G1 X24.646 Y7.368 Z-1.250 F400.000
G2 X23.059 Y5.781 Z-1.250 I-1.587 J-0.000 K0.000 F400.000
G1 X8.059 Y5.781 Z-1.250 F400.000
G2 X6.471 Y7.368 Z-1.250 I-0.000 J1.587 K0.000 F400.000
G1 X6.471 Y22.368 Z-1.250 F400.000
G2 X8.059 Y23.956 Z-1.250 I1.587 J0.000 K0.000 F400.000
G1 X23.059 Y23.956 Z-1.250 F400.000
G2 X24.181 Y23.491 Z-1.250 I0.000 J-1.587 K0.000 F400.000
G1 X24.181 Y23.491 Z-1.500 F400.000
G2 X24.646 Y22.368 Z-1.500 I-1.123 J-1.123 K0.000 F400.000
G1 X24.646 Y7.368 Z-1.500 F400.000
G2 X23.059 Y5.781 Z-1.500 I-1.587 J-0.000 K0.000 F400.000
G1 X8.059 Y5.781 Z-1.500 F400.000
G2 X6.471 Y7.368 Z-1.500 I-0.000 J1.587 K0.000 F400.000
G1 X6.471 Y22.368 Z-1.500 F400.000
G2 X8.059 Y23.956 Z-1.500 I1.587 J0.000 K0.000 F400.000
G1 X23.059 Y23.956 Z-1.500 F400.000
G2 X24.181 Y23.491 Z-1.500 I0.000 J-1.587 K0.000 F400.000
G1 X24.181 Y23.491 Z-1.750 F400.000
G2 X24.646 Y22.368 Z-1.750 I-1.123 J-1.123 K0.000 F400.000
G1 X24.646 Y7.368 Z-1.750 F400.000
G2 X23.059 Y5.781 Z-1.750 I-1.587 J-0.000 K0.000 F400.000
G1 X8.059 Y5.781 Z-1.750 F400.000
G2 X6.471 Y7.368 Z-1.750 I-0.000 J1.587 K0.000 F400.000
G1 X6.471 Y22.368 Z-1.750 F400.000
G2 X8.059 Y23.956 Z-1.750 I1.587 J0.000 K0.000 F400.000
G1 X23.059 Y23.956 Z-1.750 F400.000
G2 X24.181 Y23.491 Z-1.750 I0.000 J-1.587 K0.000 F400.000
G1 X24.181 Y23.491 Z-2.000 F400.000
G2 X24.646 Y22.368 Z-2.000 I-1.123 J-1.123 K0.000 F400.000
G1 X24.646 Y7.368 Z-2.000 F400.000
G2 X23.059 Y5.781 Z-2.000 I-1.587 J-0.000 K0.000 F400.000
G1 X8.059 Y5.781 Z-2.000 F400.000
G2 X6.471 Y7.368 Z-2.000 I-0.000 J1.587 K0.000 F400.000
G1 X6.471 Y22.368 Z-2.000 F400.000
G2 X8.059 Y23.956 Z-2.000 I1.587 J0.000 K0.000 F400.000
G1 X23.059 Y23.956 Z-2.000 F400.000
G2 X24.181 Y23.491 Z-2.000 I0.000 J-1.587 K0.000 F400.000
G1 X24.181 Y23.491 Z-2.250 F400.000
G2 X24.646 Y22.368 Z-2.250 I-1.123 J-1.123 K0.000 F400.000
G1 X24.646 Y7.368 Z-2.250 F400.000
G2 X23.059 Y5.781 Z-2.250 I-1.587 J-0.000 K0.000 F400.000
G1 X8.059 Y5.781 Z-2.250 F400.000
G2 X6.471 Y7.368 Z-2.250 I-0.000 J1.587 K0.000 F400.000
G1 X6.471 Y22.368 Z-2.250 F400.000
G2 X8.059 Y23.956 Z-2.250 I1.587 J0.000 K0.000 F400.000
G1 X23.059 Y23.956 Z-2.250 F400.000
G2 X24.181 Y23.491 Z-2.250 I0.000 J-1.587 K0.000 F400.000
G1 X24.181 Y23.491 Z-2.381 F400.000
G2 X24.646 Y22.368 Z-2.381 I-1.123 J-1.123 K0.000 F400.000
G1 X24.646 Y7.368 Z-2.381 F400.000
G2 X23.059 Y5.781 Z-2.381 I-1.587 J-0.000 K0.000 F400.000
G1 X8.059 Y5.781 Z-2.381 F400.000
G2 X6.471 Y7.368 Z-2.381 I-0.000 J1.587 K0.000 F400.000
G1 X6.471 Y22.368 Z-2.381 F400.000
G2 X8.059 Y23.956 Z-2.381 I1.587 J0.000 K0.000 F400.000
G1 X23.059 Y23.956 Z-2.381 F400.000
G2 X24.181 Y23.491 Z-2.381 I0.000 J-1.587 K0.000 F400.000
G0 Z5.000
G0 Z5.000
(Finish operation: Profile)
(Begin postamble)
M5
G17 G90
M2
