(Exported by FreeCAD)
(Post Processor: script_module)
(Output Time:2024-11-24 19:44:07.935343)
(begin preamble)
%
G17 G21 G40 G49 G80 G90
M08
G21
(begin operation: Fixture)
(machine: not set, mm/min)
G54
(finish operation: Fixture)
(begin operation: 1/8in Endmill005)
(machine: not set, mm/min)
(1/8in Endmill005)
M05
M09M6 T1
M3 S15000
(finish operation: 1/8in Endmill005)
(begin operation: Profile)
(machine: not set, mm/min)
(Profile)
(Compensated Tool Path. Diameter: 3.175)
G0 Z5.250
G0 X42.336 Y78.469
G0 Z3.250
G1 X42.336 Y78.469 Z0.000 F400.000
G2 X42.205 Y77.809 Z0.000 I-0.286 J-0.286 F400.000
G2 X41.895 Y78.557 Z0.000 I-0.155 J0.374 F400.000
G2 X42.336 Y78.469 Z0.000 I0.155 J-0.374 F400.000
G1 X42.336 Y78.469 Z-0.250 F400.000
G2 X42.205 Y77.809 Z-0.250 I-0.286 J-0.286 F400.000
G2 X41.895 Y78.557 Z-0.250 I-0.155 J0.374 F400.000
G2 X42.336 Y78.469 Z-0.250 I0.155 J-0.374 F400.000
G1 X42.336 Y78.469 Z-0.500 F400.000
G2 X42.205 Y77.809 Z-0.500 I-0.286 J-0.286 F400.000
G2 X41.895 Y78.557 Z-0.500 I-0.155 J0.374 F400.000
G2 X42.336 Y78.469 Z-0.500 I0.155 J-0.374 F400.000
G1 X42.336 Y78.469 Z-0.750 F400.000
G2 X42.205 Y77.809 Z-0.750 I-0.286 J-0.286 F400.000
G2 X41.895 Y78.557 Z-0.750 I-0.155 J0.374 F400.000
G2 X42.336 Y78.469 Z-0.750 I0.155 J-0.374 F400.000
G1 X42.336 Y78.469 Z-1.000 F400.000
G2 X42.205 Y77.809 Z-1.000 I-0.286 J-0.286 F400.000
G2 X41.895 Y78.557 Z-1.000 I-0.155 J0.374 F400.000
G2 X42.336 Y78.469 Z-1.000 I0.155 J-0.374 F400.000
G1 X42.336 Y78.469 Z-1.250 F400.000
G2 X42.205 Y77.809 Z-1.250 I-0.286 J-0.286 F400.000
G2 X41.895 Y78.557 Z-1.250 I-0.155 J0.374 F400.000
G2 X42.336 Y78.469 Z-1.250 I0.155 J-0.374 F400.000
G1 X42.336 Y78.469 Z-1.500 F400.000
G2 X42.205 Y77.809 Z-1.500 I-0.286 J-0.286 F400.000
G2 X41.895 Y78.557 Z-1.500 I-0.155 J0.374 F400.000
G2 X42.336 Y78.469 Z-1.500 I0.155 J-0.374 F400.000
G1 X42.336 Y78.469 Z-1.750 F400.000
G2 X42.205 Y77.809 Z-1.750 I-0.286 J-0.286 F400.000
G2 X41.895 Y78.557 Z-1.750 I-0.155 J0.374 F400.000
G2 X42.336 Y78.469 Z-1.750 I0.155 J-0.374 F400.000
G1 X42.336 Y78.469 Z-2.000 F400.000
G2 X42.205 Y77.809 Z-2.000 I-0.286 J-0.286 F400.000
G2 X41.895 Y78.557 Z-2.000 I-0.155 J0.374 F400.000
G2 X42.336 Y78.469 Z-2.000 I0.155 J-0.374 F400.000
G1 X42.336 Y78.469 Z-2.250 F400.000
G2 X42.205 Y77.809 Z-2.250 I-0.286 J-0.286 F400.000
G2 X41.895 Y78.557 Z-2.250 I-0.155 J0.374 F400.000
G2 X42.336 Y78.469 Z-2.250 I0.155 J-0.374 F400.000
G1 X42.336 Y78.469 Z-2.500 F400.000
G2 X42.205 Y77.809 Z-2.500 I-0.286 J-0.286 F400.000
G2 X41.895 Y78.557 Z-2.500 I-0.155 J0.374 F400.000
G2 X42.336 Y78.469 Z-2.500 I0.155 J-0.374 F400.000
G1 X42.336 Y78.469 Z-2.750 F400.000
G2 X42.205 Y77.809 Z-2.750 I-0.286 J-0.286 F400.000
G2 X41.895 Y78.557 Z-2.750 I-0.155 J0.374 F400.000
G2 X42.336 Y78.469 Z-2.750 I0.155 J-0.374 F400.000
G1 X42.336 Y78.469 Z-3.000 F400.000
G2 X42.205 Y77.809 Z-3.000 I-0.286 J-0.286 F400.000
G2 X41.895 Y78.557 Z-3.000 I-0.155 J0.374 F400.000
G2 X42.336 Y78.469 Z-3.000 I0.155 J-0.374 F400.000
G1 X42.336 Y78.469 Z-3.250 F400.000
G2 X42.205 Y77.809 Z-3.250 I-0.286 J-0.286 F400.000
G2 X41.895 Y78.557 Z-3.250 I-0.155 J0.374 F400.000
G2 X42.336 Y78.469 Z-3.250 I0.155 J-0.374 F400.000
G1 X42.336 Y78.469 Z-3.500 F400.000
G2 X42.205 Y77.809 Z-3.500 I-0.286 J-0.286 F400.000
G2 X41.895 Y78.557 Z-3.500 I-0.155 J0.374 F400.000
G2 X42.336 Y78.469 Z-3.500 I0.155 J-0.374 F400.000
G0 Z5.250
G0 Z5.250
G0 X42.336 Y78.469
G0 X42.054 Y107.778
G0 X42.054 Y107.778 Z3.250
G1 X42.054 Y107.778 Z0.000 F400.000
G2 X41.895 Y108.557 Z0.000 I-0.004 J0.405 F400.000
G2 X42.424 Y108.338 Z0.000 I0.155 J-0.374 F400.000
G2 X42.205 Y107.809 Z0.000 I-0.374 J-0.155 F400.000
G2 X42.054 Y107.778 Z0.000 I-0.155 J0.374 F400.000
G1 X42.054 Y107.778 Z-0.250 F400.000
G2 X41.895 Y108.557 Z-0.250 I-0.004 J0.405 F400.000
G2 X42.424 Y108.338 Z-0.250 I0.155 J-0.374 F400.000
G2 X42.205 Y107.809 Z-0.250 I-0.374 J-0.155 F400.000
G2 X42.054 Y107.778 Z-0.250 I-0.155 J0.374 F400.000
G1 X42.054 Y107.778 Z-0.500 F400.000
G2 X41.895 Y108.557 Z-0.500 I-0.004 J0.405 F400.000
G2 X42.424 Y108.338 Z-0.500 I0.155 J-0.374 F400.000
G2 X42.205 Y107.809 Z-0.500 I-0.374 J-0.155 F400.000
G2 X42.054 Y107.778 Z-0.500 I-0.155 J0.374 F400.000
G1 X42.054 Y107.778 Z-0.750 F400.000
G2 X41.895 Y108.557 Z-0.750 I-0.004 J0.405 F400.000
G2 X42.424 Y108.338 Z-0.750 I0.155 J-0.374 F400.000
G2 X42.205 Y107.809 Z-0.750 I-0.374 J-0.155 F400.000
G2 X42.054 Y107.778 Z-0.750 I-0.155 J0.374 F400.000
G1 X42.054 Y107.778 Z-1.000 F400.000
G2 X41.895 Y108.557 Z-1.000 I-0.004 J0.405 F400.000
G2 X42.424 Y108.338 Z-1.000 I0.155 J-0.374 F400.000
G2 X42.205 Y107.809 Z-1.000 I-0.374 J-0.155 F400.000
G2 X42.054 Y107.778 Z-1.000 I-0.155 J0.374 F400.000
G1 X42.054 Y107.778 Z-1.250 F400.000
G2 X41.895 Y108.557 Z-1.250 I-0.004 J0.405 F400.000
G2 X42.424 Y108.338 Z-1.250 I0.155 J-0.374 F400.000
G2 X42.205 Y107.809 Z-1.250 I-0.374 J-0.155 F400.000
G2 X42.054 Y107.778 Z-1.250 I-0.155 J0.374 F400.000
G1 X42.054 Y107.778 Z-1.500 F400.000
G2 X41.895 Y108.557 Z-1.500 I-0.004 J0.405 F400.000
G2 X42.424 Y108.338 Z-1.500 I0.155 J-0.374 F400.000
G2 X42.205 Y107.809 Z-1.500 I-0.374 J-0.155 F400.000
G2 X42.054 Y107.778 Z-1.500 I-0.155 J0.374 F400.000
G1 X42.054 Y107.778 Z-1.750 F400.000
G2 X41.895 Y108.557 Z-1.750 I-0.004 J0.405 F400.000
G2 X42.424 Y108.338 Z-1.750 I0.155 J-0.374 F400.000
G2 X42.205 Y107.809 Z-1.750 I-0.374 J-0.155 F400.000
G2 X42.054 Y107.778 Z-1.750 I-0.155 J0.374 F400.000
G1 X42.054 Y107.778 Z-2.000 F400.000
G2 X41.895 Y108.557 Z-2.000 I-0.004 J0.405 F400.000
G2 X42.424 Y108.338 Z-2.000 I0.155 J-0.374 F400.000
G2 X42.205 Y107.809 Z-2.000 I-0.374 J-0.155 F400.000
G2 X42.054 Y107.778 Z-2.000 I-0.155 J0.374 F400.000
G1 X42.054 Y107.778 Z-2.250 F400.000
G2 X41.895 Y108.557 Z-2.250 I-0.004 J0.405 F400.000
G2 X42.424 Y108.338 Z-2.250 I0.155 J-0.374 F400.000
G2 X42.205 Y107.809 Z-2.250 I-0.374 J-0.155 F400.000
G2 X42.054 Y107.778 Z-2.250 I-0.155 J0.374 F400.000
G1 X42.054 Y107.778 Z-2.500 F400.000
G2 X41.895 Y108.557 Z-2.500 I-0.004 J0.405 F400.000
G2 X42.424 Y108.338 Z-2.500 I0.155 J-0.374 F400.000
G2 X42.205 Y107.809 Z-2.500 I-0.374 J-0.155 F400.000
G2 X42.054 Y107.778 Z-2.500 I-0.155 J0.374 F400.000
G1 X42.054 Y107.778 Z-2.750 F400.000
G2 X41.895 Y108.557 Z-2.750 I-0.004 J0.405 F400.000
G2 X42.424 Y108.338 Z-2.750 I0.155 J-0.374 F400.000
G2 X42.205 Y107.809 Z-2.750 I-0.374 J-0.155 F400.000
G2 X42.054 Y107.778 Z-2.750 I-0.155 J0.374 F400.000
G1 X42.054 Y107.778 Z-3.000 F400.000
G2 X41.895 Y108.557 Z-3.000 I-0.004 J0.405 F400.000
G2 X42.424 Y108.338 Z-3.000 I0.155 J-0.374 F400.000
G2 X42.205 Y107.809 Z-3.000 I-0.374 J-0.155 F400.000
G2 X42.054 Y107.778 Z-3.000 I-0.155 J0.374 F400.000
G1 X42.054 Y107.778 Z-3.250 F400.000
G2 X41.895 Y108.557 Z-3.250 I-0.004 J0.405 F400.000
G2 X42.424 Y108.338 Z-3.250 I0.155 J-0.374 F400.000
G2 X42.205 Y107.809 Z-3.250 I-0.374 J-0.155 F400.000
G2 X42.054 Y107.778 Z-3.250 I-0.155 J0.374 F400.000
G1 X42.054 Y107.778 Z-3.500 F400.000
G2 X41.895 Y108.557 Z-3.500 I-0.004 J0.405 F400.000
G2 X42.424 Y108.338 Z-3.500 I0.155 J-0.374 F400.000
G2 X42.205 Y107.809 Z-3.500 I-0.374 J-0.155 F400.000
G2 X42.054 Y107.778 Z-3.500 I-0.155 J0.374 F400.000
G0 Z5.250
G0 Z5.250
G0 X42.054 Y107.778
G0 X44.565 Y125.785
G0 X44.565 Y125.785 Z3.250
G1 X44.565 Y125.785 Z0.000 F400.000
G2 X44.466 Y126.560 Z0.000 I0.056 J0.401 F400.000
G2 X44.776 Y125.812 Z0.000 I0.155 J-0.374 F400.000
G2 X44.565 Y125.785 Z0.000 I-0.155 J0.374 F400.000
G1 X44.565 Y125.785 Z-0.250 F400.000
G2 X44.466 Y126.560 Z-0.250 I0.056 J0.401 F400.000
G2 X44.776 Y125.812 Z-0.250 I0.155 J-0.374 F400.000
G2 X44.565 Y125.785 Z-0.250 I-0.155 J0.374 F400.000
G1 X44.565 Y125.785 Z-0.500 F400.000
G2 X44.466 Y126.560 Z-0.500 I0.056 J0.401 F400.000
G2 X44.776 Y125.812 Z-0.500 I0.155 J-0.374 F400.000
G2 X44.565 Y125.785 Z-0.500 I-0.155 J0.374 F400.000
G1 X44.565 Y125.785 Z-0.750 F400.000
G2 X44.466 Y126.560 Z-0.750 I0.056 J0.401 F400.000
G2 X44.776 Y125.812 Z-0.750 I0.155 J-0.374 F400.000
G2 X44.565 Y125.785 Z-0.750 I-0.155 J0.374 F400.000
G1 X44.565 Y125.785 Z-1.000 F400.000
G2 X44.466 Y126.560 Z-1.000 I0.056 J0.401 F400.000
G2 X44.776 Y125.812 Z-1.000 I0.155 J-0.374 F400.000
G2 X44.565 Y125.785 Z-1.000 I-0.155 J0.374 F400.000
G1 X44.565 Y125.785 Z-1.250 F400.000
G2 X44.466 Y126.560 Z-1.250 I0.056 J0.401 F400.000
G2 X44.776 Y125.812 Z-1.250 I0.155 J-0.374 F400.000
G2 X44.565 Y125.785 Z-1.250 I-0.155 J0.374 F400.000
G1 X44.565 Y125.785 Z-1.500 F400.000
G2 X44.466 Y126.560 Z-1.500 I0.056 J0.401 F400.000
G2 X44.776 Y125.812 Z-1.500 I0.155 J-0.374 F400.000
G2 X44.565 Y125.785 Z-1.500 I-0.155 J0.374 F400.000
G1 X44.565 Y125.785 Z-1.750 F400.000
G2 X44.466 Y126.560 Z-1.750 I0.056 J0.401 F400.000
G2 X44.776 Y125.812 Z-1.750 I0.155 J-0.374 F400.000
G2 X44.565 Y125.785 Z-1.750 I-0.155 J0.374 F400.000
G1 X44.565 Y125.785 Z-2.000 F400.000
G2 X44.466 Y126.560 Z-2.000 I0.056 J0.401 F400.000
G2 X44.776 Y125.812 Z-2.000 I0.155 J-0.374 F400.000
G2 X44.565 Y125.785 Z-2.000 I-0.155 J0.374 F400.000
G1 X44.565 Y125.785 Z-2.250 F400.000
G2 X44.466 Y126.560 Z-2.250 I0.056 J0.401 F400.000
G2 X44.776 Y125.812 Z-2.250 I0.155 J-0.374 F400.000
G2 X44.565 Y125.785 Z-2.250 I-0.155 J0.374 F400.000
G1 X44.565 Y125.785 Z-2.500 F400.000
G2 X44.466 Y126.560 Z-2.500 I0.056 J0.401 F400.000
G2 X44.776 Y125.812 Z-2.500 I0.155 J-0.374 F400.000
G2 X44.565 Y125.785 Z-2.500 I-0.155 J0.374 F400.000
G1 X44.565 Y125.785 Z-2.750 F400.000
G2 X44.466 Y126.560 Z-2.750 I0.056 J0.401 F400.000
G2 X44.776 Y125.812 Z-2.750 I0.155 J-0.374 F400.000
G2 X44.565 Y125.785 Z-2.750 I-0.155 J0.374 F400.000
G1 X44.565 Y125.785 Z-3.000 F400.000
G2 X44.466 Y126.560 Z-3.000 I0.056 J0.401 F400.000
G2 X44.776 Y125.812 Z-3.000 I0.155 J-0.374 F400.000
G2 X44.565 Y125.785 Z-3.000 I-0.155 J0.374 F400.000
G1 X44.565 Y125.785 Z-3.250 F400.000
G2 X44.466 Y126.560 Z-3.250 I0.056 J0.401 F400.000
G2 X44.776 Y125.812 Z-3.250 I0.155 J-0.374 F400.000
G2 X44.565 Y125.785 Z-3.250 I-0.155 J0.374 F400.000
G1 X44.565 Y125.785 Z-3.500 F400.000
G2 X44.466 Y126.560 Z-3.500 I0.056 J0.401 F400.000
G2 X44.776 Y125.812 Z-3.500 I0.155 J-0.374 F400.000
G2 X44.565 Y125.785 Z-3.500 I-0.155 J0.374 F400.000
G0 Z5.250
G0 Z5.250
G0 X44.565 Y125.785
G0 X13.026 Y126.181
G0 X13.026 Y126.181 Z3.250
G1 X13.026 Y126.181 Z0.000 F400.000
G2 X12.776 Y125.812 Z0.000 I-0.405 J0.005 F400.000
G2 X12.466 Y126.560 Z0.000 I-0.155 J0.374 F400.000
G2 X13.026 Y126.181 Z0.000 I0.155 J-0.374 F400.000
G1 X13.026 Y126.181 Z-0.250 F400.000
G2 X12.776 Y125.812 Z-0.250 I-0.405 J0.005 F400.000
G2 X12.466 Y126.560 Z-0.250 I-0.155 J0.374 F400.000
G2 X13.026 Y126.181 Z-0.250 I0.155 J-0.374 F400.000
G1 X13.026 Y126.181 Z-0.500 F400.000
G2 X12.776 Y125.812 Z-0.500 I-0.405 J0.005 F400.000
G2 X12.466 Y126.560 Z-0.500 I-0.155 J0.374 F400.000
G2 X13.026 Y126.181 Z-0.500 I0.155 J-0.374 F400.000
G1 X13.026 Y126.181 Z-0.750 F400.000
G2 X12.776 Y125.812 Z-0.750 I-0.405 J0.005 F400.000
G2 X12.466 Y126.560 Z-0.750 I-0.155 J0.374 F400.000
G2 X13.026 Y126.181 Z-0.750 I0.155 J-0.374 F400.000
G1 X13.026 Y126.181 Z-1.000 F400.000
G2 X12.776 Y125.812 Z-1.000 I-0.405 J0.005 F400.000
G2 X12.466 Y126.560 Z-1.000 I-0.155 J0.374 F400.000
G2 X13.026 Y126.181 Z-1.000 I0.155 J-0.374 F400.000
G1 X13.026 Y126.181 Z-1.250 F400.000
G2 X12.776 Y125.812 Z-1.250 I-0.405 J0.005 F400.000
G2 X12.466 Y126.560 Z-1.250 I-0.155 J0.374 F400.000
G2 X13.026 Y126.181 Z-1.250 I0.155 J-0.374 F400.000
G1 X13.026 Y126.181 Z-1.500 F400.000
G2 X12.776 Y125.812 Z-1.500 I-0.405 J0.005 F400.000
G2 X12.466 Y126.560 Z-1.500 I-0.155 J0.374 F400.000
G2 X13.026 Y126.181 Z-1.500 I0.155 J-0.374 F400.000
G1 X13.026 Y126.181 Z-1.750 F400.000
G2 X12.776 Y125.812 Z-1.750 I-0.405 J0.005 F400.000
G2 X12.466 Y126.560 Z-1.750 I-0.155 J0.374 F400.000
G2 X13.026 Y126.181 Z-1.750 I0.155 J-0.374 F400.000
G1 X13.026 Y126.181 Z-2.000 F400.000
G2 X12.776 Y125.812 Z-2.000 I-0.405 J0.005 F400.000
G2 X12.466 Y126.560 Z-2.000 I-0.155 J0.374 F400.000
G2 X13.026 Y126.181 Z-2.000 I0.155 J-0.374 F400.000
G1 X13.026 Y126.181 Z-2.250 F400.000
G2 X12.776 Y125.812 Z-2.250 I-0.405 J0.005 F400.000
G2 X12.466 Y126.560 Z-2.250 I-0.155 J0.374 F400.000
G2 X13.026 Y126.181 Z-2.250 I0.155 J-0.374 F400.000
G1 X13.026 Y126.181 Z-2.500 F400.000
G2 X12.776 Y125.812 Z-2.500 I-0.405 J0.005 F400.000
G2 X12.466 Y126.560 Z-2.500 I-0.155 J0.374 F400.000
G2 X13.026 Y126.181 Z-2.500 I0.155 J-0.374 F400.000
G1 X13.026 Y126.181 Z-2.750 F400.000
G2 X12.776 Y125.812 Z-2.750 I-0.405 J0.005 F400.000
G2 X12.466 Y126.560 Z-2.750 I-0.155 J0.374 F400.000
G2 X13.026 Y126.181 Z-2.750 I0.155 J-0.374 F400.000
G1 X13.026 Y126.181 Z-3.000 F400.000
G2 X12.776 Y125.812 Z-3.000 I-0.405 J0.005 F400.000
G2 X12.466 Y126.560 Z-3.000 I-0.155 J0.374 F400.000
G2 X13.026 Y126.181 Z-3.000 I0.155 J-0.374 F400.000
G1 X13.026 Y126.181 Z-3.250 F400.000
G2 X12.776 Y125.812 Z-3.250 I-0.405 J0.005 F400.000
G2 X12.466 Y126.560 Z-3.250 I-0.155 J0.374 F400.000
G2 X13.026 Y126.181 Z-3.250 I0.155 J-0.374 F400.000
G1 X13.026 Y126.181 Z-3.500 F400.000
G2 X12.776 Y125.812 Z-3.500 I-0.405 J0.005 F400.000
G2 X12.466 Y126.560 Z-3.500 I-0.155 J0.374 F400.000
G2 X13.026 Y126.181 Z-3.500 I0.155 J-0.374 F400.000
G0 Z5.250
G0 Z5.250
G0 X13.026 Y126.181
G0 X12.626 Y94.590
G0 X12.626 Y94.590 Z3.250
G1 X12.626 Y94.590 Z0.000 F400.000
G2 X12.776 Y93.812 Z0.000 I-0.005 J-0.405 F400.000
G2 X12.466 Y94.560 Z0.000 I-0.155 J0.374 F400.000
G2 X12.626 Y94.590 Z0.000 I0.155 J-0.374 F400.000
G1 X12.626 Y94.590 Z-0.250 F400.000
G2 X12.776 Y93.812 Z-0.250 I-0.005 J-0.405 F400.000
G2 X12.466 Y94.560 Z-0.250 I-0.155 J0.374 F400.000
G2 X12.626 Y94.590 Z-0.250 I0.155 J-0.374 F400.000
G1 X12.626 Y94.590 Z-0.500 F400.000
G2 X12.776 Y93.812 Z-0.500 I-0.005 J-0.405 F400.000
G2 X12.466 Y94.560 Z-0.500 I-0.155 J0.374 F400.000
G2 X12.626 Y94.590 Z-0.500 I0.155 J-0.374 F400.000
G1 X12.626 Y94.590 Z-0.750 F400.000
G2 X12.776 Y93.812 Z-0.750 I-0.005 J-0.405 F400.000
G2 X12.466 Y94.560 Z-0.750 I-0.155 J0.374 F400.000
G2 X12.626 Y94.590 Z-0.750 I0.155 J-0.374 F400.000
G1 X12.626 Y94.590 Z-1.000 F400.000
G2 X12.776 Y93.812 Z-1.000 I-0.005 J-0.405 F400.000
G2 X12.466 Y94.560 Z-1.000 I-0.155 J0.374 F400.000
G2 X12.626 Y94.590 Z-1.000 I0.155 J-0.374 F400.000
G1 X12.626 Y94.590 Z-1.250 F400.000
G2 X12.776 Y93.812 Z-1.250 I-0.005 J-0.405 F400.000
G2 X12.466 Y94.560 Z-1.250 I-0.155 J0.374 F400.000
G2 X12.626 Y94.590 Z-1.250 I0.155 J-0.374 F400.000
G1 X12.626 Y94.590 Z-1.500 F400.000
G2 X12.776 Y93.812 Z-1.500 I-0.005 J-0.405 F400.000
G2 X12.466 Y94.560 Z-1.500 I-0.155 J0.374 F400.000
G2 X12.626 Y94.590 Z-1.500 I0.155 J-0.374 F400.000
G1 X12.626 Y94.590 Z-1.750 F400.000
G2 X12.776 Y93.812 Z-1.750 I-0.005 J-0.405 F400.000
G2 X12.466 Y94.560 Z-1.750 I-0.155 J0.374 F400.000
G2 X12.626 Y94.590 Z-1.750 I0.155 J-0.374 F400.000
G1 X12.626 Y94.590 Z-2.000 F400.000
G2 X12.776 Y93.812 Z-2.000 I-0.005 J-0.405 F400.000
G2 X12.466 Y94.560 Z-2.000 I-0.155 J0.374 F400.000
G2 X12.626 Y94.590 Z-2.000 I0.155 J-0.374 F400.000
G1 X12.626 Y94.590 Z-2.250 F400.000
G2 X12.776 Y93.812 Z-2.250 I-0.005 J-0.405 F400.000
G2 X12.466 Y94.560 Z-2.250 I-0.155 J0.374 F400.000
G2 X12.626 Y94.590 Z-2.250 I0.155 J-0.374 F400.000
G1 X12.626 Y94.590 Z-2.500 F400.000
G2 X12.776 Y93.812 Z-2.500 I-0.005 J-0.405 F400.000
G2 X12.466 Y94.560 Z-2.500 I-0.155 J0.374 F400.000
G2 X12.626 Y94.590 Z-2.500 I0.155 J-0.374 F400.000
G1 X12.626 Y94.590 Z-2.750 F400.000
G2 X12.776 Y93.812 Z-2.750 I-0.005 J-0.405 F400.000
G2 X12.466 Y94.560 Z-2.750 I-0.155 J0.374 F400.000
G2 X12.626 Y94.590 Z-2.750 I0.155 J-0.374 F400.000
G1 X12.626 Y94.590 Z-3.000 F400.000
G2 X12.776 Y93.812 Z-3.000 I-0.005 J-0.405 F400.000
G2 X12.466 Y94.560 Z-3.000 I-0.155 J0.374 F400.000
G2 X12.626 Y94.590 Z-3.000 I0.155 J-0.374 F400.000
G1 X12.626 Y94.590 Z-3.250 F400.000
G2 X12.776 Y93.812 Z-3.250 I-0.005 J-0.405 F400.000
G2 X12.466 Y94.560 Z-3.250 I-0.155 J0.374 F400.000
G2 X12.626 Y94.590 Z-3.250 I0.155 J-0.374 F400.000
G1 X12.626 Y94.590 Z-3.500 F400.000
G2 X12.776 Y93.812 Z-3.500 I-0.005 J-0.405 F400.000
G2 X12.466 Y94.560 Z-3.500 I-0.155 J0.374 F400.000
G2 X12.626 Y94.590 Z-3.500 I0.155 J-0.374 F400.000
G0 Z5.250
G0 Z5.250
G0 X12.626 Y94.590
G0 X187.152 Y126.114
G0 X187.152 Y126.114 Z3.250
G1 X187.152 Y126.114 Z0.000 F400.000
G2 X187.395 Y126.560 Z0.000 I0.398 J0.072 F400.000
G2 X187.705 Y125.812 Z0.000 I0.155 J-0.374 F400.000
G2 X187.152 Y126.114 Z0.000 I-0.155 J0.374 F400.000
G1 X187.152 Y126.114 Z-0.250 F400.000
G2 X187.395 Y126.560 Z-0.250 I0.398 J0.072 F400.000
G2 X187.705 Y125.812 Z-0.250 I0.155 J-0.374 F400.000
G2 X187.152 Y126.114 Z-0.250 I-0.155 J0.374 F400.000
G1 X187.152 Y126.114 Z-0.500 F400.000
G2 X187.395 Y126.560 Z-0.500 I0.398 J0.072 F400.000
G2 X187.705 Y125.812 Z-0.500 I0.155 J-0.374 F400.000
G2 X187.152 Y126.114 Z-0.500 I-0.155 J0.374 F400.000
G1 X187.152 Y126.114 Z-0.750 F400.000
G2 X187.395 Y126.560 Z-0.750 I0.398 J0.072 F400.000
G2 X187.705 Y125.812 Z-0.750 I0.155 J-0.374 F400.000
G2 X187.152 Y126.114 Z-0.750 I-0.155 J0.374 F400.000
G1 X187.152 Y126.114 Z-1.000 F400.000
G2 X187.395 Y126.560 Z-1.000 I0.398 J0.072 F400.000
G2 X187.705 Y125.812 Z-1.000 I0.155 J-0.374 F400.000
G2 X187.152 Y126.114 Z-1.000 I-0.155 J0.374 F400.000
G1 X187.152 Y126.114 Z-1.250 F400.000
G2 X187.395 Y126.560 Z-1.250 I0.398 J0.072 F400.000
G2 X187.705 Y125.812 Z-1.250 I0.155 J-0.374 F400.000
G2 X187.152 Y126.114 Z-1.250 I-0.155 J0.374 F400.000
G1 X187.152 Y126.114 Z-1.500 F400.000
G2 X187.395 Y126.560 Z-1.500 I0.398 J0.072 F400.000
G2 X187.705 Y125.812 Z-1.500 I0.155 J-0.374 F400.000
G2 X187.152 Y126.114 Z-1.500 I-0.155 J0.374 F400.000
G1 X187.152 Y126.114 Z-1.750 F400.000
G2 X187.395 Y126.560 Z-1.750 I0.398 J0.072 F400.000
G2 X187.705 Y125.812 Z-1.750 I0.155 J-0.374 F400.000
G2 X187.152 Y126.114 Z-1.750 I-0.155 J0.374 F400.000
G1 X187.152 Y126.114 Z-2.000 F400.000
G2 X187.395 Y126.560 Z-2.000 I0.398 J0.072 F400.000
G2 X187.705 Y125.812 Z-2.000 I0.155 J-0.374 F400.000
G2 X187.152 Y126.114 Z-2.000 I-0.155 J0.374 F400.000
G1 X187.152 Y126.114 Z-2.250 F400.000
G2 X187.395 Y126.560 Z-2.250 I0.398 J0.072 F400.000
G2 X187.705 Y125.812 Z-2.250 I0.155 J-0.374 F400.000
G2 X187.152 Y126.114 Z-2.250 I-0.155 J0.374 F400.000
G1 X187.152 Y126.114 Z-2.500 F400.000
G2 X187.395 Y126.560 Z-2.500 I0.398 J0.072 F400.000
G2 X187.705 Y125.812 Z-2.500 I0.155 J-0.374 F400.000
G2 X187.152 Y126.114 Z-2.500 I-0.155 J0.374 F400.000
G1 X187.152 Y126.114 Z-2.750 F400.000
G2 X187.395 Y126.560 Z-2.750 I0.398 J0.072 F400.000
G2 X187.705 Y125.812 Z-2.750 I0.155 J-0.374 F400.000
G2 X187.152 Y126.114 Z-2.750 I-0.155 J0.374 F400.000
G1 X187.152 Y126.114 Z-3.000 F400.000
G2 X187.395 Y126.560 Z-3.000 I0.398 J0.072 F400.000
G2 X187.705 Y125.812 Z-3.000 I0.155 J-0.374 F400.000
G2 X187.152 Y126.114 Z-3.000 I-0.155 J0.374 F400.000
G1 X187.152 Y126.114 Z-3.250 F400.000
G2 X187.395 Y126.560 Z-3.250 I0.398 J0.072 F400.000
G2 X187.705 Y125.812 Z-3.250 I0.155 J-0.374 F400.000
G2 X187.152 Y126.114 Z-3.250 I-0.155 J0.374 F400.000
G1 X187.152 Y126.114 Z-3.500 F400.000
G2 X187.395 Y126.560 Z-3.500 I0.398 J0.072 F400.000
G2 X187.705 Y125.812 Z-3.500 I0.155 J-0.374 F400.000
G2 X187.152 Y126.114 Z-3.500 I-0.155 J0.374 F400.000
G0 Z5.250
G0 Z5.250
G0 X187.152 Y126.114
G0 X189.985 Y108.583
G0 X189.985 Y108.583 Z3.250
G1 X189.985 Y108.583 Z0.000 F400.000
G2 X190.205 Y107.809 Z0.000 I0.065 J-0.400 F400.000
G2 X189.676 Y108.028 Z0.000 I-0.155 J0.374 F400.000
G2 X189.895 Y108.557 Z0.000 I0.374 J0.155 F400.000
G2 X189.985 Y108.583 Z0.000 I0.155 J-0.374 F400.000
G1 X189.985 Y108.583 Z-0.250 F400.000
G2 X190.205 Y107.809 Z-0.250 I0.065 J-0.400 F400.000
G2 X189.676 Y108.028 Z-0.250 I-0.155 J0.374 F400.000
G2 X189.895 Y108.557 Z-0.250 I0.374 J0.155 F400.000
G2 X189.985 Y108.583 Z-0.250 I0.155 J-0.374 F400.000
G1 X189.985 Y108.583 Z-0.500 F400.000
G2 X190.205 Y107.809 Z-0.500 I0.065 J-0.400 F400.000
G2 X189.676 Y108.028 Z-0.500 I-0.155 J0.374 F400.000
G2 X189.895 Y108.557 Z-0.500 I0.374 J0.155 F400.000
G2 X189.985 Y108.583 Z-0.500 I0.155 J-0.374 F400.000
G1 X189.985 Y108.583 Z-0.750 F400.000
G2 X190.205 Y107.809 Z-0.750 I0.065 J-0.400 F400.000
G2 X189.676 Y108.028 Z-0.750 I-0.155 J0.374 F400.000
G2 X189.895 Y108.557 Z-0.750 I0.374 J0.155 F400.000
G2 X189.985 Y108.583 Z-0.750 I0.155 J-0.374 F400.000
G1 X189.985 Y108.583 Z-1.000 F400.000
G2 X190.205 Y107.809 Z-1.000 I0.065 J-0.400 F400.000
G2 X189.676 Y108.028 Z-1.000 I-0.155 J0.374 F400.000
G2 X189.895 Y108.557 Z-1.000 I0.374 J0.155 F400.000
G2 X189.985 Y108.583 Z-1.000 I0.155 J-0.374 F400.000
G1 X189.985 Y108.583 Z-1.250 F400.000
G2 X190.205 Y107.809 Z-1.250 I0.065 J-0.400 F400.000
G2 X189.676 Y108.028 Z-1.250 I-0.155 J0.374 F400.000
G2 X189.895 Y108.557 Z-1.250 I0.374 J0.155 F400.000
G2 X189.985 Y108.583 Z-1.250 I0.155 J-0.374 F400.000
G1 X189.985 Y108.583 Z-1.500 F400.000
G2 X190.205 Y107.809 Z-1.500 I0.065 J-0.400 F400.000
G2 X189.676 Y108.028 Z-1.500 I-0.155 J0.374 F400.000
G2 X189.895 Y108.557 Z-1.500 I0.374 J0.155 F400.000
G2 X189.985 Y108.583 Z-1.500 I0.155 J-0.374 F400.000
G1 X189.985 Y108.583 Z-1.750 F400.000
G2 X190.205 Y107.809 Z-1.750 I0.065 J-0.400 F400.000
G2 X189.676 Y108.028 Z-1.750 I-0.155 J0.374 F400.000
G2 X189.895 Y108.557 Z-1.750 I0.374 J0.155 F400.000
G2 X189.985 Y108.583 Z-1.750 I0.155 J-0.374 F400.000
G1 X189.985 Y108.583 Z-2.000 F400.000
G2 X190.205 Y107.809 Z-2.000 I0.065 J-0.400 F400.000
G2 X189.676 Y108.028 Z-2.000 I-0.155 J0.374 F400.000
G2 X189.895 Y108.557 Z-2.000 I0.374 J0.155 F400.000
G2 X189.985 Y108.583 Z-2.000 I0.155 J-0.374 F400.000
G1 X189.985 Y108.583 Z-2.250 F400.000
G2 X190.205 Y107.809 Z-2.250 I0.065 J-0.400 F400.000
G2 X189.676 Y108.028 Z-2.250 I-0.155 J0.374 F400.000
G2 X189.895 Y108.557 Z-2.250 I0.374 J0.155 F400.000
G2 X189.985 Y108.583 Z-2.250 I0.155 J-0.374 F400.000
G1 X189.985 Y108.583 Z-2.500 F400.000
G2 X190.205 Y107.809 Z-2.500 I0.065 J-0.400 F400.000
G2 X189.676 Y108.028 Z-2.500 I-0.155 J0.374 F400.000
G2 X189.895 Y108.557 Z-2.500 I0.374 J0.155 F400.000
G2 X189.985 Y108.583 Z-2.500 I0.155 J-0.374 F400.000
G1 X189.985 Y108.583 Z-2.750 F400.000
G2 X190.205 Y107.809 Z-2.750 I0.065 J-0.400 F400.000
G2 X189.676 Y108.028 Z-2.750 I-0.155 J0.374 F400.000
G2 X189.895 Y108.557 Z-2.750 I0.374 J0.155 F400.000
G2 X189.985 Y108.583 Z-2.750 I0.155 J-0.374 F400.000
G1 X189.985 Y108.583 Z-3.000 F400.000
G2 X190.205 Y107.809 Z-3.000 I0.065 J-0.400 F400.000
G2 X189.676 Y108.028 Z-3.000 I-0.155 J0.374 F400.000
G2 X189.895 Y108.557 Z-3.000 I0.374 J0.155 F400.000
G2 X189.985 Y108.583 Z-3.000 I0.155 J-0.374 F400.000
G1 X189.985 Y108.583 Z-3.250 F400.000
G2 X190.205 Y107.809 Z-3.250 I0.065 J-0.400 F400.000
G2 X189.676 Y108.028 Z-3.250 I-0.155 J0.374 F400.000
G2 X189.895 Y108.557 Z-3.250 I0.374 J0.155 F400.000
G2 X189.985 Y108.583 Z-3.250 I0.155 J-0.374 F400.000
G1 X189.985 Y108.583 Z-3.500 F400.000
G2 X190.205 Y107.809 Z-3.500 I0.065 J-0.400 F400.000
G2 X189.676 Y108.028 Z-3.500 I-0.155 J0.374 F400.000
G2 X189.895 Y108.557 Z-3.500 I0.374 J0.155 F400.000
G2 X189.985 Y108.583 Z-3.500 I0.155 J-0.374 F400.000
G0 Z5.250
G0 Z5.250
G0 X189.985 Y108.583
G0 X190.049 Y78.588
G0 X190.049 Y78.588 Z3.250
G1 X190.049 Y78.588 Z0.000 F400.000
G2 X190.205 Y77.809 Z0.000 I0.001 J-0.405 F400.000
G2 X189.676 Y78.028 Z0.000 I-0.155 J0.374 F400.000
G2 X189.895 Y78.557 Z0.000 I0.374 J0.155 F400.000
G2 X190.049 Y78.588 Z0.000 I0.155 J-0.374 F400.000
G1 X190.049 Y78.588 Z-0.250 F400.000
G2 X190.205 Y77.809 Z-0.250 I0.001 J-0.405 F400.000
G2 X189.676 Y78.028 Z-0.250 I-0.155 J0.374 F400.000
G2 X189.895 Y78.557 Z-0.250 I0.374 J0.155 F400.000
G2 X190.049 Y78.588 Z-0.250 I0.155 J-0.374 F400.000
G1 X190.049 Y78.588 Z-0.500 F400.000
G2 X190.205 Y77.809 Z-0.500 I0.001 J-0.405 F400.000
G2 X189.676 Y78.028 Z-0.500 I-0.155 J0.374 F400.000
G2 X189.895 Y78.557 Z-0.500 I0.374 J0.155 F400.000
G2 X190.049 Y78.588 Z-0.500 I0.155 J-0.374 F400.000
G1 X190.049 Y78.588 Z-0.750 F400.000
G2 X190.205 Y77.809 Z-0.750 I0.001 J-0.405 F400.000
G2 X189.676 Y78.028 Z-0.750 I-0.155 J0.374 F400.000
G2 X189.895 Y78.557 Z-0.750 I0.374 J0.155 F400.000
G2 X190.049 Y78.588 Z-0.750 I0.155 J-0.374 F400.000
G1 X190.049 Y78.588 Z-1.000 F400.000
G2 X190.205 Y77.809 Z-1.000 I0.001 J-0.405 F400.000
G2 X189.676 Y78.028 Z-1.000 I-0.155 J0.374 F400.000
G2 X189.895 Y78.557 Z-1.000 I0.374 J0.155 F400.000
G2 X190.049 Y78.588 Z-1.000 I0.155 J-0.374 F400.000
G1 X190.049 Y78.588 Z-1.250 F400.000
G2 X190.205 Y77.809 Z-1.250 I0.001 J-0.405 F400.000
G2 X189.676 Y78.028 Z-1.250 I-0.155 J0.374 F400.000
G2 X189.895 Y78.557 Z-1.250 I0.374 J0.155 F400.000
G2 X190.049 Y78.588 Z-1.250 I0.155 J-0.374 F400.000
G1 X190.049 Y78.588 Z-1.500 F400.000
G2 X190.205 Y77.809 Z-1.500 I0.001 J-0.405 F400.000
G2 X189.676 Y78.028 Z-1.500 I-0.155 J0.374 F400.000
G2 X189.895 Y78.557 Z-1.500 I0.374 J0.155 F400.000
G2 X190.049 Y78.588 Z-1.500 I0.155 J-0.374 F400.000
G1 X190.049 Y78.588 Z-1.750 F400.000
G2 X190.205 Y77.809 Z-1.750 I0.001 J-0.405 F400.000
G2 X189.676 Y78.028 Z-1.750 I-0.155 J0.374 F400.000
G2 X189.895 Y78.557 Z-1.750 I0.374 J0.155 F400.000
G2 X190.049 Y78.588 Z-1.750 I0.155 J-0.374 F400.000
G1 X190.049 Y78.588 Z-2.000 F400.000
G2 X190.205 Y77.809 Z-2.000 I0.001 J-0.405 F400.000
G2 X189.676 Y78.028 Z-2.000 I-0.155 J0.374 F400.000
G2 X189.895 Y78.557 Z-2.000 I0.374 J0.155 F400.000
G2 X190.049 Y78.588 Z-2.000 I0.155 J-0.374 F400.000
G1 X190.049 Y78.588 Z-2.250 F400.000
G2 X190.205 Y77.809 Z-2.250 I0.001 J-0.405 F400.000
G2 X189.676 Y78.028 Z-2.250 I-0.155 J0.374 F400.000
G2 X189.895 Y78.557 Z-2.250 I0.374 J0.155 F400.000
G2 X190.049 Y78.588 Z-2.250 I0.155 J-0.374 F400.000
G1 X190.049 Y78.588 Z-2.500 F400.000
G2 X190.205 Y77.809 Z-2.500 I0.001 J-0.405 F400.000
G2 X189.676 Y78.028 Z-2.500 I-0.155 J0.374 F400.000
G2 X189.895 Y78.557 Z-2.500 I0.374 J0.155 F400.000
G2 X190.049 Y78.588 Z-2.500 I0.155 J-0.374 F400.000
G1 X190.049 Y78.588 Z-2.750 F400.000
G2 X190.205 Y77.809 Z-2.750 I0.001 J-0.405 F400.000
G2 X189.676 Y78.028 Z-2.750 I-0.155 J0.374 F400.000
G2 X189.895 Y78.557 Z-2.750 I0.374 J0.155 F400.000
G2 X190.049 Y78.588 Z-2.750 I0.155 J-0.374 F400.000
G1 X190.049 Y78.588 Z-3.000 F400.000
G2 X190.205 Y77.809 Z-3.000 I0.001 J-0.405 F400.000
G2 X189.676 Y78.028 Z-3.000 I-0.155 J0.374 F400.000
G2 X189.895 Y78.557 Z-3.000 I0.374 J0.155 F400.000
G2 X190.049 Y78.588 Z-3.000 I0.155 J-0.374 F400.000
G1 X190.049 Y78.588 Z-3.250 F400.000
G2 X190.205 Y77.809 Z-3.250 I0.001 J-0.405 F400.000
G2 X189.676 Y78.028 Z-3.250 I-0.155 J0.374 F400.000
G2 X189.895 Y78.557 Z-3.250 I0.374 J0.155 F400.000
G2 X190.049 Y78.588 Z-3.250 I0.155 J-0.374 F400.000
G1 X190.049 Y78.588 Z-3.500 F400.000
G2 X190.205 Y77.809 Z-3.500 I0.001 J-0.405 F400.000
G2 X189.676 Y78.028 Z-3.500 I-0.155 J0.374 F400.000
G2 X189.895 Y78.557 Z-3.500 I0.374 J0.155 F400.000
G2 X190.049 Y78.588 Z-3.500 I0.155 J-0.374 F400.000
G0 Z5.250
G0 Z5.250
G0 X190.049 Y78.588
G0 X219.192 Y93.996
G0 X219.192 Y93.996 Z3.250
G1 X219.192 Y93.996 Z0.000 F400.000
G2 X219.395 Y94.560 Z0.000 I0.358 J0.189 F400.000
G2 X219.924 Y94.341 Z0.000 I0.155 J-0.374 F400.000
G2 X219.705 Y93.812 Z0.000 I-0.374 J-0.155 F400.000
G2 X219.192 Y93.996 Z0.000 I-0.155 J0.374 F400.000
G1 X219.192 Y93.996 Z-0.250 F400.000
G2 X219.395 Y94.560 Z-0.250 I0.358 J0.189 F400.000
G2 X219.924 Y94.341 Z-0.250 I0.155 J-0.374 F400.000
G2 X219.705 Y93.812 Z-0.250 I-0.374 J-0.155 F400.000
G2 X219.192 Y93.996 Z-0.250 I-0.155 J0.374 F400.000
G1 X219.192 Y93.996 Z-0.500 F400.000
G2 X219.395 Y94.560 Z-0.500 I0.358 J0.189 F400.000
G2 X219.924 Y94.341 Z-0.500 I0.155 J-0.374 F400.000
G2 X219.705 Y93.812 Z-0.500 I-0.374 J-0.155 F400.000
G2 X219.192 Y93.996 Z-0.500 I-0.155 J0.374 F400.000
G1 X219.192 Y93.996 Z-0.750 F400.000
G2 X219.395 Y94.560 Z-0.750 I0.358 J0.189 F400.000
G2 X219.924 Y94.341 Z-0.750 I0.155 J-0.374 F400.000
G2 X219.705 Y93.812 Z-0.750 I-0.374 J-0.155 F400.000
G2 X219.192 Y93.996 Z-0.750 I-0.155 J0.374 F400.000
G1 X219.192 Y93.996 Z-1.000 F400.000
G2 X219.395 Y94.560 Z-1.000 I0.358 J0.189 F400.000
G2 X219.924 Y94.341 Z-1.000 I0.155 J-0.374 F400.000
G2 X219.705 Y93.812 Z-1.000 I-0.374 J-0.155 F400.000
G2 X219.192 Y93.996 Z-1.000 I-0.155 J0.374 F400.000
G1 X219.192 Y93.996 Z-1.250 F400.000
G2 X219.395 Y94.560 Z-1.250 I0.358 J0.189 F400.000
G2 X219.924 Y94.341 Z-1.250 I0.155 J-0.374 F400.000
G2 X219.705 Y93.812 Z-1.250 I-0.374 J-0.155 F400.000
G2 X219.192 Y93.996 Z-1.250 I-0.155 J0.374 F400.000
G1 X219.192 Y93.996 Z-1.500 F400.000
G2 X219.395 Y94.560 Z-1.500 I0.358 J0.189 F400.000
G2 X219.924 Y94.341 Z-1.500 I0.155 J-0.374 F400.000
G2 X219.705 Y93.812 Z-1.500 I-0.374 J-0.155 F400.000
G2 X219.192 Y93.996 Z-1.500 I-0.155 J0.374 F400.000
G1 X219.192 Y93.996 Z-1.750 F400.000
G2 X219.395 Y94.560 Z-1.750 I0.358 J0.189 F400.000
G2 X219.924 Y94.341 Z-1.750 I0.155 J-0.374 F400.000
G2 X219.705 Y93.812 Z-1.750 I-0.374 J-0.155 F400.000
G2 X219.192 Y93.996 Z-1.750 I-0.155 J0.374 F400.000
G1 X219.192 Y93.996 Z-2.000 F400.000
G2 X219.395 Y94.560 Z-2.000 I0.358 J0.189 F400.000
G2 X219.924 Y94.341 Z-2.000 I0.155 J-0.374 F400.000
G2 X219.705 Y93.812 Z-2.000 I-0.374 J-0.155 F400.000
G2 X219.192 Y93.996 Z-2.000 I-0.155 J0.374 F400.000
G1 X219.192 Y93.996 Z-2.250 F400.000
G2 X219.395 Y94.560 Z-2.250 I0.358 J0.189 F400.000
G2 X219.924 Y94.341 Z-2.250 I0.155 J-0.374 F400.000
G2 X219.705 Y93.812 Z-2.250 I-0.374 J-0.155 F400.000
G2 X219.192 Y93.996 Z-2.250 I-0.155 J0.374 F400.000
G1 X219.192 Y93.996 Z-2.500 F400.000
G2 X219.395 Y94.560 Z-2.500 I0.358 J0.189 F400.000
G2 X219.924 Y94.341 Z-2.500 I0.155 J-0.374 F400.000
G2 X219.705 Y93.812 Z-2.500 I-0.374 J-0.155 F400.000
G2 X219.192 Y93.996 Z-2.500 I-0.155 J0.374 F400.000
G1 X219.192 Y93.996 Z-2.750 F400.000
G2 X219.395 Y94.560 Z-2.750 I0.358 J0.189 F400.000
G2 X219.924 Y94.341 Z-2.750 I0.155 J-0.374 F400.000
G2 X219.705 Y93.812 Z-2.750 I-0.374 J-0.155 F400.000
G2 X219.192 Y93.996 Z-2.750 I-0.155 J0.374 F400.000
G1 X219.192 Y93.996 Z-3.000 F400.000
G2 X219.395 Y94.560 Z-3.000 I0.358 J0.189 F400.000
G2 X219.924 Y94.341 Z-3.000 I0.155 J-0.374 F400.000
G2 X219.705 Y93.812 Z-3.000 I-0.374 J-0.155 F400.000
G2 X219.192 Y93.996 Z-3.000 I-0.155 J0.374 F400.000
G1 X219.192 Y93.996 Z-3.250 F400.000
G2 X219.395 Y94.560 Z-3.250 I0.358 J0.189 F400.000
G2 X219.924 Y94.341 Z-3.250 I0.155 J-0.374 F400.000
G2 X219.705 Y93.812 Z-3.250 I-0.374 J-0.155 F400.000
G2 X219.192 Y93.996 Z-3.250 I-0.155 J0.374 F400.000
G1 X219.192 Y93.996 Z-3.500 F400.000
G2 X219.395 Y94.560 Z-3.500 I0.358 J0.189 F400.000
G2 X219.924 Y94.341 Z-3.500 I0.155 J-0.374 F400.000
G2 X219.705 Y93.812 Z-3.500 I-0.374 J-0.155 F400.000
G2 X219.192 Y93.996 Z-3.500 I-0.155 J0.374 F400.000
G0 Z5.250
G0 Z5.250
G0 X219.192 Y93.996
G0 X219.546 Y125.781
G0 X219.546 Y125.781 Z3.250
G1 X219.546 Y125.781 Z0.000 F400.000
G2 X219.395 Y126.560 Z0.000 I0.005 J0.405 F400.000
G2 X219.705 Y125.812 Z0.000 I0.155 J-0.374 F400.000
G2 X219.546 Y125.781 Z0.000 I-0.155 J0.374 F400.000
G1 X219.546 Y125.781 Z-0.250 F400.000
G2 X219.395 Y126.560 Z-0.250 I0.005 J0.405 F400.000
G2 X219.705 Y125.812 Z-0.250 I0.155 J-0.374 F400.000
G2 X219.546 Y125.781 Z-0.250 I-0.155 J0.374 F400.000
G1 X219.546 Y125.781 Z-0.500 F400.000
G2 X219.395 Y126.560 Z-0.500 I0.005 J0.405 F400.000
G2 X219.705 Y125.812 Z-0.500 I0.155 J-0.374 F400.000
G2 X219.546 Y125.781 Z-0.500 I-0.155 J0.374 F400.000
G1 X219.546 Y125.781 Z-0.750 F400.000
G2 X219.395 Y126.560 Z-0.750 I0.005 J0.405 F400.000
G2 X219.705 Y125.812 Z-0.750 I0.155 J-0.374 F400.000
G2 X219.546 Y125.781 Z-0.750 I-0.155 J0.374 F400.000
G1 X219.546 Y125.781 Z-1.000 F400.000
G2 X219.395 Y126.560 Z-1.000 I0.005 J0.405 F400.000
G2 X219.705 Y125.812 Z-1.000 I0.155 J-0.374 F400.000
G2 X219.546 Y125.781 Z-1.000 I-0.155 J0.374 F400.000
G1 X219.546 Y125.781 Z-1.250 F400.000
G2 X219.395 Y126.560 Z-1.250 I0.005 J0.405 F400.000
G2 X219.705 Y125.812 Z-1.250 I0.155 J-0.374 F400.000
G2 X219.546 Y125.781 Z-1.250 I-0.155 J0.374 F400.000
G1 X219.546 Y125.781 Z-1.500 F400.000
G2 X219.395 Y126.560 Z-1.500 I0.005 J0.405 F400.000
G2 X219.705 Y125.812 Z-1.500 I0.155 J-0.374 F400.000
G2 X219.546 Y125.781 Z-1.500 I-0.155 J0.374 F400.000
G1 X219.546 Y125.781 Z-1.750 F400.000
G2 X219.395 Y126.560 Z-1.750 I0.005 J0.405 F400.000
G2 X219.705 Y125.812 Z-1.750 I0.155 J-0.374 F400.000
G2 X219.546 Y125.781 Z-1.750 I-0.155 J0.374 F400.000
G1 X219.546 Y125.781 Z-2.000 F400.000
G2 X219.395 Y126.560 Z-2.000 I0.005 J0.405 F400.000
G2 X219.705 Y125.812 Z-2.000 I0.155 J-0.374 F400.000
G2 X219.546 Y125.781 Z-2.000 I-0.155 J0.374 F400.000
G1 X219.546 Y125.781 Z-2.250 F400.000
G2 X219.395 Y126.560 Z-2.250 I0.005 J0.405 F400.000
G2 X219.705 Y125.812 Z-2.250 I0.155 J-0.374 F400.000
G2 X219.546 Y125.781 Z-2.250 I-0.155 J0.374 F400.000
G1 X219.546 Y125.781 Z-2.500 F400.000
G2 X219.395 Y126.560 Z-2.500 I0.005 J0.405 F400.000
G2 X219.705 Y125.812 Z-2.500 I0.155 J-0.374 F400.000
G2 X219.546 Y125.781 Z-2.500 I-0.155 J0.374 F400.000
G1 X219.546 Y125.781 Z-2.750 F400.000
G2 X219.395 Y126.560 Z-2.750 I0.005 J0.405 F400.000
G2 X219.705 Y125.812 Z-2.750 I0.155 J-0.374 F400.000
G2 X219.546 Y125.781 Z-2.750 I-0.155 J0.374 F400.000
G1 X219.546 Y125.781 Z-3.000 F400.000
G2 X219.395 Y126.560 Z-3.000 I0.005 J0.405 F400.000
G2 X219.705 Y125.812 Z-3.000 I0.155 J-0.374 F400.000
G2 X219.546 Y125.781 Z-3.000 I-0.155 J0.374 F400.000
G1 X219.546 Y125.781 Z-3.250 F400.000
G2 X219.395 Y126.560 Z-3.250 I0.005 J0.405 F400.000
G2 X219.705 Y125.812 Z-3.250 I0.155 J-0.374 F400.000
G2 X219.546 Y125.781 Z-3.250 I-0.155 J0.374 F400.000
G1 X219.546 Y125.781 Z-3.500 F400.000
G2 X219.395 Y126.560 Z-3.500 I0.005 J0.405 F400.000
G2 X219.705 Y125.812 Z-3.500 I0.155 J-0.374 F400.000
G2 X219.546 Y125.781 Z-3.500 I-0.155 J0.374 F400.000
G0 Z5.250
G0 Z5.250
(finish operation: Profile)
(begin operation: Profile005)
(machine: not set, mm/min)
(Profile005)
(Compensated Tool Path. Diameter: 3.175)
G0 Z5.250
G0 X228.673 Y135.308
G0 Z3.250
G1 X228.673 Y135.308 Z0.000 F400.000
G2 X229.138 Y134.186 Z0.000 I-1.123 J-1.123 F400.000
G1 X229.138 Y58.183 Z0.000 F400.000
G2 X227.550 Y56.595 Z0.000 I-1.587 J-0.000 F400.000
G1 X154.280 Y56.595 Z0.000 F400.000
G2 X148.315 Y60.394 Z0.000 I0.005 J6.592 F400.000
G1 X145.949 Y65.634 Z0.000 F400.000
G3 X142.774 Y67.686 Z0.000 I-3.139 J-1.376 F400.000
G1 X125.095 Y67.686 Z0.000 F400.000
G2 X121.500 Y69.835 Z0.000 I0.008 J4.096 F400.000
G1 X120.350 Y72.124 Z0.000 F400.000
G3 X119.442 Y72.686 Z0.000 I-0.866 J-0.385 F400.000
G1 X112.658 Y72.686 Z0.000 F400.000
G3 X111.751 Y72.125 Z0.000 I-0.042 J-0.947 F400.000
G1 X110.661 Y69.945 Z0.000 F400.000
G2 X107.130 Y67.691 Z0.000 I-3.660 J1.839 F400.000
G1 X89.326 Y67.686 Z0.000 F400.000
G3 X86.151 Y65.634 Z0.000 I-0.036 J-3.427 F400.000
G1 X83.825 Y60.475 Z0.000 F400.000
G2 X77.911 Y56.598 Z0.000 I-6.007 J2.714 F400.000
G1 X4.550 Y56.595 Z0.000 F400.000
G2 X2.963 Y58.183 Z0.000 I-0.000 J1.587 F400.000
G1 X2.963 Y134.186 Z0.000 F400.000
G2 X4.550 Y135.773 Z0.000 I1.587 J0.000 F400.000
G1 X227.550 Y135.773 Z0.000 F400.000
G2 X228.673 Y135.308 Z0.000 I0.000 J-1.587 F400.000
G1 X228.673 Y135.308 Z-0.250 F400.000
G2 X229.138 Y134.186 Z-0.250 I-1.123 J-1.123 F400.000
G1 X229.138 Y58.183 Z-0.250 F400.000
G2 X227.550 Y56.595 Z-0.250 I-1.587 J-0.000 F400.000
G1 X154.280 Y56.595 Z-0.250 F400.000
G2 X148.315 Y60.394 Z-0.250 I0.005 J6.592 F400.000
G1 X145.949 Y65.634 Z-0.250 F400.000
G3 X142.774 Y67.686 Z-0.250 I-3.139 J-1.376 F400.000
G1 X125.095 Y67.686 Z-0.250 F400.000
G2 X121.500 Y69.835 Z-0.250 I0.008 J4.096 F400.000
G1 X120.350 Y72.124 Z-0.250 F400.000
G3 X119.442 Y72.686 Z-0.250 I-0.866 J-0.385 F400.000
G1 X112.658 Y72.686 Z-0.250 F400.000
G3 X111.751 Y72.125 Z-0.250 I-0.042 J-0.947 F400.000
G1 X110.661 Y69.945 Z-0.250 F400.000
G2 X107.130 Y67.691 Z-0.250 I-3.660 J1.839 F400.000
G1 X89.326 Y67.686 Z-0.250 F400.000
G3 X86.151 Y65.634 Z-0.250 I-0.036 J-3.427 F400.000
G1 X83.825 Y60.475 Z-0.250 F400.000
G2 X77.911 Y56.598 Z-0.250 I-6.007 J2.714 F400.000
G1 X4.550 Y56.595 Z-0.250 F400.000
G2 X2.963 Y58.183 Z-0.250 I-0.000 J1.587 F400.000
G1 X2.963 Y134.186 Z-0.250 F400.000
G2 X4.550 Y135.773 Z-0.250 I1.587 J0.000 F400.000
G1 X227.550 Y135.773 Z-0.250 F400.000
G2 X228.673 Y135.308 Z-0.250 I0.000 J-1.587 F400.000
G1 X228.673 Y135.308 Z-0.500 F400.000
G2 X229.138 Y134.186 Z-0.500 I-1.123 J-1.123 F400.000
G1 X229.138 Y58.183 Z-0.500 F400.000
G2 X227.550 Y56.595 Z-0.500 I-1.587 J-0.000 F400.000
G1 X154.280 Y56.595 Z-0.500 F400.000
G2 X148.315 Y60.394 Z-0.500 I0.005 J6.592 F400.000
G1 X145.949 Y65.634 Z-0.500 F400.000
G3 X142.774 Y67.686 Z-0.500 I-3.139 J-1.376 F400.000
G1 X125.095 Y67.686 Z-0.500 F400.000
G2 X121.500 Y69.835 Z-0.500 I0.008 J4.096 F400.000
G1 X120.350 Y72.124 Z-0.500 F400.000
G3 X119.442 Y72.686 Z-0.500 I-0.866 J-0.385 F400.000
G1 X112.658 Y72.686 Z-0.500 F400.000
G3 X111.751 Y72.125 Z-0.500 I-0.042 J-0.947 F400.000
G1 X110.661 Y69.945 Z-0.500 F400.000
G2 X107.130 Y67.691 Z-0.500 I-3.660 J1.839 F400.000
G1 X89.326 Y67.686 Z-0.500 F400.000
G3 X86.151 Y65.634 Z-0.500 I-0.036 J-3.427 F400.000
G1 X83.825 Y60.475 Z-0.500 F400.000
G2 X77.911 Y56.598 Z-0.500 I-6.007 J2.714 F400.000
G1 X4.550 Y56.595 Z-0.500 F400.000
G2 X2.963 Y58.183 Z-0.500 I-0.000 J1.587 F400.000
G1 X2.963 Y134.186 Z-0.500 F400.000
G2 X4.550 Y135.773 Z-0.500 I1.587 J0.000 F400.000
G1 X227.550 Y135.773 Z-0.500 F400.000
G2 X228.673 Y135.308 Z-0.500 I0.000 J-1.587 F400.000
G1 X228.673 Y135.308 Z-0.750 F400.000
G2 X229.138 Y134.186 Z-0.750 I-1.123 J-1.123 F400.000
G1 X229.138 Y58.183 Z-0.750 F400.000
G2 X227.550 Y56.595 Z-0.750 I-1.587 J-0.000 F400.000
G1 X154.280 Y56.595 Z-0.750 F400.000
G2 X148.315 Y60.394 Z-0.750 I0.005 J6.592 F400.000
G1 X145.949 Y65.634 Z-0.750 F400.000
G3 X142.774 Y67.686 Z-0.750 I-3.139 J-1.376 F400.000
G1 X125.095 Y67.686 Z-0.750 F400.000
G2 X121.500 Y69.835 Z-0.750 I0.008 J4.096 F400.000
G1 X120.350 Y72.124 Z-0.750 F400.000
G3 X119.442 Y72.686 Z-0.750 I-0.866 J-0.385 F400.000
G1 X112.658 Y72.686 Z-0.750 F400.000
G3 X111.751 Y72.125 Z-0.750 I-0.042 J-0.947 F400.000
G1 X110.661 Y69.945 Z-0.750 F400.000
G2 X107.130 Y67.691 Z-0.750 I-3.660 J1.839 F400.000
G1 X89.326 Y67.686 Z-0.750 F400.000
G3 X86.151 Y65.634 Z-0.750 I-0.036 J-3.427 F400.000
G1 X83.825 Y60.475 Z-0.750 F400.000
G2 X77.911 Y56.598 Z-0.750 I-6.007 J2.714 F400.000
G1 X4.550 Y56.595 Z-0.750 F400.000
G2 X2.963 Y58.183 Z-0.750 I-0.000 J1.587 F400.000
G1 X2.963 Y134.186 Z-0.750 F400.000
G2 X4.550 Y135.773 Z-0.750 I1.587 J0.000 F400.000
G1 X227.550 Y135.773 Z-0.750 F400.000
G2 X228.673 Y135.308 Z-0.750 I0.000 J-1.587 F400.000
G1 X228.673 Y135.308 Z-1.000 F400.000
G2 X229.138 Y134.186 Z-1.000 I-1.123 J-1.123 F400.000
G1 X229.138 Y58.183 Z-1.000 F400.000
G2 X227.550 Y56.595 Z-1.000 I-1.587 J-0.000 F400.000
G1 X154.280 Y56.595 Z-1.000 F400.000
G2 X148.315 Y60.394 Z-1.000 I0.005 J6.592 F400.000
G1 X145.949 Y65.634 Z-1.000 F400.000
G3 X142.774 Y67.686 Z-1.000 I-3.139 J-1.376 F400.000
G1 X125.095 Y67.686 Z-1.000 F400.000
G2 X121.500 Y69.835 Z-1.000 I0.008 J4.096 F400.000
G1 X120.350 Y72.124 Z-1.000 F400.000
G3 X119.442 Y72.686 Z-1.000 I-0.866 J-0.385 F400.000
G1 X112.658 Y72.686 Z-1.000 F400.000
G3 X111.751 Y72.125 Z-1.000 I-0.042 J-0.947 F400.000
G1 X110.661 Y69.945 Z-1.000 F400.000
G2 X107.130 Y67.691 Z-1.000 I-3.660 J1.839 F400.000
G1 X89.326 Y67.686 Z-1.000 F400.000
G3 X86.151 Y65.634 Z-1.000 I-0.036 J-3.427 F400.000
G1 X83.825 Y60.475 Z-1.000 F400.000
G2 X77.911 Y56.598 Z-1.000 I-6.007 J2.714 F400.000
G1 X4.550 Y56.595 Z-1.000 F400.000
G2 X2.963 Y58.183 Z-1.000 I-0.000 J1.587 F400.000
G1 X2.963 Y134.186 Z-1.000 F400.000
G2 X4.550 Y135.773 Z-1.000 I1.587 J0.000 F400.000
G1 X227.550 Y135.773 Z-1.000 F400.000
G2 X228.673 Y135.308 Z-1.000 I0.000 J-1.587 F400.000
G1 X228.673 Y135.308 Z-1.250 F400.000
G2 X229.138 Y134.186 Z-1.250 I-1.123 J-1.123 F400.000
G1 X229.138 Y58.183 Z-1.250 F400.000
G2 X227.550 Y56.595 Z-1.250 I-1.587 J-0.000 F400.000
G1 X154.280 Y56.595 Z-1.250 F400.000
G2 X148.315 Y60.394 Z-1.250 I0.005 J6.592 F400.000
G1 X145.949 Y65.634 Z-1.250 F400.000
G3 X142.774 Y67.686 Z-1.250 I-3.139 J-1.376 F400.000
G1 X125.095 Y67.686 Z-1.250 F400.000
G2 X121.500 Y69.835 Z-1.250 I0.008 J4.096 F400.000
G1 X120.350 Y72.124 Z-1.250 F400.000
G3 X119.442 Y72.686 Z-1.250 I-0.866 J-0.385 F400.000
G1 X112.658 Y72.686 Z-1.250 F400.000
G3 X111.751 Y72.125 Z-1.250 I-0.042 J-0.947 F400.000
G1 X110.661 Y69.945 Z-1.250 F400.000
G2 X107.130 Y67.691 Z-1.250 I-3.660 J1.839 F400.000
G1 X89.326 Y67.686 Z-1.250 F400.000
G3 X86.151 Y65.634 Z-1.250 I-0.036 J-3.427 F400.000
G1 X83.825 Y60.475 Z-1.250 F400.000
G2 X77.911 Y56.598 Z-1.250 I-6.007 J2.714 F400.000
G1 X4.550 Y56.595 Z-1.250 F400.000
G2 X2.963 Y58.183 Z-1.250 I-0.000 J1.587 F400.000
G1 X2.963 Y134.186 Z-1.250 F400.000
G2 X4.550 Y135.773 Z-1.250 I1.587 J0.000 F400.000
G1 X227.550 Y135.773 Z-1.250 F400.000
G2 X228.673 Y135.308 Z-1.250 I0.000 J-1.587 F400.000
G1 X228.673 Y135.308 Z-1.500 F400.000
G2 X229.138 Y134.186 Z-1.500 I-1.123 J-1.123 F400.000
G1 X229.138 Y58.183 Z-1.500 F400.000
G2 X227.550 Y56.595 Z-1.500 I-1.587 J-0.000 F400.000
G1 X154.280 Y56.595 Z-1.500 F400.000
G2 X148.315 Y60.394 Z-1.500 I0.005 J6.592 F400.000
G1 X145.949 Y65.634 Z-1.500 F400.000
G3 X142.774 Y67.686 Z-1.500 I-3.139 J-1.376 F400.000
G1 X125.095 Y67.686 Z-1.500 F400.000
G2 X121.500 Y69.835 Z-1.500 I0.008 J4.096 F400.000
G1 X120.350 Y72.124 Z-1.500 F400.000
G3 X119.442 Y72.686 Z-1.500 I-0.866 J-0.385 F400.000
G1 X112.658 Y72.686 Z-1.500 F400.000
G3 X111.751 Y72.125 Z-1.500 I-0.042 J-0.947 F400.000
G1 X110.661 Y69.945 Z-1.500 F400.000
G2 X107.130 Y67.691 Z-1.500 I-3.660 J1.839 F400.000
G1 X89.326 Y67.686 Z-1.500 F400.000
G3 X86.151 Y65.634 Z-1.500 I-0.036 J-3.427 F400.000
G1 X83.825 Y60.475 Z-1.500 F400.000
G2 X77.911 Y56.598 Z-1.500 I-6.007 J2.714 F400.000
G1 X4.550 Y56.595 Z-1.500 F400.000
G2 X2.963 Y58.183 Z-1.500 I-0.000 J1.587 F400.000
G1 X2.963 Y134.186 Z-1.500 F400.000
G2 X4.550 Y135.773 Z-1.500 I1.587 J0.000 F400.000
G1 X227.550 Y135.773 Z-1.500 F400.000
G2 X228.673 Y135.308 Z-1.500 I0.000 J-1.587 F400.000
G1 X228.673 Y135.308 Z-1.750 F400.000
G2 X229.138 Y134.186 Z-1.750 I-1.123 J-1.123 F400.000
G1 X229.138 Y58.183 Z-1.750 F400.000
G2 X227.550 Y56.595 Z-1.750 I-1.587 J-0.000 F400.000
G1 X154.280 Y56.595 Z-1.750 F400.000
G2 X148.315 Y60.394 Z-1.750 I0.005 J6.592 F400.000
G1 X145.949 Y65.634 Z-1.750 F400.000
G3 X142.774 Y67.686 Z-1.750 I-3.139 J-1.376 F400.000
G1 X125.095 Y67.686 Z-1.750 F400.000
G2 X121.500 Y69.835 Z-1.750 I0.008 J4.096 F400.000
G1 X120.350 Y72.124 Z-1.750 F400.000
G3 X119.442 Y72.686 Z-1.750 I-0.866 J-0.385 F400.000
G1 X112.658 Y72.686 Z-1.750 F400.000
G3 X111.751 Y72.125 Z-1.750 I-0.042 J-0.947 F400.000
G1 X110.661 Y69.945 Z-1.750 F400.000
G2 X107.130 Y67.691 Z-1.750 I-3.660 J1.839 F400.000
G1 X89.326 Y67.686 Z-1.750 F400.000
G3 X86.151 Y65.634 Z-1.750 I-0.036 J-3.427 F400.000
G1 X83.825 Y60.475 Z-1.750 F400.000
G2 X77.911 Y56.598 Z-1.750 I-6.007 J2.714 F400.000
G1 X4.550 Y56.595 Z-1.750 F400.000
G2 X2.963 Y58.183 Z-1.750 I-0.000 J1.587 F400.000
G1 X2.963 Y134.186 Z-1.750 F400.000
G2 X4.550 Y135.773 Z-1.750 I1.587 J0.000 F400.000
G1 X227.550 Y135.773 Z-1.750 F400.000
G2 X228.673 Y135.308 Z-1.750 I0.000 J-1.587 F400.000
G1 X228.673 Y135.308 Z-2.000 F400.000
G2 X229.138 Y134.186 Z-2.000 I-1.123 J-1.123 F400.000
G1 X229.138 Y58.183 Z-2.000 F400.000
G2 X227.550 Y56.595 Z-2.000 I-1.587 J-0.000 F400.000
G1 X154.280 Y56.595 Z-2.000 F400.000
G2 X148.315 Y60.394 Z-2.000 I0.005 J6.592 F400.000
G1 X145.949 Y65.634 Z-2.000 F400.000
G3 X142.774 Y67.686 Z-2.000 I-3.139 J-1.376 F400.000
G1 X125.095 Y67.686 Z-2.000 F400.000
G2 X121.500 Y69.835 Z-2.000 I0.008 J4.096 F400.000
G1 X120.350 Y72.124 Z-2.000 F400.000
G3 X119.442 Y72.686 Z-2.000 I-0.866 J-0.385 F400.000
G1 X112.658 Y72.686 Z-2.000 F400.000
G3 X111.751 Y72.125 Z-2.000 I-0.042 J-0.947 F400.000
G1 X110.661 Y69.945 Z-2.000 F400.000
G2 X107.130 Y67.691 Z-2.000 I-3.660 J1.839 F400.000
G1 X89.326 Y67.686 Z-2.000 F400.000
G3 X86.151 Y65.634 Z-2.000 I-0.036 J-3.427 F400.000
G1 X83.825 Y60.475 Z-2.000 F400.000
G2 X77.911 Y56.598 Z-2.000 I-6.007 J2.714 F400.000
G1 X4.550 Y56.595 Z-2.000 F400.000
G2 X2.963 Y58.183 Z-2.000 I-0.000 J1.587 F400.000
G1 X2.963 Y134.186 Z-2.000 F400.000
G2 X4.550 Y135.773 Z-2.000 I1.587 J0.000 F400.000
G1 X227.550 Y135.773 Z-2.000 F400.000
G2 X228.673 Y135.308 Z-2.000 I0.000 J-1.587 F400.000
G1 X228.673 Y135.308 Z-2.250 F400.000
G2 X229.138 Y134.186 Z-2.250 I-1.123 J-1.123 F400.000
G1 X229.138 Y58.183 Z-2.250 F400.000
G2 X227.550 Y56.595 Z-2.250 I-1.587 J-0.000 F400.000
G1 X154.280 Y56.595 Z-2.250 F400.000
G2 X148.315 Y60.394 Z-2.250 I0.005 J6.592 F400.000
G1 X145.949 Y65.634 Z-2.250 F400.000
G3 X142.774 Y67.686 Z-2.250 I-3.139 J-1.376 F400.000
G1 X125.095 Y67.686 Z-2.250 F400.000
G2 X121.500 Y69.835 Z-2.250 I0.008 J4.096 F400.000
G1 X120.350 Y72.124 Z-2.250 F400.000
G3 X119.442 Y72.686 Z-2.250 I-0.866 J-0.385 F400.000
G1 X112.658 Y72.686 Z-2.250 F400.000
G3 X111.751 Y72.125 Z-2.250 I-0.042 J-0.947 F400.000
G1 X110.661 Y69.945 Z-2.250 F400.000
G2 X107.130 Y67.691 Z-2.250 I-3.660 J1.839 F400.000
G1 X89.326 Y67.686 Z-2.250 F400.000
G3 X86.151 Y65.634 Z-2.250 I-0.036 J-3.427 F400.000
G1 X83.825 Y60.475 Z-2.250 F400.000
G2 X77.911 Y56.598 Z-2.250 I-6.007 J2.714 F400.000
G1 X4.550 Y56.595 Z-2.250 F400.000
G2 X2.963 Y58.183 Z-2.250 I-0.000 J1.587 F400.000
G1 X2.963 Y134.186 Z-2.250 F400.000
G2 X4.550 Y135.773 Z-2.250 I1.587 J0.000 F400.000
G1 X227.550 Y135.773 Z-2.250 F400.000
G2 X228.673 Y135.308 Z-2.250 I0.000 J-1.587 F400.000
G1 X228.673 Y135.308 Z-2.500 F400.000
G2 X229.138 Y134.186 Z-2.500 I-1.123 J-1.123 F400.000
G1 X229.138 Y58.183 Z-2.500 F400.000
G2 X227.550 Y56.595 Z-2.500 I-1.587 J-0.000 F400.000
G1 X154.280 Y56.595 Z-2.500 F400.000
G2 X148.315 Y60.394 Z-2.500 I0.005 J6.592 F400.000
G1 X145.949 Y65.634 Z-2.500 F400.000
G3 X142.774 Y67.686 Z-2.500 I-3.139 J-1.376 F400.000
G1 X125.095 Y67.686 Z-2.500 F400.000
G2 X121.500 Y69.835 Z-2.500 I0.008 J4.096 F400.000
G1 X120.350 Y72.124 Z-2.500 F400.000
G3 X119.442 Y72.686 Z-2.500 I-0.866 J-0.385 F400.000
G1 X112.658 Y72.686 Z-2.500 F400.000
G3 X111.751 Y72.125 Z-2.500 I-0.042 J-0.947 F400.000
G1 X110.661 Y69.945 Z-2.500 F400.000
G2 X107.130 Y67.691 Z-2.500 I-3.660 J1.839 F400.000
G1 X89.326 Y67.686 Z-2.500 F400.000
G3 X86.151 Y65.634 Z-2.500 I-0.036 J-3.427 F400.000
G1 X83.825 Y60.475 Z-2.500 F400.000
G2 X77.911 Y56.598 Z-2.500 I-6.007 J2.714 F400.000
G1 X4.550 Y56.595 Z-2.500 F400.000
G2 X2.963 Y58.183 Z-2.500 I-0.000 J1.587 F400.000
G1 X2.963 Y134.186 Z-2.500 F400.000
G2 X4.550 Y135.773 Z-2.500 I1.587 J0.000 F400.000
G1 X227.550 Y135.773 Z-2.500 F400.000
G2 X228.673 Y135.308 Z-2.500 I0.000 J-1.587 F400.000
G1 X228.673 Y135.308 Z-2.750 F400.000
G2 X229.138 Y134.186 Z-2.750 I-1.123 J-1.123 F400.000
G1 X229.138 Y58.183 Z-2.750 F400.000
G2 X227.550 Y56.595 Z-2.750 I-1.587 J-0.000 F400.000
G1 X154.280 Y56.595 Z-2.750 F400.000
G2 X148.315 Y60.394 Z-2.750 I0.005 J6.592 F400.000
G1 X145.949 Y65.634 Z-2.750 F400.000
G3 X142.774 Y67.686 Z-2.750 I-3.139 J-1.376 F400.000
G1 X125.095 Y67.686 Z-2.750 F400.000
G2 X121.500 Y69.835 Z-2.750 I0.008 J4.096 F400.000
G1 X120.350 Y72.124 Z-2.750 F400.000
G3 X119.442 Y72.686 Z-2.750 I-0.866 J-0.385 F400.000
G1 X112.658 Y72.686 Z-2.750 F400.000
G3 X111.751 Y72.125 Z-2.750 I-0.042 J-0.947 F400.000
G1 X110.661 Y69.945 Z-2.750 F400.000
G2 X107.130 Y67.691 Z-2.750 I-3.660 J1.839 F400.000
G1 X89.326 Y67.686 Z-2.750 F400.000
G3 X86.151 Y65.634 Z-2.750 I-0.036 J-3.427 F400.000
G1 X83.825 Y60.475 Z-2.750 F400.000
G2 X77.911 Y56.598 Z-2.750 I-6.007 J2.714 F400.000
G1 X4.550 Y56.595 Z-2.750 F400.000
G2 X2.963 Y58.183 Z-2.750 I-0.000 J1.587 F400.000
G1 X2.963 Y134.186 Z-2.750 F400.000
G2 X4.550 Y135.773 Z-2.750 I1.587 J0.000 F400.000
G1 X227.550 Y135.773 Z-2.750 F400.000
G2 X228.673 Y135.308 Z-2.750 I0.000 J-1.587 F400.000
G1 X228.673 Y135.308 Z-3.000 F400.000
G2 X229.138 Y134.186 Z-3.000 I-1.123 J-1.123 F400.000
G1 X229.138 Y58.183 Z-3.000 F400.000
G2 X227.550 Y56.595 Z-3.000 I-1.587 J-0.000 F400.000
G1 X154.280 Y56.595 Z-3.000 F400.000
G2 X148.315 Y60.394 Z-3.000 I0.005 J6.592 F400.000
G1 X145.949 Y65.634 Z-3.000 F400.000
G3 X142.774 Y67.686 Z-3.000 I-3.139 J-1.376 F400.000
G1 X125.095 Y67.686 Z-3.000 F400.000
G2 X121.500 Y69.835 Z-3.000 I0.008 J4.096 F400.000
G1 X120.350 Y72.124 Z-3.000 F400.000
G3 X119.442 Y72.686 Z-3.000 I-0.866 J-0.385 F400.000
G1 X112.658 Y72.686 Z-3.000 F400.000
G3 X111.751 Y72.125 Z-3.000 I-0.042 J-0.947 F400.000
G1 X110.661 Y69.945 Z-3.000 F400.000
G2 X107.130 Y67.691 Z-3.000 I-3.660 J1.839 F400.000
G1 X89.326 Y67.686 Z-3.000 F400.000
G3 X86.151 Y65.634 Z-3.000 I-0.036 J-3.427 F400.000
G1 X83.825 Y60.475 Z-3.000 F400.000
G2 X77.911 Y56.598 Z-3.000 I-6.007 J2.714 F400.000
G1 X4.550 Y56.595 Z-3.000 F400.000
G2 X2.963 Y58.183 Z-3.000 I-0.000 J1.587 F400.000
G1 X2.963 Y134.186 Z-3.000 F400.000
G2 X4.550 Y135.773 Z-3.000 I1.587 J0.000 F400.000
G1 X227.550 Y135.773 Z-3.000 F400.000
G2 X228.673 Y135.308 Z-3.000 I0.000 J-1.587 F400.000
G1 X228.673 Y135.308 Z-3.250 F400.000
G2 X229.138 Y134.186 Z-3.250 I-1.123 J-1.123 F400.000
G1 X229.138 Y58.183 Z-3.250 F400.000
G2 X227.550 Y56.595 Z-3.250 I-1.587 J-0.000 F400.000
G1 X154.280 Y56.595 Z-3.250 F400.000
G2 X148.315 Y60.394 Z-3.250 I0.005 J6.592 F400.000
G1 X145.949 Y65.634 Z-3.250 F400.000
G3 X142.774 Y67.686 Z-3.250 I-3.139 J-1.376 F400.000
G1 X125.095 Y67.686 Z-3.250 F400.000
G2 X121.500 Y69.835 Z-3.250 I0.008 J4.096 F400.000
G1 X120.350 Y72.124 Z-3.250 F400.000
G3 X119.442 Y72.686 Z-3.250 I-0.866 J-0.385 F400.000
G1 X112.658 Y72.686 Z-3.250 F400.000
G3 X111.751 Y72.125 Z-3.250 I-0.042 J-0.947 F400.000
G1 X110.661 Y69.945 Z-3.250 F400.000
G2 X107.130 Y67.691 Z-3.250 I-3.660 J1.839 F400.000
G1 X89.326 Y67.686 Z-3.250 F400.000
G3 X86.151 Y65.634 Z-3.250 I-0.036 J-3.427 F400.000
G1 X83.825 Y60.475 Z-3.250 F400.000
G2 X77.911 Y56.598 Z-3.250 I-6.007 J2.714 F400.000
G1 X4.550 Y56.595 Z-3.250 F400.000
G2 X2.963 Y58.183 Z-3.250 I-0.000 J1.587 F400.000
G1 X2.963 Y134.186 Z-3.250 F400.000
G2 X4.550 Y135.773 Z-3.250 I1.587 J0.000 F400.000
G1 X227.550 Y135.773 Z-3.250 F400.000
G2 X228.673 Y135.308 Z-3.250 I0.000 J-1.587 F400.000
G1 X228.673 Y135.308 Z-3.500 F400.000
G2 X229.138 Y134.186 Z-3.500 I-1.123 J-1.123 F400.000
G1 X229.138 Y58.183 Z-3.500 F400.000
G2 X227.550 Y56.595 Z-3.500 I-1.587 J-0.000 F400.000
G1 X154.280 Y56.595 Z-3.500 F400.000
G2 X148.315 Y60.394 Z-3.500 I0.005 J6.592 F400.000
G1 X145.949 Y65.634 Z-3.500 F400.000
G3 X142.774 Y67.686 Z-3.500 I-3.139 J-1.376 F400.000
G1 X125.095 Y67.686 Z-3.500 F400.000
G2 X121.500 Y69.835 Z-3.500 I0.008 J4.096 F400.000
G1 X120.350 Y72.124 Z-3.500 F400.000
G3 X119.442 Y72.686 Z-3.500 I-0.866 J-0.385 F400.000
G1 X112.658 Y72.686 Z-3.500 F400.000
G3 X111.751 Y72.125 Z-3.500 I-0.042 J-0.947 F400.000
G1 X110.661 Y69.945 Z-3.500 F400.000
G2 X107.130 Y67.691 Z-3.500 I-3.660 J1.839 F400.000
G1 X89.326 Y67.686 Z-3.500 F400.000
G3 X86.151 Y65.634 Z-3.500 I-0.036 J-3.427 F400.000
G1 X83.825 Y60.475 Z-3.500 F400.000
G2 X77.911 Y56.598 Z-3.500 I-6.007 J2.714 F400.000
G1 X4.550 Y56.595 Z-3.500 F400.000
G2 X2.963 Y58.183 Z-3.500 I-0.000 J1.587 F400.000
G1 X2.963 Y134.186 Z-3.500 F400.000
G2 X4.550 Y135.773 Z-3.500 I1.587 J0.000 F400.000
G1 X227.550 Y135.773 Z-3.500 F400.000
G2 X228.673 Y135.308 Z-3.500 I0.000 J-1.587 F400.000
G0 Z5.250
G0 Z5.250
(finish operation: Profile005)
(begin postamble)
M05 M09
G17 G90 G80 G40
M30
