(Exported by FreeCAD)
(Post Processor: script_module)
(Output Time:2024-11-26 17:53:21.622001)
(begin preamble)
%
G17 G21 G40 G49 G80 G90
M08
G21
(begin operation: Fixture)
(machine: not set, mm/min)
G54
(finish operation: Fixture)
(begin operation: 1/8in Endmill001)
(machine: not set, mm/min)
(1/8in Endmill001)
M05
M09M6 T1
M3 S15000
(finish operation: 1/8in Endmill001)
(begin operation: Profile)
(machine: not set, mm/min)
(Profile)
(Compensated Tool Path. Diameter: 3.175)
G0 Z5.250
G0 X15.786 Y21.615
G0 Z3.250
G1 X15.786 Y21.615 Z0.000 F400.000
G2 X15.655 Y20.955 Z0.000 I-0.286 J-0.286 F400.000
G2 X15.345 Y21.703 Z0.000 I-0.155 J0.374 F400.000
G2 X15.786 Y21.615 Z0.000 I0.155 J-0.374 F400.000
G1 X15.786 Y21.615 Z-0.250 F400.000
G2 X15.655 Y20.955 Z-0.250 I-0.286 J-0.286 F400.000
G2 X15.345 Y21.703 Z-0.250 I-0.155 J0.374 F400.000
G2 X15.786 Y21.615 Z-0.250 I0.155 J-0.374 F400.000
G1 X15.786 Y21.615 Z-0.500 F400.000
G2 X15.655 Y20.955 Z-0.500 I-0.286 J-0.286 F400.000
G2 X15.345 Y21.703 Z-0.500 I-0.155 J0.374 F400.000
G2 X15.786 Y21.615 Z-0.500 I0.155 J-0.374 F400.000
G1 X15.786 Y21.615 Z-0.750 F400.000
G2 X15.655 Y20.955 Z-0.750 I-0.286 J-0.286 F400.000
G2 X15.345 Y21.703 Z-0.750 I-0.155 J0.374 F400.000
G2 X15.786 Y21.615 Z-0.750 I0.155 J-0.374 F400.000
G1 X15.786 Y21.615 Z-1.000 F400.000
G2 X15.655 Y20.955 Z-1.000 I-0.286 J-0.286 F400.000
G2 X15.345 Y21.703 Z-1.000 I-0.155 J0.374 F400.000
G2 X15.786 Y21.615 Z-1.000 I0.155 J-0.374 F400.000
G1 X15.786 Y21.615 Z-1.250 F400.000
G2 X15.655 Y20.955 Z-1.250 I-0.286 J-0.286 F400.000
G2 X15.345 Y21.703 Z-1.250 I-0.155 J0.374 F400.000
G2 X15.786 Y21.615 Z-1.250 I0.155 J-0.374 F400.000
G1 X15.786 Y21.615 Z-1.500 F400.000
G2 X15.655 Y20.955 Z-1.500 I-0.286 J-0.286 F400.000
G2 X15.345 Y21.703 Z-1.500 I-0.155 J0.374 F400.000
G2 X15.786 Y21.615 Z-1.500 I0.155 J-0.374 F400.000
G1 X15.786 Y21.615 Z-1.750 F400.000
G2 X15.655 Y20.955 Z-1.750 I-0.286 J-0.286 F400.000
G2 X15.345 Y21.703 Z-1.750 I-0.155 J0.374 F400.000
G2 X15.786 Y21.615 Z-1.750 I0.155 J-0.374 F400.000
G1 X15.786 Y21.615 Z-2.000 F400.000
G2 X15.655 Y20.955 Z-2.000 I-0.286 J-0.286 F400.000
G2 X15.345 Y21.703 Z-2.000 I-0.155 J0.374 F400.000
G2 X15.786 Y21.615 Z-2.000 I0.155 J-0.374 F400.000
G1 X15.786 Y21.615 Z-2.250 F400.000
G2 X15.655 Y20.955 Z-2.250 I-0.286 J-0.286 F400.000
G2 X15.345 Y21.703 Z-2.250 I-0.155 J0.374 F400.000
G2 X15.786 Y21.615 Z-2.250 I0.155 J-0.374 F400.000
G1 X15.786 Y21.615 Z-2.500 F400.000
G2 X15.655 Y20.955 Z-2.500 I-0.286 J-0.286 F400.000
G2 X15.345 Y21.703 Z-2.500 I-0.155 J0.374 F400.000
G2 X15.786 Y21.615 Z-2.500 I0.155 J-0.374 F400.000
G1 X15.786 Y21.615 Z-2.750 F400.000
G2 X15.655 Y20.955 Z-2.750 I-0.286 J-0.286 F400.000
G2 X15.345 Y21.703 Z-2.750 I-0.155 J0.374 F400.000
G2 X15.786 Y21.615 Z-2.750 I0.155 J-0.374 F400.000
G1 X15.786 Y21.615 Z-3.000 F400.000
G2 X15.655 Y20.955 Z-3.000 I-0.286 J-0.286 F400.000
G2 X15.345 Y21.703 Z-3.000 I-0.155 J0.374 F400.000
G2 X15.786 Y21.615 Z-3.000 I0.155 J-0.374 F400.000
G1 X15.786 Y21.615 Z-3.250 F400.000
G2 X15.655 Y20.955 Z-3.250 I-0.286 J-0.286 F400.000
G2 X15.345 Y21.703 Z-3.250 I-0.155 J0.374 F400.000
G2 X15.786 Y21.615 Z-3.250 I0.155 J-0.374 F400.000
G1 X15.786 Y21.615 Z-3.425 F400.000
G2 X15.655 Y20.955 Z-3.425 I-0.286 J-0.286 F400.000
G2 X15.345 Y21.703 Z-3.425 I-0.155 J0.374 F400.000
G2 X15.786 Y21.615 Z-3.425 I0.155 J-0.374 F400.000
G0 Z5.250
G0 Z5.250
G0 X15.786 Y21.615
G0 X15.504 Y52.924
G0 X15.504 Y52.924 Z3.250
G1 X15.504 Y52.924 Z0.000 F400.000
G2 X15.345 Y53.703 Z0.000 I-0.004 J0.405 F400.000
G2 X15.655 Y52.955 Z0.000 I0.155 J-0.374 F400.000
G2 X15.504 Y52.924 Z0.000 I-0.155 J0.374 F400.000
G1 X15.504 Y52.924 Z-0.250 F400.000
G2 X15.345 Y53.703 Z-0.250 I-0.004 J0.405 F400.000
G2 X15.655 Y52.955 Z-0.250 I0.155 J-0.374 F400.000
G2 X15.504 Y52.924 Z-0.250 I-0.155 J0.374 F400.000
G1 X15.504 Y52.924 Z-0.500 F400.000
G2 X15.345 Y53.703 Z-0.500 I-0.004 J0.405 F400.000
G2 X15.655 Y52.955 Z-0.500 I0.155 J-0.374 F400.000
G2 X15.504 Y52.924 Z-0.500 I-0.155 J0.374 F400.000
G1 X15.504 Y52.924 Z-0.750 F400.000
G2 X15.345 Y53.703 Z-0.750 I-0.004 J0.405 F400.000
G2 X15.655 Y52.955 Z-0.750 I0.155 J-0.374 F400.000
G2 X15.504 Y52.924 Z-0.750 I-0.155 J0.374 F400.000
G1 X15.504 Y52.924 Z-1.000 F400.000
G2 X15.345 Y53.703 Z-1.000 I-0.004 J0.405 F400.000
G2 X15.655 Y52.955 Z-1.000 I0.155 J-0.374 F400.000
G2 X15.504 Y52.924 Z-1.000 I-0.155 J0.374 F400.000
G1 X15.504 Y52.924 Z-1.250 F400.000
G2 X15.345 Y53.703 Z-1.250 I-0.004 J0.405 F400.000
G2 X15.655 Y52.955 Z-1.250 I0.155 J-0.374 F400.000
G2 X15.504 Y52.924 Z-1.250 I-0.155 J0.374 F400.000
G1 X15.504 Y52.924 Z-1.500 F400.000
G2 X15.345 Y53.703 Z-1.500 I-0.004 J0.405 F400.000
G2 X15.655 Y52.955 Z-1.500 I0.155 J-0.374 F400.000
G2 X15.504 Y52.924 Z-1.500 I-0.155 J0.374 F400.000
G1 X15.504 Y52.924 Z-1.750 F400.000
G2 X15.345 Y53.703 Z-1.750 I-0.004 J0.405 F400.000
G2 X15.655 Y52.955 Z-1.750 I0.155 J-0.374 F400.000
G2 X15.504 Y52.924 Z-1.750 I-0.155 J0.374 F400.000
G1 X15.504 Y52.924 Z-2.000 F400.000
G2 X15.345 Y53.703 Z-2.000 I-0.004 J0.405 F400.000
G2 X15.655 Y52.955 Z-2.000 I0.155 J-0.374 F400.000
G2 X15.504 Y52.924 Z-2.000 I-0.155 J0.374 F400.000
G1 X15.504 Y52.924 Z-2.250 F400.000
G2 X15.345 Y53.703 Z-2.250 I-0.004 J0.405 F400.000
G2 X15.655 Y52.955 Z-2.250 I0.155 J-0.374 F400.000
G2 X15.504 Y52.924 Z-2.250 I-0.155 J0.374 F400.000
G1 X15.504 Y52.924 Z-2.500 F400.000
G2 X15.345 Y53.703 Z-2.500 I-0.004 J0.405 F400.000
G2 X15.655 Y52.955 Z-2.500 I0.155 J-0.374 F400.000
G2 X15.504 Y52.924 Z-2.500 I-0.155 J0.374 F400.000
G1 X15.504 Y52.924 Z-2.750 F400.000
G2 X15.345 Y53.703 Z-2.750 I-0.004 J0.405 F400.000
G2 X15.655 Y52.955 Z-2.750 I0.155 J-0.374 F400.000
G2 X15.504 Y52.924 Z-2.750 I-0.155 J0.374 F400.000
G1 X15.504 Y52.924 Z-3.000 F400.000
G2 X15.345 Y53.703 Z-3.000 I-0.004 J0.405 F400.000
G2 X15.655 Y52.955 Z-3.000 I0.155 J-0.374 F400.000
G2 X15.504 Y52.924 Z-3.000 I-0.155 J0.374 F400.000
G1 X15.504 Y52.924 Z-3.250 F400.000
G2 X15.345 Y53.703 Z-3.250 I-0.004 J0.405 F400.000
G2 X15.655 Y52.955 Z-3.250 I0.155 J-0.374 F400.000
G2 X15.504 Y52.924 Z-3.250 I-0.155 J0.374 F400.000
G1 X15.504 Y52.924 Z-3.425 F400.000
G2 X15.345 Y53.703 Z-3.425 I-0.004 J0.405 F400.000
G2 X15.655 Y52.955 Z-3.425 I0.155 J-0.374 F400.000
G2 X15.504 Y52.924 Z-3.425 I-0.155 J0.374 F400.000
G0 Z5.250
G0 Z5.250
G0 X15.504 Y52.924
G0 X52.901 Y59.261
G0 X52.901 Y59.261 Z3.250
G1 X52.901 Y59.261 Z0.000 F400.000
G2 X53.145 Y59.703 Z0.000 I0.399 J0.068 F400.000
G2 X53.455 Y58.955 Z0.000 I0.155 J-0.374 F400.000
G2 X52.901 Y59.261 Z0.000 I-0.155 J0.374 F400.000
G1 X52.901 Y59.261 Z-0.250 F400.000
G2 X53.145 Y59.703 Z-0.250 I0.399 J0.068 F400.000
G2 X53.455 Y58.955 Z-0.250 I0.155 J-0.374 F400.000
G2 X52.901 Y59.261 Z-0.250 I-0.155 J0.374 F400.000
G1 X52.901 Y59.261 Z-0.500 F400.000
G2 X53.145 Y59.703 Z-0.500 I0.399 J0.068 F400.000
G2 X53.455 Y58.955 Z-0.500 I0.155 J-0.374 F400.000
G2 X52.901 Y59.261 Z-0.500 I-0.155 J0.374 F400.000
G1 X52.901 Y59.261 Z-0.750 F400.000
G2 X53.145 Y59.703 Z-0.750 I0.399 J0.068 F400.000
G2 X53.455 Y58.955 Z-0.750 I0.155 J-0.374 F400.000
G2 X52.901 Y59.261 Z-0.750 I-0.155 J0.374 F400.000
G1 X52.901 Y59.261 Z-1.000 F400.000
G2 X53.145 Y59.703 Z-1.000 I0.399 J0.068 F400.000
G2 X53.455 Y58.955 Z-1.000 I0.155 J-0.374 F400.000
G2 X52.901 Y59.261 Z-1.000 I-0.155 J0.374 F400.000
G1 X52.901 Y59.261 Z-1.250 F400.000
G2 X53.145 Y59.703 Z-1.250 I0.399 J0.068 F400.000
G2 X53.455 Y58.955 Z-1.250 I0.155 J-0.374 F400.000
G2 X52.901 Y59.261 Z-1.250 I-0.155 J0.374 F400.000
G1 X52.901 Y59.261 Z-1.500 F400.000
G2 X53.145 Y59.703 Z-1.500 I0.399 J0.068 F400.000
G2 X53.455 Y58.955 Z-1.500 I0.155 J-0.374 F400.000
G2 X52.901 Y59.261 Z-1.500 I-0.155 J0.374 F400.000
G1 X52.901 Y59.261 Z-1.750 F400.000
G2 X53.145 Y59.703 Z-1.750 I0.399 J0.068 F400.000
G2 X53.455 Y58.955 Z-1.750 I0.155 J-0.374 F400.000
G2 X52.901 Y59.261 Z-1.750 I-0.155 J0.374 F400.000
G1 X52.901 Y59.261 Z-2.000 F400.000
G2 X53.145 Y59.703 Z-2.000 I0.399 J0.068 F400.000
G2 X53.455 Y58.955 Z-2.000 I0.155 J-0.374 F400.000
G2 X52.901 Y59.261 Z-2.000 I-0.155 J0.374 F400.000
G1 X52.901 Y59.261 Z-2.250 F400.000
G2 X53.145 Y59.703 Z-2.250 I0.399 J0.068 F400.000
G2 X53.455 Y58.955 Z-2.250 I0.155 J-0.374 F400.000
G2 X52.901 Y59.261 Z-2.250 I-0.155 J0.374 F400.000
G1 X52.901 Y59.261 Z-2.500 F400.000
G2 X53.145 Y59.703 Z-2.500 I0.399 J0.068 F400.000
G2 X53.455 Y58.955 Z-2.500 I0.155 J-0.374 F400.000
G2 X52.901 Y59.261 Z-2.500 I-0.155 J0.374 F400.000
G1 X52.901 Y59.261 Z-2.750 F400.000
G2 X53.145 Y59.703 Z-2.750 I0.399 J0.068 F400.000
G2 X53.455 Y58.955 Z-2.750 I0.155 J-0.374 F400.000
G2 X52.901 Y59.261 Z-2.750 I-0.155 J0.374 F400.000
G1 X52.901 Y59.261 Z-3.000 F400.000
G2 X53.145 Y59.703 Z-3.000 I0.399 J0.068 F400.000
G2 X53.455 Y58.955 Z-3.000 I0.155 J-0.374 F400.000
G2 X52.901 Y59.261 Z-3.000 I-0.155 J0.374 F400.000
G1 X52.901 Y59.261 Z-3.250 F400.000
G2 X53.145 Y59.703 Z-3.250 I0.399 J0.068 F400.000
G2 X53.455 Y58.955 Z-3.250 I0.155 J-0.374 F400.000
G2 X52.901 Y59.261 Z-3.250 I-0.155 J0.374 F400.000
G1 X52.901 Y59.261 Z-3.425 F400.000
G2 X53.145 Y59.703 Z-3.425 I0.399 J0.068 F400.000
G2 X53.455 Y58.955 Z-3.425 I0.155 J-0.374 F400.000
G2 X52.901 Y59.261 Z-3.425 I-0.155 J0.374 F400.000
G0 Z5.250
G0 Z5.250
G0 X52.901 Y59.261
G0 X61.006 Y51.606
G0 X61.006 Y51.606 Z3.250
G1 X61.006 Y51.606 Z0.000 F400.000
G2 X61.145 Y51.703 Z0.000 I0.294 J-0.278 F400.000
G2 X61.455 Y50.955 Z0.000 I0.155 J-0.374 F400.000
G2 X61.006 Y51.606 Z0.000 I-0.155 J0.374 F400.000
G1 X61.006 Y51.606 Z-0.250 F400.000
G2 X61.145 Y51.703 Z-0.250 I0.294 J-0.278 F400.000
G2 X61.455 Y50.955 Z-0.250 I0.155 J-0.374 F400.000
G2 X61.006 Y51.606 Z-0.250 I-0.155 J0.374 F400.000
G1 X61.006 Y51.606 Z-0.500 F400.000
G2 X61.145 Y51.703 Z-0.500 I0.294 J-0.278 F400.000
G2 X61.455 Y50.955 Z-0.500 I0.155 J-0.374 F400.000
G2 X61.006 Y51.606 Z-0.500 I-0.155 J0.374 F400.000
G1 X61.006 Y51.606 Z-0.750 F400.000
G2 X61.145 Y51.703 Z-0.750 I0.294 J-0.278 F400.000
G2 X61.455 Y50.955 Z-0.750 I0.155 J-0.374 F400.000
G2 X61.006 Y51.606 Z-0.750 I-0.155 J0.374 F400.000
G1 X61.006 Y51.606 Z-1.000 F400.000
G2 X61.145 Y51.703 Z-1.000 I0.294 J-0.278 F400.000
G2 X61.455 Y50.955 Z-1.000 I0.155 J-0.374 F400.000
G2 X61.006 Y51.606 Z-1.000 I-0.155 J0.374 F400.000
G1 X61.006 Y51.606 Z-1.250 F400.000
G2 X61.145 Y51.703 Z-1.250 I0.294 J-0.278 F400.000
G2 X61.455 Y50.955 Z-1.250 I0.155 J-0.374 F400.000
G2 X61.006 Y51.606 Z-1.250 I-0.155 J0.374 F400.000
G1 X61.006 Y51.606 Z-1.500 F400.000
G2 X61.145 Y51.703 Z-1.500 I0.294 J-0.278 F400.000
G2 X61.455 Y50.955 Z-1.500 I0.155 J-0.374 F400.000
G2 X61.006 Y51.606 Z-1.500 I-0.155 J0.374 F400.000
G1 X61.006 Y51.606 Z-1.750 F400.000
G2 X61.145 Y51.703 Z-1.750 I0.294 J-0.278 F400.000
G2 X61.455 Y50.955 Z-1.750 I0.155 J-0.374 F400.000
G2 X61.006 Y51.606 Z-1.750 I-0.155 J0.374 F400.000
G1 X61.006 Y51.606 Z-2.000 F400.000
G2 X61.145 Y51.703 Z-2.000 I0.294 J-0.278 F400.000
G2 X61.455 Y50.955 Z-2.000 I0.155 J-0.374 F400.000
G2 X61.006 Y51.606 Z-2.000 I-0.155 J0.374 F400.000
G1 X61.006 Y51.606 Z-2.250 F400.000
G2 X61.145 Y51.703 Z-2.250 I0.294 J-0.278 F400.000
G2 X61.455 Y50.955 Z-2.250 I0.155 J-0.374 F400.000
G2 X61.006 Y51.606 Z-2.250 I-0.155 J0.374 F400.000
G1 X61.006 Y51.606 Z-2.500 F400.000
G2 X61.145 Y51.703 Z-2.500 I0.294 J-0.278 F400.000
G2 X61.455 Y50.955 Z-2.500 I0.155 J-0.374 F400.000
G2 X61.006 Y51.606 Z-2.500 I-0.155 J0.374 F400.000
G1 X61.006 Y51.606 Z-2.750 F400.000
G2 X61.145 Y51.703 Z-2.750 I0.294 J-0.278 F400.000
G2 X61.455 Y50.955 Z-2.750 I0.155 J-0.374 F400.000
G2 X61.006 Y51.606 Z-2.750 I-0.155 J0.374 F400.000
G1 X61.006 Y51.606 Z-3.000 F400.000
G2 X61.145 Y51.703 Z-3.000 I0.294 J-0.278 F400.000
G2 X61.455 Y50.955 Z-3.000 I0.155 J-0.374 F400.000
G2 X61.006 Y51.606 Z-3.000 I-0.155 J0.374 F400.000
G1 X61.006 Y51.606 Z-3.250 F400.000
G2 X61.145 Y51.703 Z-3.250 I0.294 J-0.278 F400.000
G2 X61.455 Y50.955 Z-3.250 I0.155 J-0.374 F400.000
G2 X61.006 Y51.606 Z-3.250 I-0.155 J0.374 F400.000
G1 X61.006 Y51.606 Z-3.425 F400.000
G2 X61.145 Y51.703 Z-3.425 I0.294 J-0.278 F400.000
G2 X61.455 Y50.955 Z-3.425 I0.155 J-0.374 F400.000
G2 X61.006 Y51.606 Z-3.425 I-0.155 J0.374 F400.000
G0 Z5.250
G0 Z5.250
G0 X61.006 Y51.606
G0 X53.576 Y43.625
G0 X53.576 Y43.625 Z3.250
G1 X53.576 Y43.625 Z0.000 F400.000
G2 X53.455 Y42.955 Z0.000 I-0.276 J-0.296 F400.000
G2 X53.145 Y43.703 Z0.000 I-0.155 J0.374 F400.000
G2 X53.576 Y43.625 Z0.000 I0.155 J-0.374 F400.000
G1 X53.576 Y43.625 Z-0.250 F400.000
G2 X53.455 Y42.955 Z-0.250 I-0.276 J-0.296 F400.000
G2 X53.145 Y43.703 Z-0.250 I-0.155 J0.374 F400.000
G2 X53.576 Y43.625 Z-0.250 I0.155 J-0.374 F400.000
G1 X53.576 Y43.625 Z-0.500 F400.000
G2 X53.455 Y42.955 Z-0.500 I-0.276 J-0.296 F400.000
G2 X53.145 Y43.703 Z-0.500 I-0.155 J0.374 F400.000
G2 X53.576 Y43.625 Z-0.500 I0.155 J-0.374 F400.000
G1 X53.576 Y43.625 Z-0.750 F400.000
G2 X53.455 Y42.955 Z-0.750 I-0.276 J-0.296 F400.000
G2 X53.145 Y43.703 Z-0.750 I-0.155 J0.374 F400.000
G2 X53.576 Y43.625 Z-0.750 I0.155 J-0.374 F400.000
G1 X53.576 Y43.625 Z-1.000 F400.000
G2 X53.455 Y42.955 Z-1.000 I-0.276 J-0.296 F400.000
G2 X53.145 Y43.703 Z-1.000 I-0.155 J0.374 F400.000
G2 X53.576 Y43.625 Z-1.000 I0.155 J-0.374 F400.000
G1 X53.576 Y43.625 Z-1.250 F400.000
G2 X53.455 Y42.955 Z-1.250 I-0.276 J-0.296 F400.000
G2 X53.145 Y43.703 Z-1.250 I-0.155 J0.374 F400.000
G2 X53.576 Y43.625 Z-1.250 I0.155 J-0.374 F400.000
G1 X53.576 Y43.625 Z-1.500 F400.000
G2 X53.455 Y42.955 Z-1.500 I-0.276 J-0.296 F400.000
G2 X53.145 Y43.703 Z-1.500 I-0.155 J0.374 F400.000
G2 X53.576 Y43.625 Z-1.500 I0.155 J-0.374 F400.000
G1 X53.576 Y43.625 Z-1.750 F400.000
G2 X53.455 Y42.955 Z-1.750 I-0.276 J-0.296 F400.000
G2 X53.145 Y43.703 Z-1.750 I-0.155 J0.374 F400.000
G2 X53.576 Y43.625 Z-1.750 I0.155 J-0.374 F400.000
G1 X53.576 Y43.625 Z-2.000 F400.000
G2 X53.455 Y42.955 Z-2.000 I-0.276 J-0.296 F400.000
G2 X53.145 Y43.703 Z-2.000 I-0.155 J0.374 F400.000
G2 X53.576 Y43.625 Z-2.000 I0.155 J-0.374 F400.000
G1 X53.576 Y43.625 Z-2.250 F400.000
G2 X53.455 Y42.955 Z-2.250 I-0.276 J-0.296 F400.000
G2 X53.145 Y43.703 Z-2.250 I-0.155 J0.374 F400.000
G2 X53.576 Y43.625 Z-2.250 I0.155 J-0.374 F400.000
G1 X53.576 Y43.625 Z-2.500 F400.000
G2 X53.455 Y42.955 Z-2.500 I-0.276 J-0.296 F400.000
G2 X53.145 Y43.703 Z-2.500 I-0.155 J0.374 F400.000
G2 X53.576 Y43.625 Z-2.500 I0.155 J-0.374 F400.000
G1 X53.576 Y43.625 Z-2.750 F400.000
G2 X53.455 Y42.955 Z-2.750 I-0.276 J-0.296 F400.000
G2 X53.145 Y43.703 Z-2.750 I-0.155 J0.374 F400.000
G2 X53.576 Y43.625 Z-2.750 I0.155 J-0.374 F400.000
G1 X53.576 Y43.625 Z-3.000 F400.000
G2 X53.455 Y42.955 Z-3.000 I-0.276 J-0.296 F400.000
G2 X53.145 Y43.703 Z-3.000 I-0.155 J0.374 F400.000
G2 X53.576 Y43.625 Z-3.000 I0.155 J-0.374 F400.000
G1 X53.576 Y43.625 Z-3.250 F400.000
G2 X53.455 Y42.955 Z-3.250 I-0.276 J-0.296 F400.000
G2 X53.145 Y43.703 Z-3.250 I-0.155 J0.374 F400.000
G2 X53.576 Y43.625 Z-3.250 I0.155 J-0.374 F400.000
G1 X53.576 Y43.625 Z-3.425 F400.000
G2 X53.455 Y42.955 Z-3.425 I-0.276 J-0.296 F400.000
G2 X53.145 Y43.703 Z-3.425 I-0.155 J0.374 F400.000
G2 X53.576 Y43.625 Z-3.425 I0.155 J-0.374 F400.000
G0 Z5.250
G0 Z5.250
G0 X53.576 Y43.625
G0 X68.895 Y43.336
G0 X68.895 Y43.336 Z3.250
G1 X68.895 Y43.336 Z0.000 F400.000
G2 X69.145 Y43.703 Z0.000 I0.405 J-0.008 F400.000
G2 X69.455 Y42.955 Z0.000 I0.155 J-0.374 F400.000
G2 X68.895 Y43.336 Z0.000 I-0.155 J0.374 F400.000
G1 X68.895 Y43.336 Z-0.250 F400.000
G2 X69.145 Y43.703 Z-0.250 I0.405 J-0.008 F400.000
G2 X69.455 Y42.955 Z-0.250 I0.155 J-0.374 F400.000
G2 X68.895 Y43.336 Z-0.250 I-0.155 J0.374 F400.000
G1 X68.895 Y43.336 Z-0.500 F400.000
G2 X69.145 Y43.703 Z-0.500 I0.405 J-0.008 F400.000
G2 X69.455 Y42.955 Z-0.500 I0.155 J-0.374 F400.000
G2 X68.895 Y43.336 Z-0.500 I-0.155 J0.374 F400.000
G1 X68.895 Y43.336 Z-0.750 F400.000
G2 X69.145 Y43.703 Z-0.750 I0.405 J-0.008 F400.000
G2 X69.455 Y42.955 Z-0.750 I0.155 J-0.374 F400.000
G2 X68.895 Y43.336 Z-0.750 I-0.155 J0.374 F400.000
G1 X68.895 Y43.336 Z-1.000 F400.000
G2 X69.145 Y43.703 Z-1.000 I0.405 J-0.008 F400.000
G2 X69.455 Y42.955 Z-1.000 I0.155 J-0.374 F400.000
G2 X68.895 Y43.336 Z-1.000 I-0.155 J0.374 F400.000
G1 X68.895 Y43.336 Z-1.250 F400.000
G2 X69.145 Y43.703 Z-1.250 I0.405 J-0.008 F400.000
G2 X69.455 Y42.955 Z-1.250 I0.155 J-0.374 F400.000
G2 X68.895 Y43.336 Z-1.250 I-0.155 J0.374 F400.000
G1 X68.895 Y43.336 Z-1.500 F400.000
G2 X69.145 Y43.703 Z-1.500 I0.405 J-0.008 F400.000
G2 X69.455 Y42.955 Z-1.500 I0.155 J-0.374 F400.000
G2 X68.895 Y43.336 Z-1.500 I-0.155 J0.374 F400.000
G1 X68.895 Y43.336 Z-1.750 F400.000
G2 X69.145 Y43.703 Z-1.750 I0.405 J-0.008 F400.000
G2 X69.455 Y42.955 Z-1.750 I0.155 J-0.374 F400.000
G2 X68.895 Y43.336 Z-1.750 I-0.155 J0.374 F400.000
G1 X68.895 Y43.336 Z-2.000 F400.000
G2 X69.145 Y43.703 Z-2.000 I0.405 J-0.008 F400.000
G2 X69.455 Y42.955 Z-2.000 I0.155 J-0.374 F400.000
G2 X68.895 Y43.336 Z-2.000 I-0.155 J0.374 F400.000
G1 X68.895 Y43.336 Z-2.250 F400.000
G2 X69.145 Y43.703 Z-2.250 I0.405 J-0.008 F400.000
G2 X69.455 Y42.955 Z-2.250 I0.155 J-0.374 F400.000
G2 X68.895 Y43.336 Z-2.250 I-0.155 J0.374 F400.000
G1 X68.895 Y43.336 Z-2.500 F400.000
G2 X69.145 Y43.703 Z-2.500 I0.405 J-0.008 F400.000
G2 X69.455 Y42.955 Z-2.500 I0.155 J-0.374 F400.000
G2 X68.895 Y43.336 Z-2.500 I-0.155 J0.374 F400.000
G1 X68.895 Y43.336 Z-2.750 F400.000
G2 X69.145 Y43.703 Z-2.750 I0.405 J-0.008 F400.000
G2 X69.455 Y42.955 Z-2.750 I0.155 J-0.374 F400.000
G2 X68.895 Y43.336 Z-2.750 I-0.155 J0.374 F400.000
G1 X68.895 Y43.336 Z-3.000 F400.000
G2 X69.145 Y43.703 Z-3.000 I0.405 J-0.008 F400.000
G2 X69.455 Y42.955 Z-3.000 I0.155 J-0.374 F400.000
G2 X68.895 Y43.336 Z-3.000 I-0.155 J0.374 F400.000
G1 X68.895 Y43.336 Z-3.250 F400.000
G2 X69.145 Y43.703 Z-3.250 I0.405 J-0.008 F400.000
G2 X69.455 Y42.955 Z-3.250 I0.155 J-0.374 F400.000
G2 X68.895 Y43.336 Z-3.250 I-0.155 J0.374 F400.000
G1 X68.895 Y43.336 Z-3.425 F400.000
G2 X69.145 Y43.703 Z-3.425 I0.405 J-0.008 F400.000
G2 X69.455 Y42.955 Z-3.425 I0.155 J-0.374 F400.000
G2 X68.895 Y43.336 Z-3.425 I-0.155 J0.374 F400.000
G0 Z5.250
G0 Z5.250
G0 X68.895 Y43.336
G0 X69.290 Y58.924
G0 X69.290 Y58.924 Z3.250
G1 X69.290 Y58.924 Z0.000 F400.000
G2 X69.145 Y59.703 Z0.000 I0.010 J0.405 F400.000
G2 X69.455 Y58.955 Z0.000 I0.155 J-0.374 F400.000
G2 X69.290 Y58.924 Z0.000 I-0.155 J0.374 F400.000
G1 X69.290 Y58.924 Z-0.250 F400.000
G2 X69.145 Y59.703 Z-0.250 I0.010 J0.405 F400.000
G2 X69.455 Y58.955 Z-0.250 I0.155 J-0.374 F400.000
G2 X69.290 Y58.924 Z-0.250 I-0.155 J0.374 F400.000
G1 X69.290 Y58.924 Z-0.500 F400.000
G2 X69.145 Y59.703 Z-0.500 I0.010 J0.405 F400.000
G2 X69.455 Y58.955 Z-0.500 I0.155 J-0.374 F400.000
G2 X69.290 Y58.924 Z-0.500 I-0.155 J0.374 F400.000
G1 X69.290 Y58.924 Z-0.750 F400.000
G2 X69.145 Y59.703 Z-0.750 I0.010 J0.405 F400.000
G2 X69.455 Y58.955 Z-0.750 I0.155 J-0.374 F400.000
G2 X69.290 Y58.924 Z-0.750 I-0.155 J0.374 F400.000
G1 X69.290 Y58.924 Z-1.000 F400.000
G2 X69.145 Y59.703 Z-1.000 I0.010 J0.405 F400.000
G2 X69.455 Y58.955 Z-1.000 I0.155 J-0.374 F400.000
G2 X69.290 Y58.924 Z-1.000 I-0.155 J0.374 F400.000
G1 X69.290 Y58.924 Z-1.250 F400.000
G2 X69.145 Y59.703 Z-1.250 I0.010 J0.405 F400.000
G2 X69.455 Y58.955 Z-1.250 I0.155 J-0.374 F400.000
G2 X69.290 Y58.924 Z-1.250 I-0.155 J0.374 F400.000
G1 X69.290 Y58.924 Z-1.500 F400.000
G2 X69.145 Y59.703 Z-1.500 I0.010 J0.405 F400.000
G2 X69.455 Y58.955 Z-1.500 I0.155 J-0.374 F400.000
G2 X69.290 Y58.924 Z-1.500 I-0.155 J0.374 F400.000
G1 X69.290 Y58.924 Z-1.750 F400.000
G2 X69.145 Y59.703 Z-1.750 I0.010 J0.405 F400.000
G2 X69.455 Y58.955 Z-1.750 I0.155 J-0.374 F400.000
G2 X69.290 Y58.924 Z-1.750 I-0.155 J0.374 F400.000
G1 X69.290 Y58.924 Z-2.000 F400.000
G2 X69.145 Y59.703 Z-2.000 I0.010 J0.405 F400.000
G2 X69.455 Y58.955 Z-2.000 I0.155 J-0.374 F400.000
G2 X69.290 Y58.924 Z-2.000 I-0.155 J0.374 F400.000
G1 X69.290 Y58.924 Z-2.250 F400.000
G2 X69.145 Y59.703 Z-2.250 I0.010 J0.405 F400.000
G2 X69.455 Y58.955 Z-2.250 I0.155 J-0.374 F400.000
G2 X69.290 Y58.924 Z-2.250 I-0.155 J0.374 F400.000
G1 X69.290 Y58.924 Z-2.500 F400.000
G2 X69.145 Y59.703 Z-2.500 I0.010 J0.405 F400.000
G2 X69.455 Y58.955 Z-2.500 I0.155 J-0.374 F400.000
G2 X69.290 Y58.924 Z-2.500 I-0.155 J0.374 F400.000
G1 X69.290 Y58.924 Z-2.750 F400.000
G2 X69.145 Y59.703 Z-2.750 I0.010 J0.405 F400.000
G2 X69.455 Y58.955 Z-2.750 I0.155 J-0.374 F400.000
G2 X69.290 Y58.924 Z-2.750 I-0.155 J0.374 F400.000
G1 X69.290 Y58.924 Z-3.000 F400.000
G2 X69.145 Y59.703 Z-3.000 I0.010 J0.405 F400.000
G2 X69.455 Y58.955 Z-3.000 I0.155 J-0.374 F400.000
G2 X69.290 Y58.924 Z-3.000 I-0.155 J0.374 F400.000
G1 X69.290 Y58.924 Z-3.250 F400.000
G2 X69.145 Y59.703 Z-3.250 I0.010 J0.405 F400.000
G2 X69.455 Y58.955 Z-3.250 I0.155 J-0.374 F400.000
G2 X69.290 Y58.924 Z-3.250 I-0.155 J0.374 F400.000
G1 X69.290 Y58.924 Z-3.425 F400.000
G2 X69.145 Y59.703 Z-3.425 I0.010 J0.405 F400.000
G2 X69.455 Y58.955 Z-3.425 I0.155 J-0.374 F400.000
G2 X69.290 Y58.924 Z-3.425 I-0.155 J0.374 F400.000
G0 Z5.250
G0 Z5.250
G0 X69.290 Y58.924
G0 X66.209 Y94.925
G0 X66.209 Y94.925 Z3.250
G1 X66.209 Y94.925 Z0.000 F400.000
G2 X66.020 Y95.703 Z0.000 I-0.035 J0.403 F400.000
G2 X66.549 Y95.483 Z0.000 I0.155 J-0.374 F400.000
G2 X66.330 Y94.955 Z0.000 I-0.374 J-0.155 F400.000
G2 X66.209 Y94.925 Z0.000 I-0.155 J0.374 F400.000
G1 X66.209 Y94.925 Z-0.250 F400.000
G2 X66.020 Y95.703 Z-0.250 I-0.035 J0.403 F400.000
G2 X66.549 Y95.483 Z-0.250 I0.155 J-0.374 F400.000
G2 X66.330 Y94.955 Z-0.250 I-0.374 J-0.155 F400.000
G2 X66.209 Y94.925 Z-0.250 I-0.155 J0.374 F400.000
G1 X66.209 Y94.925 Z-0.500 F400.000
G2 X66.020 Y95.703 Z-0.500 I-0.035 J0.403 F400.000
G2 X66.549 Y95.483 Z-0.500 I0.155 J-0.374 F400.000
G2 X66.330 Y94.955 Z-0.500 I-0.374 J-0.155 F400.000
G2 X66.209 Y94.925 Z-0.500 I-0.155 J0.374 F400.000
G1 X66.209 Y94.925 Z-0.750 F400.000
G2 X66.020 Y95.703 Z-0.750 I-0.035 J0.403 F400.000
G2 X66.549 Y95.483 Z-0.750 I0.155 J-0.374 F400.000
G2 X66.330 Y94.955 Z-0.750 I-0.374 J-0.155 F400.000
G2 X66.209 Y94.925 Z-0.750 I-0.155 J0.374 F400.000
G1 X66.209 Y94.925 Z-1.000 F400.000
G2 X66.020 Y95.703 Z-1.000 I-0.035 J0.403 F400.000
G2 X66.549 Y95.483 Z-1.000 I0.155 J-0.374 F400.000
G2 X66.330 Y94.955 Z-1.000 I-0.374 J-0.155 F400.000
G2 X66.209 Y94.925 Z-1.000 I-0.155 J0.374 F400.000
G1 X66.209 Y94.925 Z-1.250 F400.000
G2 X66.020 Y95.703 Z-1.250 I-0.035 J0.403 F400.000
G2 X66.549 Y95.483 Z-1.250 I0.155 J-0.374 F400.000
G2 X66.330 Y94.955 Z-1.250 I-0.374 J-0.155 F400.000
G2 X66.209 Y94.925 Z-1.250 I-0.155 J0.374 F400.000
G1 X66.209 Y94.925 Z-1.500 F400.000
G2 X66.020 Y95.703 Z-1.500 I-0.035 J0.403 F400.000
G2 X66.549 Y95.483 Z-1.500 I0.155 J-0.374 F400.000
G2 X66.330 Y94.955 Z-1.500 I-0.374 J-0.155 F400.000
G2 X66.209 Y94.925 Z-1.500 I-0.155 J0.374 F400.000
G1 X66.209 Y94.925 Z-1.750 F400.000
G2 X66.020 Y95.703 Z-1.750 I-0.035 J0.403 F400.000
G2 X66.549 Y95.483 Z-1.750 I0.155 J-0.374 F400.000
G2 X66.330 Y94.955 Z-1.750 I-0.374 J-0.155 F400.000
G2 X66.209 Y94.925 Z-1.750 I-0.155 J0.374 F400.000
G1 X66.209 Y94.925 Z-2.000 F400.000
G2 X66.020 Y95.703 Z-2.000 I-0.035 J0.403 F400.000
G2 X66.549 Y95.483 Z-2.000 I0.155 J-0.374 F400.000
G2 X66.330 Y94.955 Z-2.000 I-0.374 J-0.155 F400.000
G2 X66.209 Y94.925 Z-2.000 I-0.155 J0.374 F400.000
G1 X66.209 Y94.925 Z-2.250 F400.000
G2 X66.020 Y95.703 Z-2.250 I-0.035 J0.403 F400.000
G2 X66.549 Y95.483 Z-2.250 I0.155 J-0.374 F400.000
G2 X66.330 Y94.955 Z-2.250 I-0.374 J-0.155 F400.000
G2 X66.209 Y94.925 Z-2.250 I-0.155 J0.374 F400.000
G1 X66.209 Y94.925 Z-2.500 F400.000
G2 X66.020 Y95.703 Z-2.500 I-0.035 J0.403 F400.000
G2 X66.549 Y95.483 Z-2.500 I0.155 J-0.374 F400.000
G2 X66.330 Y94.955 Z-2.500 I-0.374 J-0.155 F400.000
G2 X66.209 Y94.925 Z-2.500 I-0.155 J0.374 F400.000
G1 X66.209 Y94.925 Z-2.750 F400.000
G2 X66.020 Y95.703 Z-2.750 I-0.035 J0.403 F400.000
G2 X66.549 Y95.483 Z-2.750 I0.155 J-0.374 F400.000
G2 X66.330 Y94.955 Z-2.750 I-0.374 J-0.155 F400.000
G2 X66.209 Y94.925 Z-2.750 I-0.155 J0.374 F400.000
G1 X66.209 Y94.925 Z-3.000 F400.000
G2 X66.020 Y95.703 Z-3.000 I-0.035 J0.403 F400.000
G2 X66.549 Y95.483 Z-3.000 I0.155 J-0.374 F400.000
G2 X66.330 Y94.955 Z-3.000 I-0.374 J-0.155 F400.000
G2 X66.209 Y94.925 Z-3.000 I-0.155 J0.374 F400.000
G1 X66.209 Y94.925 Z-3.250 F400.000
G2 X66.020 Y95.703 Z-3.250 I-0.035 J0.403 F400.000
G2 X66.549 Y95.483 Z-3.250 I0.155 J-0.374 F400.000
G2 X66.330 Y94.955 Z-3.250 I-0.374 J-0.155 F400.000
G2 X66.209 Y94.925 Z-3.250 I-0.155 J0.374 F400.000
G1 X66.209 Y94.925 Z-3.425 F400.000
G2 X66.020 Y95.703 Z-3.425 I-0.035 J0.403 F400.000
G2 X66.549 Y95.483 Z-3.425 I0.155 J-0.374 F400.000
G2 X66.330 Y94.955 Z-3.425 I-0.374 J-0.155 F400.000
G2 X66.209 Y94.925 Z-3.425 I-0.155 J0.374 F400.000
G0 Z5.250
G0 Z5.250
G0 X66.209 Y94.925
G0 X78.401 Y107.451
G0 X78.401 Y107.451 Z3.250
G1 X78.401 Y107.451 Z0.000 F400.000
G2 X81.050 Y116.621 Z0.000 I3.774 J3.877 F400.000
G2 X83.300 Y106.036 Z0.000 I1.125 J-5.292 F400.000
G2 X78.401 Y107.451 Z0.000 I-1.125 J5.292 F400.000
G1 X78.401 Y107.451 Z-0.250 F400.000
G2 X81.050 Y116.621 Z-0.250 I3.774 J3.877 F400.000
G2 X83.300 Y106.036 Z-0.250 I1.125 J-5.292 F400.000
G2 X78.401 Y107.451 Z-0.250 I-1.125 J5.292 F400.000
G1 X78.401 Y107.451 Z-0.500 F400.000
G2 X81.050 Y116.621 Z-0.500 I3.774 J3.877 F400.000
G2 X83.300 Y106.036 Z-0.500 I1.125 J-5.292 F400.000
G2 X78.401 Y107.451 Z-0.500 I-1.125 J5.292 F400.000
G1 X78.401 Y107.451 Z-0.750 F400.000
G2 X81.050 Y116.621 Z-0.750 I3.774 J3.877 F400.000
G2 X83.300 Y106.036 Z-0.750 I1.125 J-5.292 F400.000
G2 X78.401 Y107.451 Z-0.750 I-1.125 J5.292 F400.000
G1 X78.401 Y107.451 Z-1.000 F400.000
G2 X81.050 Y116.621 Z-1.000 I3.774 J3.877 F400.000
G2 X83.300 Y106.036 Z-1.000 I1.125 J-5.292 F400.000
G2 X78.401 Y107.451 Z-1.000 I-1.125 J5.292 F400.000
G1 X78.401 Y107.451 Z-1.250 F400.000
G2 X81.050 Y116.621 Z-1.250 I3.774 J3.877 F400.000
G2 X83.300 Y106.036 Z-1.250 I1.125 J-5.292 F400.000
G2 X78.401 Y107.451 Z-1.250 I-1.125 J5.292 F400.000
G1 X78.401 Y107.451 Z-1.500 F400.000
G2 X81.050 Y116.621 Z-1.500 I3.774 J3.877 F400.000
G2 X83.300 Y106.036 Z-1.500 I1.125 J-5.292 F400.000
G2 X78.401 Y107.451 Z-1.500 I-1.125 J5.292 F400.000
G1 X78.401 Y107.451 Z-1.750 F400.000
G2 X81.050 Y116.621 Z-1.750 I3.774 J3.877 F400.000
G2 X83.300 Y106.036 Z-1.750 I1.125 J-5.292 F400.000
G2 X78.401 Y107.451 Z-1.750 I-1.125 J5.292 F400.000
G1 X78.401 Y107.451 Z-2.000 F400.000
G2 X81.050 Y116.621 Z-2.000 I3.774 J3.877 F400.000
G2 X83.300 Y106.036 Z-2.000 I1.125 J-5.292 F400.000
G2 X78.401 Y107.451 Z-2.000 I-1.125 J5.292 F400.000
G1 X78.401 Y107.451 Z-2.250 F400.000
G2 X81.050 Y116.621 Z-2.250 I3.774 J3.877 F400.000
G2 X83.300 Y106.036 Z-2.250 I1.125 J-5.292 F400.000
G2 X78.401 Y107.451 Z-2.250 I-1.125 J5.292 F400.000
G1 X78.401 Y107.451 Z-2.500 F400.000
G2 X81.050 Y116.621 Z-2.500 I3.774 J3.877 F400.000
G2 X83.300 Y106.036 Z-2.500 I1.125 J-5.292 F400.000
G2 X78.401 Y107.451 Z-2.500 I-1.125 J5.292 F400.000
G1 X78.401 Y107.451 Z-2.750 F400.000
G2 X81.050 Y116.621 Z-2.750 I3.774 J3.877 F400.000
G2 X83.300 Y106.036 Z-2.750 I1.125 J-5.292 F400.000
G2 X78.401 Y107.451 Z-2.750 I-1.125 J5.292 F400.000
G1 X78.401 Y107.451 Z-3.000 F400.000
G2 X81.050 Y116.621 Z-3.000 I3.774 J3.877 F400.000
G2 X83.300 Y106.036 Z-3.000 I1.125 J-5.292 F400.000
G2 X78.401 Y107.451 Z-3.000 I-1.125 J5.292 F400.000
G1 X78.401 Y107.451 Z-3.250 F400.000
G2 X81.050 Y116.621 Z-3.250 I3.774 J3.877 F400.000
G2 X83.300 Y106.036 Z-3.250 I1.125 J-5.292 F400.000
G2 X78.401 Y107.451 Z-3.250 I-1.125 J5.292 F400.000
G1 X78.401 Y107.451 Z-3.425 F400.000
G2 X81.050 Y116.621 Z-3.425 I3.774 J3.877 F400.000
G2 X83.300 Y106.036 Z-3.425 I1.125 J-5.292 F400.000
G2 X78.401 Y107.451 Z-3.425 I-1.125 J5.292 F400.000
G0 Z5.250
G0 Z5.250
G0 X78.401 Y107.451
G0 X97.889 Y127.042
G0 X97.889 Y127.042 Z3.250
G1 X97.889 Y127.042 Z0.000 F400.000
G2 X98.020 Y127.703 Z0.000 I0.286 J0.287 F400.000
G2 X98.330 Y126.955 Z0.000 I0.155 J-0.374 F400.000
G2 X97.889 Y127.042 Z0.000 I-0.155 J0.374 F400.000
G1 X97.889 Y127.042 Z-0.250 F400.000
G2 X98.020 Y127.703 Z-0.250 I0.286 J0.287 F400.000
G2 X98.330 Y126.955 Z-0.250 I0.155 J-0.374 F400.000
G2 X97.889 Y127.042 Z-0.250 I-0.155 J0.374 F400.000
G1 X97.889 Y127.042 Z-0.500 F400.000
G2 X98.020 Y127.703 Z-0.500 I0.286 J0.287 F400.000
G2 X98.330 Y126.955 Z-0.500 I0.155 J-0.374 F400.000
G2 X97.889 Y127.042 Z-0.500 I-0.155 J0.374 F400.000
G1 X97.889 Y127.042 Z-0.750 F400.000
G2 X98.020 Y127.703 Z-0.750 I0.286 J0.287 F400.000
G2 X98.330 Y126.955 Z-0.750 I0.155 J-0.374 F400.000
G2 X97.889 Y127.042 Z-0.750 I-0.155 J0.374 F400.000
G1 X97.889 Y127.042 Z-1.000 F400.000
G2 X98.020 Y127.703 Z-1.000 I0.286 J0.287 F400.000
G2 X98.330 Y126.955 Z-1.000 I0.155 J-0.374 F400.000
G2 X97.889 Y127.042 Z-1.000 I-0.155 J0.374 F400.000
G1 X97.889 Y127.042 Z-1.250 F400.000
G2 X98.020 Y127.703 Z-1.250 I0.286 J0.287 F400.000
G2 X98.330 Y126.955 Z-1.250 I0.155 J-0.374 F400.000
G2 X97.889 Y127.042 Z-1.250 I-0.155 J0.374 F400.000
G1 X97.889 Y127.042 Z-1.500 F400.000
G2 X98.020 Y127.703 Z-1.500 I0.286 J0.287 F400.000
G2 X98.330 Y126.955 Z-1.500 I0.155 J-0.374 F400.000
G2 X97.889 Y127.042 Z-1.500 I-0.155 J0.374 F400.000
G1 X97.889 Y127.042 Z-1.750 F400.000
G2 X98.020 Y127.703 Z-1.750 I0.286 J0.287 F400.000
G2 X98.330 Y126.955 Z-1.750 I0.155 J-0.374 F400.000
G2 X97.889 Y127.042 Z-1.750 I-0.155 J0.374 F400.000
G1 X97.889 Y127.042 Z-2.000 F400.000
G2 X98.020 Y127.703 Z-2.000 I0.286 J0.287 F400.000
G2 X98.330 Y126.955 Z-2.000 I0.155 J-0.374 F400.000
G2 X97.889 Y127.042 Z-2.000 I-0.155 J0.374 F400.000
G1 X97.889 Y127.042 Z-2.250 F400.000
G2 X98.020 Y127.703 Z-2.250 I0.286 J0.287 F400.000
G2 X98.330 Y126.955 Z-2.250 I0.155 J-0.374 F400.000
G2 X97.889 Y127.042 Z-2.250 I-0.155 J0.374 F400.000
G1 X97.889 Y127.042 Z-2.500 F400.000
G2 X98.020 Y127.703 Z-2.500 I0.286 J0.287 F400.000
G2 X98.330 Y126.955 Z-2.500 I0.155 J-0.374 F400.000
G2 X97.889 Y127.042 Z-2.500 I-0.155 J0.374 F400.000
G1 X97.889 Y127.042 Z-2.750 F400.000
G2 X98.020 Y127.703 Z-2.750 I0.286 J0.287 F400.000
G2 X98.330 Y126.955 Z-2.750 I0.155 J-0.374 F400.000
G2 X97.889 Y127.042 Z-2.750 I-0.155 J0.374 F400.000
G1 X97.889 Y127.042 Z-3.000 F400.000
G2 X98.020 Y127.703 Z-3.000 I0.286 J0.287 F400.000
G2 X98.330 Y126.955 Z-3.000 I0.155 J-0.374 F400.000
G2 X97.889 Y127.042 Z-3.000 I-0.155 J0.374 F400.000
G1 X97.889 Y127.042 Z-3.250 F400.000
G2 X98.020 Y127.703 Z-3.250 I0.286 J0.287 F400.000
G2 X98.330 Y126.955 Z-3.250 I0.155 J-0.374 F400.000
G2 X97.889 Y127.042 Z-3.250 I-0.155 J0.374 F400.000
G1 X97.889 Y127.042 Z-3.425 F400.000
G2 X98.020 Y127.703 Z-3.425 I0.286 J0.287 F400.000
G2 X98.330 Y126.955 Z-3.425 I0.155 J-0.374 F400.000
G2 X97.889 Y127.042 Z-3.425 I-0.155 J0.374 F400.000
G0 Z5.250
G0 Z5.250
G0 X97.889 Y127.042
G0 X111.285 Y105.672
G0 X111.285 Y105.672 Z3.250
G1 X111.285 Y105.672 Z0.000 F400.000
G2 X111.345 Y105.703 Z0.000 I0.215 J-0.343 F400.000
G2 X111.655 Y104.955 Z0.000 I0.155 J-0.374 F400.000
G2 X111.285 Y105.672 Z0.000 I-0.155 J0.374 F400.000
G1 X111.285 Y105.672 Z-0.250 F400.000
G2 X111.345 Y105.703 Z-0.250 I0.215 J-0.343 F400.000
G2 X111.655 Y104.955 Z-0.250 I0.155 J-0.374 F400.000
G2 X111.285 Y105.672 Z-0.250 I-0.155 J0.374 F400.000
G1 X111.285 Y105.672 Z-0.500 F400.000
G2 X111.345 Y105.703 Z-0.500 I0.215 J-0.343 F400.000
G2 X111.655 Y104.955 Z-0.500 I0.155 J-0.374 F400.000
G2 X111.285 Y105.672 Z-0.500 I-0.155 J0.374 F400.000
G1 X111.285 Y105.672 Z-0.750 F400.000
G2 X111.345 Y105.703 Z-0.750 I0.215 J-0.343 F400.000
G2 X111.655 Y104.955 Z-0.750 I0.155 J-0.374 F400.000
G2 X111.285 Y105.672 Z-0.750 I-0.155 J0.374 F400.000
G1 X111.285 Y105.672 Z-1.000 F400.000
G2 X111.345 Y105.703 Z-1.000 I0.215 J-0.343 F400.000
G2 X111.655 Y104.955 Z-1.000 I0.155 J-0.374 F400.000
G2 X111.285 Y105.672 Z-1.000 I-0.155 J0.374 F400.000
G1 X111.285 Y105.672 Z-1.250 F400.000
G2 X111.345 Y105.703 Z-1.250 I0.215 J-0.343 F400.000
G2 X111.655 Y104.955 Z-1.250 I0.155 J-0.374 F400.000
G2 X111.285 Y105.672 Z-1.250 I-0.155 J0.374 F400.000
G1 X111.285 Y105.672 Z-1.500 F400.000
G2 X111.345 Y105.703 Z-1.500 I0.215 J-0.343 F400.000
G2 X111.655 Y104.955 Z-1.500 I0.155 J-0.374 F400.000
G2 X111.285 Y105.672 Z-1.500 I-0.155 J0.374 F400.000
G1 X111.285 Y105.672 Z-1.750 F400.000
G2 X111.345 Y105.703 Z-1.750 I0.215 J-0.343 F400.000
G2 X111.655 Y104.955 Z-1.750 I0.155 J-0.374 F400.000
G2 X111.285 Y105.672 Z-1.750 I-0.155 J0.374 F400.000
G1 X111.285 Y105.672 Z-2.000 F400.000
G2 X111.345 Y105.703 Z-2.000 I0.215 J-0.343 F400.000
G2 X111.655 Y104.955 Z-2.000 I0.155 J-0.374 F400.000
G2 X111.285 Y105.672 Z-2.000 I-0.155 J0.374 F400.000
G1 X111.285 Y105.672 Z-2.250 F400.000
G2 X111.345 Y105.703 Z-2.250 I0.215 J-0.343 F400.000
G2 X111.655 Y104.955 Z-2.250 I0.155 J-0.374 F400.000
G2 X111.285 Y105.672 Z-2.250 I-0.155 J0.374 F400.000
G1 X111.285 Y105.672 Z-2.500 F400.000
G2 X111.345 Y105.703 Z-2.500 I0.215 J-0.343 F400.000
G2 X111.655 Y104.955 Z-2.500 I0.155 J-0.374 F400.000
G2 X111.285 Y105.672 Z-2.500 I-0.155 J0.374 F400.000
G1 X111.285 Y105.672 Z-2.750 F400.000
G2 X111.345 Y105.703 Z-2.750 I0.215 J-0.343 F400.000
G2 X111.655 Y104.955 Z-2.750 I0.155 J-0.374 F400.000
G2 X111.285 Y105.672 Z-2.750 I-0.155 J0.374 F400.000
G1 X111.285 Y105.672 Z-3.000 F400.000
G2 X111.345 Y105.703 Z-3.000 I0.215 J-0.343 F400.000
G2 X111.655 Y104.955 Z-3.000 I0.155 J-0.374 F400.000
G2 X111.285 Y105.672 Z-3.000 I-0.155 J0.374 F400.000
G1 X111.285 Y105.672 Z-3.250 F400.000
G2 X111.345 Y105.703 Z-3.250 I0.215 J-0.343 F400.000
G2 X111.655 Y104.955 Z-3.250 I0.155 J-0.374 F400.000
G2 X111.285 Y105.672 Z-3.250 I-0.155 J0.374 F400.000
G1 X111.285 Y105.672 Z-3.425 F400.000
G2 X111.345 Y105.703 Z-3.425 I0.215 J-0.343 F400.000
G2 X111.655 Y104.955 Z-3.425 I0.155 J-0.374 F400.000
G2 X111.285 Y105.672 Z-3.425 I-0.155 J0.374 F400.000
G0 Z5.250
G0 Z5.250
G0 X111.285 Y105.672
G0 X98.493 Y95.579
G0 X98.493 Y95.579 Z3.250
G1 X98.493 Y95.579 Z0.000 F400.000
G2 X98.330 Y94.955 Z0.000 I-0.318 J-0.251 F400.000
G2 X98.020 Y95.703 Z0.000 I-0.155 J0.374 F400.000
G2 X98.493 Y95.579 Z0.000 I0.155 J-0.374 F400.000
G1 X98.493 Y95.579 Z-0.250 F400.000
G2 X98.330 Y94.955 Z-0.250 I-0.318 J-0.251 F400.000
G2 X98.020 Y95.703 Z-0.250 I-0.155 J0.374 F400.000
G2 X98.493 Y95.579 Z-0.250 I0.155 J-0.374 F400.000
G1 X98.493 Y95.579 Z-0.500 F400.000
G2 X98.330 Y94.955 Z-0.500 I-0.318 J-0.251 F400.000
G2 X98.020 Y95.703 Z-0.500 I-0.155 J0.374 F400.000
G2 X98.493 Y95.579 Z-0.500 I0.155 J-0.374 F400.000
G1 X98.493 Y95.579 Z-0.750 F400.000
G2 X98.330 Y94.955 Z-0.750 I-0.318 J-0.251 F400.000
G2 X98.020 Y95.703 Z-0.750 I-0.155 J0.374 F400.000
G2 X98.493 Y95.579 Z-0.750 I0.155 J-0.374 F400.000
G1 X98.493 Y95.579 Z-1.000 F400.000
G2 X98.330 Y94.955 Z-1.000 I-0.318 J-0.251 F400.000
G2 X98.020 Y95.703 Z-1.000 I-0.155 J0.374 F400.000
G2 X98.493 Y95.579 Z-1.000 I0.155 J-0.374 F400.000
G1 X98.493 Y95.579 Z-1.250 F400.000
G2 X98.330 Y94.955 Z-1.250 I-0.318 J-0.251 F400.000
G2 X98.020 Y95.703 Z-1.250 I-0.155 J0.374 F400.000
G2 X98.493 Y95.579 Z-1.250 I0.155 J-0.374 F400.000
G1 X98.493 Y95.579 Z-1.500 F400.000
G2 X98.330 Y94.955 Z-1.500 I-0.318 J-0.251 F400.000
G2 X98.020 Y95.703 Z-1.500 I-0.155 J0.374 F400.000
G2 X98.493 Y95.579 Z-1.500 I0.155 J-0.374 F400.000
G1 X98.493 Y95.579 Z-1.750 F400.000
G2 X98.330 Y94.955 Z-1.750 I-0.318 J-0.251 F400.000
G2 X98.020 Y95.703 Z-1.750 I-0.155 J0.374 F400.000
G2 X98.493 Y95.579 Z-1.750 I0.155 J-0.374 F400.000
G1 X98.493 Y95.579 Z-2.000 F400.000
G2 X98.330 Y94.955 Z-2.000 I-0.318 J-0.251 F400.000
G2 X98.020 Y95.703 Z-2.000 I-0.155 J0.374 F400.000
G2 X98.493 Y95.579 Z-2.000 I0.155 J-0.374 F400.000
G1 X98.493 Y95.579 Z-2.250 F400.000
G2 X98.330 Y94.955 Z-2.250 I-0.318 J-0.251 F400.000
G2 X98.020 Y95.703 Z-2.250 I-0.155 J0.374 F400.000
G2 X98.493 Y95.579 Z-2.250 I0.155 J-0.374 F400.000
G1 X98.493 Y95.579 Z-2.500 F400.000
G2 X98.330 Y94.955 Z-2.500 I-0.318 J-0.251 F400.000
G2 X98.020 Y95.703 Z-2.500 I-0.155 J0.374 F400.000
G2 X98.493 Y95.579 Z-2.500 I0.155 J-0.374 F400.000
G1 X98.493 Y95.579 Z-2.750 F400.000
G2 X98.330 Y94.955 Z-2.750 I-0.318 J-0.251 F400.000
G2 X98.020 Y95.703 Z-2.750 I-0.155 J0.374 F400.000
G2 X98.493 Y95.579 Z-2.750 I0.155 J-0.374 F400.000
G1 X98.493 Y95.579 Z-3.000 F400.000
G2 X98.330 Y94.955 Z-3.000 I-0.318 J-0.251 F400.000
G2 X98.020 Y95.703 Z-3.000 I-0.155 J0.374 F400.000
G2 X98.493 Y95.579 Z-3.000 I0.155 J-0.374 F400.000
G1 X98.493 Y95.579 Z-3.250 F400.000
G2 X98.330 Y94.955 Z-3.250 I-0.318 J-0.251 F400.000
G2 X98.020 Y95.703 Z-3.250 I-0.155 J0.374 F400.000
G2 X98.493 Y95.579 Z-3.250 I0.155 J-0.374 F400.000
G1 X98.493 Y95.579 Z-3.425 F400.000
G2 X98.330 Y94.955 Z-3.425 I-0.318 J-0.251 F400.000
G2 X98.020 Y95.703 Z-3.425 I-0.155 J0.374 F400.000
G2 X98.493 Y95.579 Z-3.425 I0.155 J-0.374 F400.000
G0 Z5.250
G0 Z5.250
G0 X98.493 Y95.579
G0 X66.464 Y127.045
G0 X66.464 Y127.045 Z3.250
G1 X66.464 Y127.045 Z0.000 F400.000
G2 X66.330 Y126.955 Z0.000 I-0.289 J0.284 F400.000
G2 X66.020 Y127.703 Z0.000 I-0.155 J0.374 F400.000
G2 X66.464 Y127.045 Z0.000 I0.155 J-0.374 F400.000
G1 X66.464 Y127.045 Z-0.250 F400.000
G2 X66.330 Y126.955 Z-0.250 I-0.289 J0.284 F400.000
G2 X66.020 Y127.703 Z-0.250 I-0.155 J0.374 F400.000
G2 X66.464 Y127.045 Z-0.250 I0.155 J-0.374 F400.000
G1 X66.464 Y127.045 Z-0.500 F400.000
G2 X66.330 Y126.955 Z-0.500 I-0.289 J0.284 F400.000
G2 X66.020 Y127.703 Z-0.500 I-0.155 J0.374 F400.000
G2 X66.464 Y127.045 Z-0.500 I0.155 J-0.374 F400.000
G1 X66.464 Y127.045 Z-0.750 F400.000
G2 X66.330 Y126.955 Z-0.750 I-0.289 J0.284 F400.000
G2 X66.020 Y127.703 Z-0.750 I-0.155 J0.374 F400.000
G2 X66.464 Y127.045 Z-0.750 I0.155 J-0.374 F400.000
G1 X66.464 Y127.045 Z-1.000 F400.000
G2 X66.330 Y126.955 Z-1.000 I-0.289 J0.284 F400.000
G2 X66.020 Y127.703 Z-1.000 I-0.155 J0.374 F400.000
G2 X66.464 Y127.045 Z-1.000 I0.155 J-0.374 F400.000
G1 X66.464 Y127.045 Z-1.250 F400.000
G2 X66.330 Y126.955 Z-1.250 I-0.289 J0.284 F400.000
G2 X66.020 Y127.703 Z-1.250 I-0.155 J0.374 F400.000
G2 X66.464 Y127.045 Z-1.250 I0.155 J-0.374 F400.000
G1 X66.464 Y127.045 Z-1.500 F400.000
G2 X66.330 Y126.955 Z-1.500 I-0.289 J0.284 F400.000
G2 X66.020 Y127.703 Z-1.500 I-0.155 J0.374 F400.000
G2 X66.464 Y127.045 Z-1.500 I0.155 J-0.374 F400.000
G1 X66.464 Y127.045 Z-1.750 F400.000
G2 X66.330 Y126.955 Z-1.750 I-0.289 J0.284 F400.000
G2 X66.020 Y127.703 Z-1.750 I-0.155 J0.374 F400.000
G2 X66.464 Y127.045 Z-1.750 I0.155 J-0.374 F400.000
G1 X66.464 Y127.045 Z-2.000 F400.000
G2 X66.330 Y126.955 Z-2.000 I-0.289 J0.284 F400.000
G2 X66.020 Y127.703 Z-2.000 I-0.155 J0.374 F400.000
G2 X66.464 Y127.045 Z-2.000 I0.155 J-0.374 F400.000
G1 X66.464 Y127.045 Z-2.250 F400.000
G2 X66.330 Y126.955 Z-2.250 I-0.289 J0.284 F400.000
G2 X66.020 Y127.703 Z-2.250 I-0.155 J0.374 F400.000
G2 X66.464 Y127.045 Z-2.250 I0.155 J-0.374 F400.000
G1 X66.464 Y127.045 Z-2.500 F400.000
G2 X66.330 Y126.955 Z-2.500 I-0.289 J0.284 F400.000
G2 X66.020 Y127.703 Z-2.500 I-0.155 J0.374 F400.000
G2 X66.464 Y127.045 Z-2.500 I0.155 J-0.374 F400.000
G1 X66.464 Y127.045 Z-2.750 F400.000
G2 X66.330 Y126.955 Z-2.750 I-0.289 J0.284 F400.000
G2 X66.020 Y127.703 Z-2.750 I-0.155 J0.374 F400.000
G2 X66.464 Y127.045 Z-2.750 I0.155 J-0.374 F400.000
G1 X66.464 Y127.045 Z-3.000 F400.000
G2 X66.330 Y126.955 Z-3.000 I-0.289 J0.284 F400.000
G2 X66.020 Y127.703 Z-3.000 I-0.155 J0.374 F400.000
G2 X66.464 Y127.045 Z-3.000 I0.155 J-0.374 F400.000
G1 X66.464 Y127.045 Z-3.250 F400.000
G2 X66.330 Y126.955 Z-3.250 I-0.289 J0.284 F400.000
G2 X66.020 Y127.703 Z-3.250 I-0.155 J0.374 F400.000
G2 X66.464 Y127.045 Z-3.250 I0.155 J-0.374 F400.000
G1 X66.464 Y127.045 Z-3.425 F400.000
G2 X66.330 Y126.955 Z-3.425 I-0.289 J0.284 F400.000
G2 X66.020 Y127.703 Z-3.425 I-0.155 J0.374 F400.000
G2 X66.464 Y127.045 Z-3.425 I0.155 J-0.374 F400.000
G0 Z5.250
G0 Z5.250
G0 X66.464 Y127.045
G0 X15.872 Y105.487
G0 X15.872 Y105.487 Z3.250
G1 X15.872 Y105.487 Z0.000 F400.000
G2 X15.655 Y104.955 Z0.000 I-0.372 J-0.159 F400.000
G2 X15.345 Y105.703 Z0.000 I-0.155 J0.374 F400.000
G2 X15.872 Y105.487 Z0.000 I0.155 J-0.374 F400.000
G1 X15.872 Y105.487 Z-0.250 F400.000
G2 X15.655 Y104.955 Z-0.250 I-0.372 J-0.159 F400.000
G2 X15.345 Y105.703 Z-0.250 I-0.155 J0.374 F400.000
G2 X15.872 Y105.487 Z-0.250 I0.155 J-0.374 F400.000
G1 X15.872 Y105.487 Z-0.500 F400.000
G2 X15.655 Y104.955 Z-0.500 I-0.372 J-0.159 F400.000
G2 X15.345 Y105.703 Z-0.500 I-0.155 J0.374 F400.000
G2 X15.872 Y105.487 Z-0.500 I0.155 J-0.374 F400.000
G1 X15.872 Y105.487 Z-0.750 F400.000
G2 X15.655 Y104.955 Z-0.750 I-0.372 J-0.159 F400.000
G2 X15.345 Y105.703 Z-0.750 I-0.155 J0.374 F400.000
G2 X15.872 Y105.487 Z-0.750 I0.155 J-0.374 F400.000
G1 X15.872 Y105.487 Z-1.000 F400.000
G2 X15.655 Y104.955 Z-1.000 I-0.372 J-0.159 F400.000
G2 X15.345 Y105.703 Z-1.000 I-0.155 J0.374 F400.000
G2 X15.872 Y105.487 Z-1.000 I0.155 J-0.374 F400.000
G1 X15.872 Y105.487 Z-1.250 F400.000
G2 X15.655 Y104.955 Z-1.250 I-0.372 J-0.159 F400.000
G2 X15.345 Y105.703 Z-1.250 I-0.155 J0.374 F400.000
G2 X15.872 Y105.487 Z-1.250 I0.155 J-0.374 F400.000
G1 X15.872 Y105.487 Z-1.500 F400.000
G2 X15.655 Y104.955 Z-1.500 I-0.372 J-0.159 F400.000
G2 X15.345 Y105.703 Z-1.500 I-0.155 J0.374 F400.000
G2 X15.872 Y105.487 Z-1.500 I0.155 J-0.374 F400.000
G1 X15.872 Y105.487 Z-1.750 F400.000
G2 X15.655 Y104.955 Z-1.750 I-0.372 J-0.159 F400.000
G2 X15.345 Y105.703 Z-1.750 I-0.155 J0.374 F400.000
G2 X15.872 Y105.487 Z-1.750 I0.155 J-0.374 F400.000
G1 X15.872 Y105.487 Z-2.000 F400.000
G2 X15.655 Y104.955 Z-2.000 I-0.372 J-0.159 F400.000
G2 X15.345 Y105.703 Z-2.000 I-0.155 J0.374 F400.000
G2 X15.872 Y105.487 Z-2.000 I0.155 J-0.374 F400.000
G1 X15.872 Y105.487 Z-2.250 F400.000
G2 X15.655 Y104.955 Z-2.250 I-0.372 J-0.159 F400.000
G2 X15.345 Y105.703 Z-2.250 I-0.155 J0.374 F400.000
G2 X15.872 Y105.487 Z-2.250 I0.155 J-0.374 F400.000
G1 X15.872 Y105.487 Z-2.500 F400.000
G2 X15.655 Y104.955 Z-2.500 I-0.372 J-0.159 F400.000
G2 X15.345 Y105.703 Z-2.500 I-0.155 J0.374 F400.000
G2 X15.872 Y105.487 Z-2.500 I0.155 J-0.374 F400.000
G1 X15.872 Y105.487 Z-2.750 F400.000
G2 X15.655 Y104.955 Z-2.750 I-0.372 J-0.159 F400.000
G2 X15.345 Y105.703 Z-2.750 I-0.155 J0.374 F400.000
G2 X15.872 Y105.487 Z-2.750 I0.155 J-0.374 F400.000
G1 X15.872 Y105.487 Z-3.000 F400.000
G2 X15.655 Y104.955 Z-3.000 I-0.372 J-0.159 F400.000
G2 X15.345 Y105.703 Z-3.000 I-0.155 J0.374 F400.000
G2 X15.872 Y105.487 Z-3.000 I0.155 J-0.374 F400.000
G1 X15.872 Y105.487 Z-3.250 F400.000
G2 X15.655 Y104.955 Z-3.250 I-0.372 J-0.159 F400.000
G2 X15.345 Y105.703 Z-3.250 I-0.155 J0.374 F400.000
G2 X15.872 Y105.487 Z-3.250 I0.155 J-0.374 F400.000
G1 X15.872 Y105.487 Z-3.425 F400.000
G2 X15.655 Y104.955 Z-3.425 I-0.372 J-0.159 F400.000
G2 X15.345 Y105.703 Z-3.425 I-0.155 J0.374 F400.000
G2 X15.872 Y105.487 Z-3.425 I0.155 J-0.374 F400.000
G0 Z5.250
G0 Z5.250
G0 X15.872 Y105.487
G0 X111.409 Y21.593
G0 X111.409 Y21.593 Z3.250
G1 X111.409 Y21.593 Z0.000 F400.000
G2 X111.558 Y21.700 Z0.000 I0.304 J-0.267 F400.000
G2 X112.087 Y21.481 Z0.000 I0.155 J-0.374 F400.000
G2 X111.868 Y20.952 Z0.000 I-0.374 J-0.155 F400.000
G2 X111.409 Y21.593 Z0.000 I-0.155 J0.374 F400.000
G1 X111.409 Y21.593 Z-0.250 F400.000
G2 X111.558 Y21.700 Z-0.250 I0.304 J-0.267 F400.000
G2 X112.087 Y21.481 Z-0.250 I0.155 J-0.374 F400.000
G2 X111.868 Y20.952 Z-0.250 I-0.374 J-0.155 F400.000
G2 X111.409 Y21.593 Z-0.250 I-0.155 J0.374 F400.000
G1 X111.409 Y21.593 Z-0.500 F400.000
G2 X111.558 Y21.700 Z-0.500 I0.304 J-0.267 F400.000
G2 X112.087 Y21.481 Z-0.500 I0.155 J-0.374 F400.000
G2 X111.868 Y20.952 Z-0.500 I-0.374 J-0.155 F400.000
G2 X111.409 Y21.593 Z-0.500 I-0.155 J0.374 F400.000
G1 X111.409 Y21.593 Z-0.750 F400.000
G2 X111.558 Y21.700 Z-0.750 I0.304 J-0.267 F400.000
G2 X112.087 Y21.481 Z-0.750 I0.155 J-0.374 F400.000
G2 X111.868 Y20.952 Z-0.750 I-0.374 J-0.155 F400.000
G2 X111.409 Y21.593 Z-0.750 I-0.155 J0.374 F400.000
G1 X111.409 Y21.593 Z-1.000 F400.000
G2 X111.558 Y21.700 Z-1.000 I0.304 J-0.267 F400.000
G2 X112.087 Y21.481 Z-1.000 I0.155 J-0.374 F400.000
G2 X111.868 Y20.952 Z-1.000 I-0.374 J-0.155 F400.000
G2 X111.409 Y21.593 Z-1.000 I-0.155 J0.374 F400.000
G1 X111.409 Y21.593 Z-1.250 F400.000
G2 X111.558 Y21.700 Z-1.250 I0.304 J-0.267 F400.000
G2 X112.087 Y21.481 Z-1.250 I0.155 J-0.374 F400.000
G2 X111.868 Y20.952 Z-1.250 I-0.374 J-0.155 F400.000
G2 X111.409 Y21.593 Z-1.250 I-0.155 J0.374 F400.000
G1 X111.409 Y21.593 Z-1.500 F400.000
G2 X111.558 Y21.700 Z-1.500 I0.304 J-0.267 F400.000
G2 X112.087 Y21.481 Z-1.500 I0.155 J-0.374 F400.000
G2 X111.868 Y20.952 Z-1.500 I-0.374 J-0.155 F400.000
G2 X111.409 Y21.593 Z-1.500 I-0.155 J0.374 F400.000
G1 X111.409 Y21.593 Z-1.750 F400.000
G2 X111.558 Y21.700 Z-1.750 I0.304 J-0.267 F400.000
G2 X112.087 Y21.481 Z-1.750 I0.155 J-0.374 F400.000
G2 X111.868 Y20.952 Z-1.750 I-0.374 J-0.155 F400.000
G2 X111.409 Y21.593 Z-1.750 I-0.155 J0.374 F400.000
G1 X111.409 Y21.593 Z-2.000 F400.000
G2 X111.558 Y21.700 Z-2.000 I0.304 J-0.267 F400.000
G2 X112.087 Y21.481 Z-2.000 I0.155 J-0.374 F400.000
G2 X111.868 Y20.952 Z-2.000 I-0.374 J-0.155 F400.000
G2 X111.409 Y21.593 Z-2.000 I-0.155 J0.374 F400.000
G1 X111.409 Y21.593 Z-2.250 F400.000
G2 X111.558 Y21.700 Z-2.250 I0.304 J-0.267 F400.000
G2 X112.087 Y21.481 Z-2.250 I0.155 J-0.374 F400.000
G2 X111.868 Y20.952 Z-2.250 I-0.374 J-0.155 F400.000
G2 X111.409 Y21.593 Z-2.250 I-0.155 J0.374 F400.000
G1 X111.409 Y21.593 Z-2.500 F400.000
G2 X111.558 Y21.700 Z-2.500 I0.304 J-0.267 F400.000
G2 X112.087 Y21.481 Z-2.500 I0.155 J-0.374 F400.000
G2 X111.868 Y20.952 Z-2.500 I-0.374 J-0.155 F400.000
G2 X111.409 Y21.593 Z-2.500 I-0.155 J0.374 F400.000
G1 X111.409 Y21.593 Z-2.750 F400.000
G2 X111.558 Y21.700 Z-2.750 I0.304 J-0.267 F400.000
G2 X112.087 Y21.481 Z-2.750 I0.155 J-0.374 F400.000
G2 X111.868 Y20.952 Z-2.750 I-0.374 J-0.155 F400.000
G2 X111.409 Y21.593 Z-2.750 I-0.155 J0.374 F400.000
G1 X111.409 Y21.593 Z-3.000 F400.000
G2 X111.558 Y21.700 Z-3.000 I0.304 J-0.267 F400.000
G2 X112.087 Y21.481 Z-3.000 I0.155 J-0.374 F400.000
G2 X111.868 Y20.952 Z-3.000 I-0.374 J-0.155 F400.000
G2 X111.409 Y21.593 Z-3.000 I-0.155 J0.374 F400.000
G1 X111.409 Y21.593 Z-3.250 F400.000
G2 X111.558 Y21.700 Z-3.250 I0.304 J-0.267 F400.000
G2 X112.087 Y21.481 Z-3.250 I0.155 J-0.374 F400.000
G2 X111.868 Y20.952 Z-3.250 I-0.374 J-0.155 F400.000
G2 X111.409 Y21.593 Z-3.250 I-0.155 J0.374 F400.000
G1 X111.409 Y21.593 Z-3.425 F400.000
G2 X111.558 Y21.700 Z-3.425 I0.304 J-0.267 F400.000
G2 X112.087 Y21.481 Z-3.425 I0.155 J-0.374 F400.000
G2 X111.868 Y20.952 Z-3.425 I-0.374 J-0.155 F400.000
G2 X111.409 Y21.593 Z-3.425 I-0.155 J0.374 F400.000
G0 Z5.250
G0 Z5.250
G0 X111.409 Y21.593
G0 X146.095 Y22.320
G0 X146.095 Y22.320 Z3.250
G1 X146.095 Y22.320 Z0.000 F400.000
G2 X146.345 Y22.703 Z0.000 I0.405 J0.008 F400.000
G2 X146.655 Y21.955 Z0.000 I0.155 J-0.374 F400.000
G2 X146.095 Y22.320 Z0.000 I-0.155 J0.374 F400.000
G1 X146.095 Y22.320 Z-0.250 F400.000
G2 X146.345 Y22.703 Z-0.250 I0.405 J0.008 F400.000
G2 X146.655 Y21.955 Z-0.250 I0.155 J-0.374 F400.000
G2 X146.095 Y22.320 Z-0.250 I-0.155 J0.374 F400.000
G1 X146.095 Y22.320 Z-0.500 F400.000
G2 X146.345 Y22.703 Z-0.500 I0.405 J0.008 F400.000
G2 X146.655 Y21.955 Z-0.500 I0.155 J-0.374 F400.000
G2 X146.095 Y22.320 Z-0.500 I-0.155 J0.374 F400.000
G1 X146.095 Y22.320 Z-0.750 F400.000
G2 X146.345 Y22.703 Z-0.750 I0.405 J0.008 F400.000
G2 X146.655 Y21.955 Z-0.750 I0.155 J-0.374 F400.000
G2 X146.095 Y22.320 Z-0.750 I-0.155 J0.374 F400.000
G1 X146.095 Y22.320 Z-1.000 F400.000
G2 X146.345 Y22.703 Z-1.000 I0.405 J0.008 F400.000
G2 X146.655 Y21.955 Z-1.000 I0.155 J-0.374 F400.000
G2 X146.095 Y22.320 Z-1.000 I-0.155 J0.374 F400.000
G1 X146.095 Y22.320 Z-1.250 F400.000
G2 X146.345 Y22.703 Z-1.250 I0.405 J0.008 F400.000
G2 X146.655 Y21.955 Z-1.250 I0.155 J-0.374 F400.000
G2 X146.095 Y22.320 Z-1.250 I-0.155 J0.374 F400.000
G1 X146.095 Y22.320 Z-1.500 F400.000
G2 X146.345 Y22.703 Z-1.500 I0.405 J0.008 F400.000
G2 X146.655 Y21.955 Z-1.500 I0.155 J-0.374 F400.000
G2 X146.095 Y22.320 Z-1.500 I-0.155 J0.374 F400.000
G1 X146.095 Y22.320 Z-1.750 F400.000
G2 X146.345 Y22.703 Z-1.750 I0.405 J0.008 F400.000
G2 X146.655 Y21.955 Z-1.750 I0.155 J-0.374 F400.000
G2 X146.095 Y22.320 Z-1.750 I-0.155 J0.374 F400.000
G1 X146.095 Y22.320 Z-2.000 F400.000
G2 X146.345 Y22.703 Z-2.000 I0.405 J0.008 F400.000
G2 X146.655 Y21.955 Z-2.000 I0.155 J-0.374 F400.000
G2 X146.095 Y22.320 Z-2.000 I-0.155 J0.374 F400.000
G1 X146.095 Y22.320 Z-2.250 F400.000
G2 X146.345 Y22.703 Z-2.250 I0.405 J0.008 F400.000
G2 X146.655 Y21.955 Z-2.250 I0.155 J-0.374 F400.000
G2 X146.095 Y22.320 Z-2.250 I-0.155 J0.374 F400.000
G1 X146.095 Y22.320 Z-2.500 F400.000
G2 X146.345 Y22.703 Z-2.500 I0.405 J0.008 F400.000
G2 X146.655 Y21.955 Z-2.500 I0.155 J-0.374 F400.000
G2 X146.095 Y22.320 Z-2.500 I-0.155 J0.374 F400.000
G1 X146.095 Y22.320 Z-2.750 F400.000
G2 X146.345 Y22.703 Z-2.750 I0.405 J0.008 F400.000
G2 X146.655 Y21.955 Z-2.750 I0.155 J-0.374 F400.000
G2 X146.095 Y22.320 Z-2.750 I-0.155 J0.374 F400.000
G1 X146.095 Y22.320 Z-3.000 F400.000
G2 X146.345 Y22.703 Z-3.000 I0.405 J0.008 F400.000
G2 X146.655 Y21.955 Z-3.000 I0.155 J-0.374 F400.000
G2 X146.095 Y22.320 Z-3.000 I-0.155 J0.374 F400.000
G1 X146.095 Y22.320 Z-3.250 F400.000
G2 X146.345 Y22.703 Z-3.250 I0.405 J0.008 F400.000
G2 X146.655 Y21.955 Z-3.250 I0.155 J-0.374 F400.000
G2 X146.095 Y22.320 Z-3.250 I-0.155 J0.374 F400.000
G1 X146.095 Y22.320 Z-3.425 F400.000
G2 X146.345 Y22.703 Z-3.425 I0.405 J0.008 F400.000
G2 X146.655 Y21.955 Z-3.425 I0.155 J-0.374 F400.000
G2 X146.095 Y22.320 Z-3.425 I-0.155 J0.374 F400.000
G0 Z5.250
G0 Z5.250
G0 X146.095 Y22.320
G0 X161.473 Y48.428
G0 X161.473 Y48.428 Z3.250
G1 X161.473 Y48.428 Z0.000 F400.000
G2 X161.524 Y49.151 Z0.000 I0.205 J0.349 F400.000
G2 X162.053 Y48.932 Z0.000 I0.155 J-0.374 F400.000
G2 X161.834 Y48.403 Z0.000 I-0.374 J-0.155 F400.000
G2 X161.473 Y48.428 Z0.000 I-0.155 J0.374 F400.000
G1 X161.473 Y48.428 Z-0.250 F400.000
G2 X161.524 Y49.151 Z-0.250 I0.205 J0.349 F400.000
G2 X162.053 Y48.932 Z-0.250 I0.155 J-0.374 F400.000
G2 X161.834 Y48.403 Z-0.250 I-0.374 J-0.155 F400.000
G2 X161.473 Y48.428 Z-0.250 I-0.155 J0.374 F400.000
G1 X161.473 Y48.428 Z-0.500 F400.000
G2 X161.524 Y49.151 Z-0.500 I0.205 J0.349 F400.000
G2 X162.053 Y48.932 Z-0.500 I0.155 J-0.374 F400.000
G2 X161.834 Y48.403 Z-0.500 I-0.374 J-0.155 F400.000
G2 X161.473 Y48.428 Z-0.500 I-0.155 J0.374 F400.000
G1 X161.473 Y48.428 Z-0.750 F400.000
G2 X161.524 Y49.151 Z-0.750 I0.205 J0.349 F400.000
G2 X162.053 Y48.932 Z-0.750 I0.155 J-0.374 F400.000
G2 X161.834 Y48.403 Z-0.750 I-0.374 J-0.155 F400.000
G2 X161.473 Y48.428 Z-0.750 I-0.155 J0.374 F400.000
G1 X161.473 Y48.428 Z-1.000 F400.000
G2 X161.524 Y49.151 Z-1.000 I0.205 J0.349 F400.000
G2 X162.053 Y48.932 Z-1.000 I0.155 J-0.374 F400.000
G2 X161.834 Y48.403 Z-1.000 I-0.374 J-0.155 F400.000
G2 X161.473 Y48.428 Z-1.000 I-0.155 J0.374 F400.000
G1 X161.473 Y48.428 Z-1.250 F400.000
G2 X161.524 Y49.151 Z-1.250 I0.205 J0.349 F400.000
G2 X162.053 Y48.932 Z-1.250 I0.155 J-0.374 F400.000
G2 X161.834 Y48.403 Z-1.250 I-0.374 J-0.155 F400.000
G2 X161.473 Y48.428 Z-1.250 I-0.155 J0.374 F400.000
G1 X161.473 Y48.428 Z-1.500 F400.000
G2 X161.524 Y49.151 Z-1.500 I0.205 J0.349 F400.000
G2 X162.053 Y48.932 Z-1.500 I0.155 J-0.374 F400.000
G2 X161.834 Y48.403 Z-1.500 I-0.374 J-0.155 F400.000
G2 X161.473 Y48.428 Z-1.500 I-0.155 J0.374 F400.000
G1 X161.473 Y48.428 Z-1.750 F400.000
G2 X161.524 Y49.151 Z-1.750 I0.205 J0.349 F400.000
G2 X162.053 Y48.932 Z-1.750 I0.155 J-0.374 F400.000
G2 X161.834 Y48.403 Z-1.750 I-0.374 J-0.155 F400.000
G2 X161.473 Y48.428 Z-1.750 I-0.155 J0.374 F400.000
G1 X161.473 Y48.428 Z-2.000 F400.000
G2 X161.524 Y49.151 Z-2.000 I0.205 J0.349 F400.000
G2 X162.053 Y48.932 Z-2.000 I0.155 J-0.374 F400.000
G2 X161.834 Y48.403 Z-2.000 I-0.374 J-0.155 F400.000
G2 X161.473 Y48.428 Z-2.000 I-0.155 J0.374 F400.000
G1 X161.473 Y48.428 Z-2.250 F400.000
G2 X161.524 Y49.151 Z-2.250 I0.205 J0.349 F400.000
G2 X162.053 Y48.932 Z-2.250 I0.155 J-0.374 F400.000
G2 X161.834 Y48.403 Z-2.250 I-0.374 J-0.155 F400.000
G2 X161.473 Y48.428 Z-2.250 I-0.155 J0.374 F400.000
G1 X161.473 Y48.428 Z-2.500 F400.000
G2 X161.524 Y49.151 Z-2.500 I0.205 J0.349 F400.000
G2 X162.053 Y48.932 Z-2.500 I0.155 J-0.374 F400.000
G2 X161.834 Y48.403 Z-2.500 I-0.374 J-0.155 F400.000
G2 X161.473 Y48.428 Z-2.500 I-0.155 J0.374 F400.000
G1 X161.473 Y48.428 Z-2.750 F400.000
G2 X161.524 Y49.151 Z-2.750 I0.205 J0.349 F400.000
G2 X162.053 Y48.932 Z-2.750 I0.155 J-0.374 F400.000
G2 X161.834 Y48.403 Z-2.750 I-0.374 J-0.155 F400.000
G2 X161.473 Y48.428 Z-2.750 I-0.155 J0.374 F400.000
G1 X161.473 Y48.428 Z-3.000 F400.000
G2 X161.524 Y49.151 Z-3.000 I0.205 J0.349 F400.000
G2 X162.053 Y48.932 Z-3.000 I0.155 J-0.374 F400.000
G2 X161.834 Y48.403 Z-3.000 I-0.374 J-0.155 F400.000
G2 X161.473 Y48.428 Z-3.000 I-0.155 J0.374 F400.000
G1 X161.473 Y48.428 Z-3.250 F400.000
G2 X161.524 Y49.151 Z-3.250 I0.205 J0.349 F400.000
G2 X162.053 Y48.932 Z-3.250 I0.155 J-0.374 F400.000
G2 X161.834 Y48.403 Z-3.250 I-0.374 J-0.155 F400.000
G2 X161.473 Y48.428 Z-3.250 I-0.155 J0.374 F400.000
G1 X161.473 Y48.428 Z-3.425 F400.000
G2 X161.524 Y49.151 Z-3.425 I0.205 J0.349 F400.000
G2 X162.053 Y48.932 Z-3.425 I0.155 J-0.374 F400.000
G2 X161.834 Y48.403 Z-3.425 I-0.374 J-0.155 F400.000
G2 X161.473 Y48.428 Z-3.425 I-0.155 J0.374 F400.000
G0 Z5.250
G0 Z5.250
G0 X161.473 Y48.428
G0 X146.877 Y54.180
G0 X146.877 Y54.180 Z3.250
G1 X146.877 Y54.180 Z0.000 F400.000
G2 X146.655 Y53.955 Z0.000 I-0.377 J0.148 F400.000
G2 X146.126 Y54.174 Z0.000 I-0.155 J0.374 F400.000
G2 X146.345 Y54.703 Z0.000 I0.374 J0.155 F400.000
G2 X146.877 Y54.180 Z0.000 I0.155 J-0.374 F400.000
G1 X146.877 Y54.180 Z-0.250 F400.000
G2 X146.655 Y53.955 Z-0.250 I-0.377 J0.148 F400.000
G2 X146.126 Y54.174 Z-0.250 I-0.155 J0.374 F400.000
G2 X146.345 Y54.703 Z-0.250 I0.374 J0.155 F400.000
G2 X146.877 Y54.180 Z-0.250 I0.155 J-0.374 F400.000
G1 X146.877 Y54.180 Z-0.500 F400.000
G2 X146.655 Y53.955 Z-0.500 I-0.377 J0.148 F400.000
G2 X146.126 Y54.174 Z-0.500 I-0.155 J0.374 F400.000
G2 X146.345 Y54.703 Z-0.500 I0.374 J0.155 F400.000
G2 X146.877 Y54.180 Z-0.500 I0.155 J-0.374 F400.000
G1 X146.877 Y54.180 Z-0.750 F400.000
G2 X146.655 Y53.955 Z-0.750 I-0.377 J0.148 F400.000
G2 X146.126 Y54.174 Z-0.750 I-0.155 J0.374 F400.000
G2 X146.345 Y54.703 Z-0.750 I0.374 J0.155 F400.000
G2 X146.877 Y54.180 Z-0.750 I0.155 J-0.374 F400.000
G1 X146.877 Y54.180 Z-1.000 F400.000
G2 X146.655 Y53.955 Z-1.000 I-0.377 J0.148 F400.000
G2 X146.126 Y54.174 Z-1.000 I-0.155 J0.374 F400.000
G2 X146.345 Y54.703 Z-1.000 I0.374 J0.155 F400.000
G2 X146.877 Y54.180 Z-1.000 I0.155 J-0.374 F400.000
G1 X146.877 Y54.180 Z-1.250 F400.000
G2 X146.655 Y53.955 Z-1.250 I-0.377 J0.148 F400.000
G2 X146.126 Y54.174 Z-1.250 I-0.155 J0.374 F400.000
G2 X146.345 Y54.703 Z-1.250 I0.374 J0.155 F400.000
G2 X146.877 Y54.180 Z-1.250 I0.155 J-0.374 F400.000
G1 X146.877 Y54.180 Z-1.500 F400.000
G2 X146.655 Y53.955 Z-1.500 I-0.377 J0.148 F400.000
G2 X146.126 Y54.174 Z-1.500 I-0.155 J0.374 F400.000
G2 X146.345 Y54.703 Z-1.500 I0.374 J0.155 F400.000
G2 X146.877 Y54.180 Z-1.500 I0.155 J-0.374 F400.000
G1 X146.877 Y54.180 Z-1.750 F400.000
G2 X146.655 Y53.955 Z-1.750 I-0.377 J0.148 F400.000
G2 X146.126 Y54.174 Z-1.750 I-0.155 J0.374 F400.000
G2 X146.345 Y54.703 Z-1.750 I0.374 J0.155 F400.000
G2 X146.877 Y54.180 Z-1.750 I0.155 J-0.374 F400.000
G1 X146.877 Y54.180 Z-2.000 F400.000
G2 X146.655 Y53.955 Z-2.000 I-0.377 J0.148 F400.000
G2 X146.126 Y54.174 Z-2.000 I-0.155 J0.374 F400.000
G2 X146.345 Y54.703 Z-2.000 I0.374 J0.155 F400.000
G2 X146.877 Y54.180 Z-2.000 I0.155 J-0.374 F400.000
G1 X146.877 Y54.180 Z-2.250 F400.000
G2 X146.655 Y53.955 Z-2.250 I-0.377 J0.148 F400.000
G2 X146.126 Y54.174 Z-2.250 I-0.155 J0.374 F400.000
G2 X146.345 Y54.703 Z-2.250 I0.374 J0.155 F400.000
G2 X146.877 Y54.180 Z-2.250 I0.155 J-0.374 F400.000
G1 X146.877 Y54.180 Z-2.500 F400.000
G2 X146.655 Y53.955 Z-2.500 I-0.377 J0.148 F400.000
G2 X146.126 Y54.174 Z-2.500 I-0.155 J0.374 F400.000
G2 X146.345 Y54.703 Z-2.500 I0.374 J0.155 F400.000
G2 X146.877 Y54.180 Z-2.500 I0.155 J-0.374 F400.000
G1 X146.877 Y54.180 Z-2.750 F400.000
G2 X146.655 Y53.955 Z-2.750 I-0.377 J0.148 F400.000
G2 X146.126 Y54.174 Z-2.750 I-0.155 J0.374 F400.000
G2 X146.345 Y54.703 Z-2.750 I0.374 J0.155 F400.000
G2 X146.877 Y54.180 Z-2.750 I0.155 J-0.374 F400.000
G1 X146.877 Y54.180 Z-3.000 F400.000
G2 X146.655 Y53.955 Z-3.000 I-0.377 J0.148 F400.000
G2 X146.126 Y54.174 Z-3.000 I-0.155 J0.374 F400.000
G2 X146.345 Y54.703 Z-3.000 I0.374 J0.155 F400.000
G2 X146.877 Y54.180 Z-3.000 I0.155 J-0.374 F400.000
G1 X146.877 Y54.180 Z-3.250 F400.000
G2 X146.655 Y53.955 Z-3.250 I-0.377 J0.148 F400.000
G2 X146.126 Y54.174 Z-3.250 I-0.155 J0.374 F400.000
G2 X146.345 Y54.703 Z-3.250 I0.374 J0.155 F400.000
G2 X146.877 Y54.180 Z-3.250 I0.155 J-0.374 F400.000
G1 X146.877 Y54.180 Z-3.425 F400.000
G2 X146.655 Y53.955 Z-3.425 I-0.377 J0.148 F400.000
G2 X146.126 Y54.174 Z-3.425 I-0.155 J0.374 F400.000
G2 X146.345 Y54.703 Z-3.425 I0.374 J0.155 F400.000
G2 X146.877 Y54.180 Z-3.425 I0.155 J-0.374 F400.000
G0 Z5.250
G0 Z5.250
G0 X146.877 Y54.180
G0 X146.511 Y67.924
G0 X146.511 Y67.924 Z3.250
G1 X146.511 Y67.924 Z0.000 F400.000
G2 X146.345 Y68.703 Z0.000 I-0.011 J0.405 F400.000
G2 X146.655 Y67.955 Z0.000 I0.155 J-0.374 F400.000
G2 X146.511 Y67.924 Z0.000 I-0.155 J0.374 F400.000
G1 X146.511 Y67.924 Z-0.250 F400.000
G2 X146.345 Y68.703 Z-0.250 I-0.011 J0.405 F400.000
G2 X146.655 Y67.955 Z-0.250 I0.155 J-0.374 F400.000
G2 X146.511 Y67.924 Z-0.250 I-0.155 J0.374 F400.000
G1 X146.511 Y67.924 Z-0.500 F400.000
G2 X146.345 Y68.703 Z-0.500 I-0.011 J0.405 F400.000
G2 X146.655 Y67.955 Z-0.500 I0.155 J-0.374 F400.000
G2 X146.511 Y67.924 Z-0.500 I-0.155 J0.374 F400.000
G1 X146.511 Y67.924 Z-0.750 F400.000
G2 X146.345 Y68.703 Z-0.750 I-0.011 J0.405 F400.000
G2 X146.655 Y67.955 Z-0.750 I0.155 J-0.374 F400.000
G2 X146.511 Y67.924 Z-0.750 I-0.155 J0.374 F400.000
G1 X146.511 Y67.924 Z-1.000 F400.000
G2 X146.345 Y68.703 Z-1.000 I-0.011 J0.405 F400.000
G2 X146.655 Y67.955 Z-1.000 I0.155 J-0.374 F400.000
G2 X146.511 Y67.924 Z-1.000 I-0.155 J0.374 F400.000
G1 X146.511 Y67.924 Z-1.250 F400.000
G2 X146.345 Y68.703 Z-1.250 I-0.011 J0.405 F400.000
G2 X146.655 Y67.955 Z-1.250 I0.155 J-0.374 F400.000
G2 X146.511 Y67.924 Z-1.250 I-0.155 J0.374 F400.000
G1 X146.511 Y67.924 Z-1.500 F400.000
G2 X146.345 Y68.703 Z-1.500 I-0.011 J0.405 F400.000
G2 X146.655 Y67.955 Z-1.500 I0.155 J-0.374 F400.000
G2 X146.511 Y67.924 Z-1.500 I-0.155 J0.374 F400.000
G1 X146.511 Y67.924 Z-1.750 F400.000
G2 X146.345 Y68.703 Z-1.750 I-0.011 J0.405 F400.000
G2 X146.655 Y67.955 Z-1.750 I0.155 J-0.374 F400.000
G2 X146.511 Y67.924 Z-1.750 I-0.155 J0.374 F400.000
G1 X146.511 Y67.924 Z-2.000 F400.000
G2 X146.345 Y68.703 Z-2.000 I-0.011 J0.405 F400.000
G2 X146.655 Y67.955 Z-2.000 I0.155 J-0.374 F400.000
G2 X146.511 Y67.924 Z-2.000 I-0.155 J0.374 F400.000
G1 X146.511 Y67.924 Z-2.250 F400.000
G2 X146.345 Y68.703 Z-2.250 I-0.011 J0.405 F400.000
G2 X146.655 Y67.955 Z-2.250 I0.155 J-0.374 F400.000
G2 X146.511 Y67.924 Z-2.250 I-0.155 J0.374 F400.000
G1 X146.511 Y67.924 Z-2.500 F400.000
G2 X146.345 Y68.703 Z-2.500 I-0.011 J0.405 F400.000
G2 X146.655 Y67.955 Z-2.500 I0.155 J-0.374 F400.000
G2 X146.511 Y67.924 Z-2.500 I-0.155 J0.374 F400.000
G1 X146.511 Y67.924 Z-2.750 F400.000
G2 X146.345 Y68.703 Z-2.750 I-0.011 J0.405 F400.000
G2 X146.655 Y67.955 Z-2.750 I0.155 J-0.374 F400.000
G2 X146.511 Y67.924 Z-2.750 I-0.155 J0.374 F400.000
G1 X146.511 Y67.924 Z-3.000 F400.000
G2 X146.345 Y68.703 Z-3.000 I-0.011 J0.405 F400.000
G2 X146.655 Y67.955 Z-3.000 I0.155 J-0.374 F400.000
G2 X146.511 Y67.924 Z-3.000 I-0.155 J0.374 F400.000
G1 X146.511 Y67.924 Z-3.250 F400.000
G2 X146.345 Y68.703 Z-3.250 I-0.011 J0.405 F400.000
G2 X146.655 Y67.955 Z-3.250 I0.155 J-0.374 F400.000
G2 X146.511 Y67.924 Z-3.250 I-0.155 J0.374 F400.000
G1 X146.511 Y67.924 Z-3.425 F400.000
G2 X146.345 Y68.703 Z-3.425 I-0.011 J0.405 F400.000
G2 X146.655 Y67.955 Z-3.425 I0.155 J-0.374 F400.000
G2 X146.511 Y67.924 Z-3.425 I-0.155 J0.374 F400.000
G0 Z5.250
G0 Z5.250
G0 X146.511 Y67.924
G0 X146.500 Y99.924
G0 X146.500 Y99.924 Z3.250
G1 X146.500 Y99.924 Z0.000 F400.000
G2 X146.345 Y100.703 Z0.000 I-0.000 J0.405 F400.000
G2 X146.655 Y99.955 Z0.000 I0.155 J-0.374 F400.000
G2 X146.500 Y99.924 Z0.000 I-0.155 J0.374 F400.000
G1 X146.500 Y99.924 Z-0.250 F400.000
G2 X146.345 Y100.703 Z-0.250 I-0.000 J0.405 F400.000
G2 X146.655 Y99.955 Z-0.250 I0.155 J-0.374 F400.000
G2 X146.500 Y99.924 Z-0.250 I-0.155 J0.374 F400.000
G1 X146.500 Y99.924 Z-0.500 F400.000
G2 X146.345 Y100.703 Z-0.500 I-0.000 J0.405 F400.000
G2 X146.655 Y99.955 Z-0.500 I0.155 J-0.374 F400.000
G2 X146.500 Y99.924 Z-0.500 I-0.155 J0.374 F400.000
G1 X146.500 Y99.924 Z-0.750 F400.000
G2 X146.345 Y100.703 Z-0.750 I-0.000 J0.405 F400.000
G2 X146.655 Y99.955 Z-0.750 I0.155 J-0.374 F400.000
G2 X146.500 Y99.924 Z-0.750 I-0.155 J0.374 F400.000
G1 X146.500 Y99.924 Z-1.000 F400.000
G2 X146.345 Y100.703 Z-1.000 I-0.000 J0.405 F400.000
G2 X146.655 Y99.955 Z-1.000 I0.155 J-0.374 F400.000
G2 X146.500 Y99.924 Z-1.000 I-0.155 J0.374 F400.000
G1 X146.500 Y99.924 Z-1.250 F400.000
G2 X146.345 Y100.703 Z-1.250 I-0.000 J0.405 F400.000
G2 X146.655 Y99.955 Z-1.250 I0.155 J-0.374 F400.000
G2 X146.500 Y99.924 Z-1.250 I-0.155 J0.374 F400.000
G1 X146.500 Y99.924 Z-1.500 F400.000
G2 X146.345 Y100.703 Z-1.500 I-0.000 J0.405 F400.000
G2 X146.655 Y99.955 Z-1.500 I0.155 J-0.374 F400.000
G2 X146.500 Y99.924 Z-1.500 I-0.155 J0.374 F400.000
G1 X146.500 Y99.924 Z-1.750 F400.000
G2 X146.345 Y100.703 Z-1.750 I-0.000 J0.405 F400.000
G2 X146.655 Y99.955 Z-1.750 I0.155 J-0.374 F400.000
G2 X146.500 Y99.924 Z-1.750 I-0.155 J0.374 F400.000
G1 X146.500 Y99.924 Z-2.000 F400.000
G2 X146.345 Y100.703 Z-2.000 I-0.000 J0.405 F400.000
G2 X146.655 Y99.955 Z-2.000 I0.155 J-0.374 F400.000
G2 X146.500 Y99.924 Z-2.000 I-0.155 J0.374 F400.000
G1 X146.500 Y99.924 Z-2.250 F400.000
G2 X146.345 Y100.703 Z-2.250 I-0.000 J0.405 F400.000
G2 X146.655 Y99.955 Z-2.250 I0.155 J-0.374 F400.000
G2 X146.500 Y99.924 Z-2.250 I-0.155 J0.374 F400.000
G1 X146.500 Y99.924 Z-2.500 F400.000
G2 X146.345 Y100.703 Z-2.500 I-0.000 J0.405 F400.000
G2 X146.655 Y99.955 Z-2.500 I0.155 J-0.374 F400.000
G2 X146.500 Y99.924 Z-2.500 I-0.155 J0.374 F400.000
G1 X146.500 Y99.924 Z-2.750 F400.000
G2 X146.345 Y100.703 Z-2.750 I-0.000 J0.405 F400.000
G2 X146.655 Y99.955 Z-2.750 I0.155 J-0.374 F400.000
G2 X146.500 Y99.924 Z-2.750 I-0.155 J0.374 F400.000
G1 X146.500 Y99.924 Z-3.000 F400.000
G2 X146.345 Y100.703 Z-3.000 I-0.000 J0.405 F400.000
G2 X146.655 Y99.955 Z-3.000 I0.155 J-0.374 F400.000
G2 X146.500 Y99.924 Z-3.000 I-0.155 J0.374 F400.000
G1 X146.500 Y99.924 Z-3.250 F400.000
G2 X146.345 Y100.703 Z-3.250 I-0.000 J0.405 F400.000
G2 X146.655 Y99.955 Z-3.250 I0.155 J-0.374 F400.000
G2 X146.500 Y99.924 Z-3.250 I-0.155 J0.374 F400.000
G1 X146.500 Y99.924 Z-3.425 F400.000
G2 X146.345 Y100.703 Z-3.425 I-0.000 J0.405 F400.000
G2 X146.655 Y99.955 Z-3.425 I0.155 J-0.374 F400.000
G2 X146.500 Y99.924 Z-3.425 I-0.155 J0.374 F400.000
G0 Z5.250
G0 Z5.250
G0 X146.500 Y99.924
G0 X257.463 Y85.047
G0 X257.463 Y85.047 Z3.250
G1 X257.463 Y85.047 Z0.000 F400.000
G2 X261.700 Y89.621 Z0.000 I5.362 J-0.719 F400.000
G2 X268.117 Y85.453 Z0.000 I1.125 J-5.292 F400.000
G2 X263.950 Y79.036 Z0.000 I-5.292 J-1.125 F400.000
G2 X257.463 Y85.047 Z0.000 I-1.125 J5.292 F400.000
G1 X257.463 Y85.047 Z-0.250 F400.000
G2 X261.700 Y89.621 Z-0.250 I5.362 J-0.719 F400.000
G2 X268.117 Y85.453 Z-0.250 I1.125 J-5.292 F400.000
G2 X263.950 Y79.036 Z-0.250 I-5.292 J-1.125 F400.000
G2 X257.463 Y85.047 Z-0.250 I-1.125 J5.292 F400.000
G1 X257.463 Y85.047 Z-0.500 F400.000
G2 X261.700 Y89.621 Z-0.500 I5.362 J-0.719 F400.000
G2 X268.117 Y85.453 Z-0.500 I1.125 J-5.292 F400.000
G2 X263.950 Y79.036 Z-0.500 I-5.292 J-1.125 F400.000
G2 X257.463 Y85.047 Z-0.500 I-1.125 J5.292 F400.000
G1 X257.463 Y85.047 Z-0.750 F400.000
G2 X261.700 Y89.621 Z-0.750 I5.362 J-0.719 F400.000
G2 X268.117 Y85.453 Z-0.750 I1.125 J-5.292 F400.000
G2 X263.950 Y79.036 Z-0.750 I-5.292 J-1.125 F400.000
G2 X257.463 Y85.047 Z-0.750 I-1.125 J5.292 F400.000
G1 X257.463 Y85.047 Z-1.000 F400.000
G2 X261.700 Y89.621 Z-1.000 I5.362 J-0.719 F400.000
G2 X268.117 Y85.453 Z-1.000 I1.125 J-5.292 F400.000
G2 X263.950 Y79.036 Z-1.000 I-5.292 J-1.125 F400.000
G2 X257.463 Y85.047 Z-1.000 I-1.125 J5.292 F400.000
G1 X257.463 Y85.047 Z-1.250 F400.000
G2 X261.700 Y89.621 Z-1.250 I5.362 J-0.719 F400.000
G2 X268.117 Y85.453 Z-1.250 I1.125 J-5.292 F400.000
G2 X263.950 Y79.036 Z-1.250 I-5.292 J-1.125 F400.000
G2 X257.463 Y85.047 Z-1.250 I-1.125 J5.292 F400.000
G1 X257.463 Y85.047 Z-1.500 F400.000
G2 X261.700 Y89.621 Z-1.500 I5.362 J-0.719 F400.000
G2 X268.117 Y85.453 Z-1.500 I1.125 J-5.292 F400.000
G2 X263.950 Y79.036 Z-1.500 I-5.292 J-1.125 F400.000
G2 X257.463 Y85.047 Z-1.500 I-1.125 J5.292 F400.000
G1 X257.463 Y85.047 Z-1.750 F400.000
G2 X261.700 Y89.621 Z-1.750 I5.362 J-0.719 F400.000
G2 X268.117 Y85.453 Z-1.750 I1.125 J-5.292 F400.000
G2 X263.950 Y79.036 Z-1.750 I-5.292 J-1.125 F400.000
G2 X257.463 Y85.047 Z-1.750 I-1.125 J5.292 F400.000
G1 X257.463 Y85.047 Z-2.000 F400.000
G2 X261.700 Y89.621 Z-2.000 I5.362 J-0.719 F400.000
G2 X268.117 Y85.453 Z-2.000 I1.125 J-5.292 F400.000
G2 X263.950 Y79.036 Z-2.000 I-5.292 J-1.125 F400.000
G2 X257.463 Y85.047 Z-2.000 I-1.125 J5.292 F400.000
G1 X257.463 Y85.047 Z-2.250 F400.000
G2 X261.700 Y89.621 Z-2.250 I5.362 J-0.719 F400.000
G2 X268.117 Y85.453 Z-2.250 I1.125 J-5.292 F400.000
G2 X263.950 Y79.036 Z-2.250 I-5.292 J-1.125 F400.000
G2 X257.463 Y85.047 Z-2.250 I-1.125 J5.292 F400.000
G1 X257.463 Y85.047 Z-2.500 F400.000
G2 X261.700 Y89.621 Z-2.500 I5.362 J-0.719 F400.000
G2 X268.117 Y85.453 Z-2.500 I1.125 J-5.292 F400.000
G2 X263.950 Y79.036 Z-2.500 I-5.292 J-1.125 F400.000
G2 X257.463 Y85.047 Z-2.500 I-1.125 J5.292 F400.000
G1 X257.463 Y85.047 Z-2.750 F400.000
G2 X261.700 Y89.621 Z-2.750 I5.362 J-0.719 F400.000
G2 X268.117 Y85.453 Z-2.750 I1.125 J-5.292 F400.000
G2 X263.950 Y79.036 Z-2.750 I-5.292 J-1.125 F400.000
G2 X257.463 Y85.047 Z-2.750 I-1.125 J5.292 F400.000
G1 X257.463 Y85.047 Z-3.000 F400.000
G2 X261.700 Y89.621 Z-3.000 I5.362 J-0.719 F400.000
G2 X268.117 Y85.453 Z-3.000 I1.125 J-5.292 F400.000
G2 X263.950 Y79.036 Z-3.000 I-5.292 J-1.125 F400.000
G2 X257.463 Y85.047 Z-3.000 I-1.125 J5.292 F400.000
G1 X257.463 Y85.047 Z-3.250 F400.000
G2 X261.700 Y89.621 Z-3.250 I5.362 J-0.719 F400.000
G2 X268.117 Y85.453 Z-3.250 I1.125 J-5.292 F400.000
G2 X263.950 Y79.036 Z-3.250 I-5.292 J-1.125 F400.000
G2 X257.463 Y85.047 Z-3.250 I-1.125 J5.292 F400.000
G1 X257.463 Y85.047 Z-3.425 F400.000
G2 X261.700 Y89.621 Z-3.425 I5.362 J-0.719 F400.000
G2 X268.117 Y85.453 Z-3.425 I1.125 J-5.292 F400.000
G2 X263.950 Y79.036 Z-3.425 I-5.292 J-1.125 F400.000
G2 X257.463 Y85.047 Z-3.425 I-1.125 J5.292 F400.000
G0 Z5.250
G0 Z5.250
G0 X257.463 Y85.047
G0 X279.202 Y105.054
G0 X279.202 Y105.054 Z3.250
G1 X279.202 Y105.054 Z0.000 F400.000
G2 X279.345 Y105.703 Z0.000 I0.298 J0.274 F400.000
G2 X279.655 Y104.955 Z0.000 I0.155 J-0.374 F400.000
G2 X279.202 Y105.054 Z0.000 I-0.155 J0.374 F400.000
G1 X279.202 Y105.054 Z-0.250 F400.000
G2 X279.345 Y105.703 Z-0.250 I0.298 J0.274 F400.000
G2 X279.655 Y104.955 Z-0.250 I0.155 J-0.374 F400.000
G2 X279.202 Y105.054 Z-0.250 I-0.155 J0.374 F400.000
G1 X279.202 Y105.054 Z-0.500 F400.000
G2 X279.345 Y105.703 Z-0.500 I0.298 J0.274 F400.000
G2 X279.655 Y104.955 Z-0.500 I0.155 J-0.374 F400.000
G2 X279.202 Y105.054 Z-0.500 I-0.155 J0.374 F400.000
G1 X279.202 Y105.054 Z-0.750 F400.000
G2 X279.345 Y105.703 Z-0.750 I0.298 J0.274 F400.000
G2 X279.655 Y104.955 Z-0.750 I0.155 J-0.374 F400.000
G2 X279.202 Y105.054 Z-0.750 I-0.155 J0.374 F400.000
G1 X279.202 Y105.054 Z-1.000 F400.000
G2 X279.345 Y105.703 Z-1.000 I0.298 J0.274 F400.000
G2 X279.655 Y104.955 Z-1.000 I0.155 J-0.374 F400.000
G2 X279.202 Y105.054 Z-1.000 I-0.155 J0.374 F400.000
G1 X279.202 Y105.054 Z-1.250 F400.000
G2 X279.345 Y105.703 Z-1.250 I0.298 J0.274 F400.000
G2 X279.655 Y104.955 Z-1.250 I0.155 J-0.374 F400.000
G2 X279.202 Y105.054 Z-1.250 I-0.155 J0.374 F400.000
G1 X279.202 Y105.054 Z-1.500 F400.000
G2 X279.345 Y105.703 Z-1.500 I0.298 J0.274 F400.000
G2 X279.655 Y104.955 Z-1.500 I0.155 J-0.374 F400.000
G2 X279.202 Y105.054 Z-1.500 I-0.155 J0.374 F400.000
G1 X279.202 Y105.054 Z-1.750 F400.000
G2 X279.345 Y105.703 Z-1.750 I0.298 J0.274 F400.000
G2 X279.655 Y104.955 Z-1.750 I0.155 J-0.374 F400.000
G2 X279.202 Y105.054 Z-1.750 I-0.155 J0.374 F400.000
G1 X279.202 Y105.054 Z-2.000 F400.000
G2 X279.345 Y105.703 Z-2.000 I0.298 J0.274 F400.000
G2 X279.655 Y104.955 Z-2.000 I0.155 J-0.374 F400.000
G2 X279.202 Y105.054 Z-2.000 I-0.155 J0.374 F400.000
G1 X279.202 Y105.054 Z-2.250 F400.000
G2 X279.345 Y105.703 Z-2.250 I0.298 J0.274 F400.000
G2 X279.655 Y104.955 Z-2.250 I0.155 J-0.374 F400.000
G2 X279.202 Y105.054 Z-2.250 I-0.155 J0.374 F400.000
G1 X279.202 Y105.054 Z-2.500 F400.000
G2 X279.345 Y105.703 Z-2.500 I0.298 J0.274 F400.000
G2 X279.655 Y104.955 Z-2.500 I0.155 J-0.374 F400.000
G2 X279.202 Y105.054 Z-2.500 I-0.155 J0.374 F400.000
G1 X279.202 Y105.054 Z-2.750 F400.000
G2 X279.345 Y105.703 Z-2.750 I0.298 J0.274 F400.000
G2 X279.655 Y104.955 Z-2.750 I0.155 J-0.374 F400.000
G2 X279.202 Y105.054 Z-2.750 I-0.155 J0.374 F400.000
G1 X279.202 Y105.054 Z-3.000 F400.000
G2 X279.345 Y105.703 Z-3.000 I0.298 J0.274 F400.000
G2 X279.655 Y104.955 Z-3.000 I0.155 J-0.374 F400.000
G2 X279.202 Y105.054 Z-3.000 I-0.155 J0.374 F400.000
G1 X279.202 Y105.054 Z-3.250 F400.000
G2 X279.345 Y105.703 Z-3.250 I0.298 J0.274 F400.000
G2 X279.655 Y104.955 Z-3.250 I0.155 J-0.374 F400.000
G2 X279.202 Y105.054 Z-3.250 I-0.155 J0.374 F400.000
G1 X279.202 Y105.054 Z-3.425 F400.000
G2 X279.345 Y105.703 Z-3.425 I0.298 J0.274 F400.000
G2 X279.655 Y104.955 Z-3.425 I0.155 J-0.374 F400.000
G2 X279.202 Y105.054 Z-3.425 I-0.155 J0.374 F400.000
G0 Z5.250
G0 Z5.250
G0 X279.202 Y105.054
G0 X286.129 Y49.179
G0 X286.129 Y49.179 Z3.250
G1 X286.129 Y49.179 Z0.000 F400.000
G2 X286.334 Y48.403 Z0.000 I0.050 J-0.402 F400.000
G2 X285.805 Y48.622 Z0.000 I-0.155 J0.374 F400.000
G2 X286.024 Y49.151 Z0.000 I0.374 J0.155 F400.000
G2 X286.129 Y49.179 Z0.000 I0.155 J-0.374 F400.000
G1 X286.129 Y49.179 Z-0.250 F400.000
G2 X286.334 Y48.403 Z-0.250 I0.050 J-0.402 F400.000
G2 X285.805 Y48.622 Z-0.250 I-0.155 J0.374 F400.000
G2 X286.024 Y49.151 Z-0.250 I0.374 J0.155 F400.000
G2 X286.129 Y49.179 Z-0.250 I0.155 J-0.374 F400.000
G1 X286.129 Y49.179 Z-0.500 F400.000
G2 X286.334 Y48.403 Z-0.500 I0.050 J-0.402 F400.000
G2 X285.805 Y48.622 Z-0.500 I-0.155 J0.374 F400.000
G2 X286.024 Y49.151 Z-0.500 I0.374 J0.155 F400.000
G2 X286.129 Y49.179 Z-0.500 I0.155 J-0.374 F400.000
G1 X286.129 Y49.179 Z-0.750 F400.000
G2 X286.334 Y48.403 Z-0.750 I0.050 J-0.402 F400.000
G2 X285.805 Y48.622 Z-0.750 I-0.155 J0.374 F400.000
G2 X286.024 Y49.151 Z-0.750 I0.374 J0.155 F400.000
G2 X286.129 Y49.179 Z-0.750 I0.155 J-0.374 F400.000
G1 X286.129 Y49.179 Z-1.000 F400.000
G2 X286.334 Y48.403 Z-1.000 I0.050 J-0.402 F400.000
G2 X285.805 Y48.622 Z-1.000 I-0.155 J0.374 F400.000
G2 X286.024 Y49.151 Z-1.000 I0.374 J0.155 F400.000
G2 X286.129 Y49.179 Z-1.000 I0.155 J-0.374 F400.000
G1 X286.129 Y49.179 Z-1.250 F400.000
G2 X286.334 Y48.403 Z-1.250 I0.050 J-0.402 F400.000
G2 X285.805 Y48.622 Z-1.250 I-0.155 J0.374 F400.000
G2 X286.024 Y49.151 Z-1.250 I0.374 J0.155 F400.000
G2 X286.129 Y49.179 Z-1.250 I0.155 J-0.374 F400.000
G1 X286.129 Y49.179 Z-1.500 F400.000
G2 X286.334 Y48.403 Z-1.500 I0.050 J-0.402 F400.000
G2 X285.805 Y48.622 Z-1.500 I-0.155 J0.374 F400.000
G2 X286.024 Y49.151 Z-1.500 I0.374 J0.155 F400.000
G2 X286.129 Y49.179 Z-1.500 I0.155 J-0.374 F400.000
G1 X286.129 Y49.179 Z-1.750 F400.000
G2 X286.334 Y48.403 Z-1.750 I0.050 J-0.402 F400.000
G2 X285.805 Y48.622 Z-1.750 I-0.155 J0.374 F400.000
G2 X286.024 Y49.151 Z-1.750 I0.374 J0.155 F400.000
G2 X286.129 Y49.179 Z-1.750 I0.155 J-0.374 F400.000
G1 X286.129 Y49.179 Z-2.000 F400.000
G2 X286.334 Y48.403 Z-2.000 I0.050 J-0.402 F400.000
G2 X285.805 Y48.622 Z-2.000 I-0.155 J0.374 F400.000
G2 X286.024 Y49.151 Z-2.000 I0.374 J0.155 F400.000
G2 X286.129 Y49.179 Z-2.000 I0.155 J-0.374 F400.000
G1 X286.129 Y49.179 Z-2.250 F400.000
G2 X286.334 Y48.403 Z-2.250 I0.050 J-0.402 F400.000
G2 X285.805 Y48.622 Z-2.250 I-0.155 J0.374 F400.000
G2 X286.024 Y49.151 Z-2.250 I0.374 J0.155 F400.000
G2 X286.129 Y49.179 Z-2.250 I0.155 J-0.374 F400.000
G1 X286.129 Y49.179 Z-2.500 F400.000
G2 X286.334 Y48.403 Z-2.500 I0.050 J-0.402 F400.000
G2 X285.805 Y48.622 Z-2.500 I-0.155 J0.374 F400.000
G2 X286.024 Y49.151 Z-2.500 I0.374 J0.155 F400.000
G2 X286.129 Y49.179 Z-2.500 I0.155 J-0.374 F400.000
G1 X286.129 Y49.179 Z-2.750 F400.000
G2 X286.334 Y48.403 Z-2.750 I0.050 J-0.402 F400.000
G2 X285.805 Y48.622 Z-2.750 I-0.155 J0.374 F400.000
G2 X286.024 Y49.151 Z-2.750 I0.374 J0.155 F400.000
G2 X286.129 Y49.179 Z-2.750 I0.155 J-0.374 F400.000
G1 X286.129 Y49.179 Z-3.000 F400.000
G2 X286.334 Y48.403 Z-3.000 I0.050 J-0.402 F400.000
G2 X285.805 Y48.622 Z-3.000 I-0.155 J0.374 F400.000
G2 X286.024 Y49.151 Z-3.000 I0.374 J0.155 F400.000
G2 X286.129 Y49.179 Z-3.000 I0.155 J-0.374 F400.000
G1 X286.129 Y49.179 Z-3.250 F400.000
G2 X286.334 Y48.403 Z-3.250 I0.050 J-0.402 F400.000
G2 X285.805 Y48.622 Z-3.250 I-0.155 J0.374 F400.000
G2 X286.024 Y49.151 Z-3.250 I0.374 J0.155 F400.000
G2 X286.129 Y49.179 Z-3.250 I0.155 J-0.374 F400.000
G1 X286.129 Y49.179 Z-3.425 F400.000
G2 X286.334 Y48.403 Z-3.425 I0.050 J-0.402 F400.000
G2 X285.805 Y48.622 Z-3.425 I-0.155 J0.374 F400.000
G2 X286.024 Y49.151 Z-3.425 I0.374 J0.155 F400.000
G2 X286.129 Y49.179 Z-3.425 I0.155 J-0.374 F400.000
G0 Z5.250
G0 Z5.250
G0 X286.129 Y49.179
G0 X267.730 Y40.612
G0 X267.730 Y40.612 Z3.250
G1 X267.730 Y40.612 Z0.000 F400.000
G2 X263.950 Y33.036 Z0.000 I-4.905 J-2.284 F400.000
G2 X261.700 Y43.621 Z0.000 I-1.125 J5.292 F400.000
G2 X267.730 Y40.612 Z0.000 I1.125 J-5.292 F400.000
G1 X267.730 Y40.612 Z-0.250 F400.000
G2 X263.950 Y33.036 Z-0.250 I-4.905 J-2.284 F400.000
G2 X261.700 Y43.621 Z-0.250 I-1.125 J5.292 F400.000
G2 X267.730 Y40.612 Z-0.250 I1.125 J-5.292 F400.000
G1 X267.730 Y40.612 Z-0.500 F400.000
G2 X263.950 Y33.036 Z-0.500 I-4.905 J-2.284 F400.000
G2 X261.700 Y43.621 Z-0.500 I-1.125 J5.292 F400.000
G2 X267.730 Y40.612 Z-0.500 I1.125 J-5.292 F400.000
G1 X267.730 Y40.612 Z-0.750 F400.000
G2 X263.950 Y33.036 Z-0.750 I-4.905 J-2.284 F400.000
G2 X261.700 Y43.621 Z-0.750 I-1.125 J5.292 F400.000
G2 X267.730 Y40.612 Z-0.750 I1.125 J-5.292 F400.000
G1 X267.730 Y40.612 Z-1.000 F400.000
G2 X263.950 Y33.036 Z-1.000 I-4.905 J-2.284 F400.000
G2 X261.700 Y43.621 Z-1.000 I-1.125 J5.292 F400.000
G2 X267.730 Y40.612 Z-1.000 I1.125 J-5.292 F400.000
G1 X267.730 Y40.612 Z-1.250 F400.000
G2 X263.950 Y33.036 Z-1.250 I-4.905 J-2.284 F400.000
G2 X261.700 Y43.621 Z-1.250 I-1.125 J5.292 F400.000
G2 X267.730 Y40.612 Z-1.250 I1.125 J-5.292 F400.000
G1 X267.730 Y40.612 Z-1.500 F400.000
G2 X263.950 Y33.036 Z-1.500 I-4.905 J-2.284 F400.000
G2 X261.700 Y43.621 Z-1.500 I-1.125 J5.292 F400.000
G2 X267.730 Y40.612 Z-1.500 I1.125 J-5.292 F400.000
G1 X267.730 Y40.612 Z-1.750 F400.000
G2 X263.950 Y33.036 Z-1.750 I-4.905 J-2.284 F400.000
G2 X261.700 Y43.621 Z-1.750 I-1.125 J5.292 F400.000
G2 X267.730 Y40.612 Z-1.750 I1.125 J-5.292 F400.000
G1 X267.730 Y40.612 Z-2.000 F400.000
G2 X263.950 Y33.036 Z-2.000 I-4.905 J-2.284 F400.000
G2 X261.700 Y43.621 Z-2.000 I-1.125 J5.292 F400.000
G2 X267.730 Y40.612 Z-2.000 I1.125 J-5.292 F400.000
G1 X267.730 Y40.612 Z-2.250 F400.000
G2 X263.950 Y33.036 Z-2.250 I-4.905 J-2.284 F400.000
G2 X261.700 Y43.621 Z-2.250 I-1.125 J5.292 F400.000
G2 X267.730 Y40.612 Z-2.250 I1.125 J-5.292 F400.000
G1 X267.730 Y40.612 Z-2.500 F400.000
G2 X263.950 Y33.036 Z-2.500 I-4.905 J-2.284 F400.000
G2 X261.700 Y43.621 Z-2.500 I-1.125 J5.292 F400.000
G2 X267.730 Y40.612 Z-2.500 I1.125 J-5.292 F400.000
G1 X267.730 Y40.612 Z-2.750 F400.000
G2 X263.950 Y33.036 Z-2.750 I-4.905 J-2.284 F400.000
G2 X261.700 Y43.621 Z-2.750 I-1.125 J5.292 F400.000
G2 X267.730 Y40.612 Z-2.750 I1.125 J-5.292 F400.000
G1 X267.730 Y40.612 Z-3.000 F400.000
G2 X263.950 Y33.036 Z-3.000 I-4.905 J-2.284 F400.000
G2 X261.700 Y43.621 Z-3.000 I-1.125 J5.292 F400.000
G2 X267.730 Y40.612 Z-3.000 I1.125 J-5.292 F400.000
G1 X267.730 Y40.612 Z-3.250 F400.000
G2 X263.950 Y33.036 Z-3.250 I-4.905 J-2.284 F400.000
G2 X261.700 Y43.621 Z-3.250 I-1.125 J5.292 F400.000
G2 X267.730 Y40.612 Z-3.250 I1.125 J-5.292 F400.000
G1 X267.730 Y40.612 Z-3.425 F400.000
G2 X263.950 Y33.036 Z-3.425 I-4.905 J-2.284 F400.000
G2 X261.700 Y43.621 Z-3.425 I-1.125 J5.292 F400.000
G2 X267.730 Y40.612 Z-3.425 I1.125 J-5.292 F400.000
G0 Z5.250
G0 Z5.250
G0 X267.730 Y40.612
G0 X276.628 Y21.695
G0 X276.628 Y21.695 Z3.250
G1 X276.628 Y21.695 Z0.000 F400.000
G2 X276.645 Y21.703 Z0.000 I0.172 J-0.366 F400.000
G2 X277.174 Y21.483 Z0.000 I0.155 J-0.374 F400.000
G2 X276.955 Y20.955 Z0.000 I-0.374 J-0.155 F400.000
G2 X276.628 Y21.695 Z0.000 I-0.155 J0.374 F400.000
G1 X276.628 Y21.695 Z-0.250 F400.000
G2 X276.645 Y21.703 Z-0.250 I0.172 J-0.366 F400.000
G2 X277.174 Y21.483 Z-0.250 I0.155 J-0.374 F400.000
G2 X276.955 Y20.955 Z-0.250 I-0.374 J-0.155 F400.000
G2 X276.628 Y21.695 Z-0.250 I-0.155 J0.374 F400.000
G1 X276.628 Y21.695 Z-0.500 F400.000
G2 X276.645 Y21.703 Z-0.500 I0.172 J-0.366 F400.000
G2 X277.174 Y21.483 Z-0.500 I0.155 J-0.374 F400.000
G2 X276.955 Y20.955 Z-0.500 I-0.374 J-0.155 F400.000
G2 X276.628 Y21.695 Z-0.500 I-0.155 J0.374 F400.000
G1 X276.628 Y21.695 Z-0.750 F400.000
G2 X276.645 Y21.703 Z-0.750 I0.172 J-0.366 F400.000
G2 X277.174 Y21.483 Z-0.750 I0.155 J-0.374 F400.000
G2 X276.955 Y20.955 Z-0.750 I-0.374 J-0.155 F400.000
G2 X276.628 Y21.695 Z-0.750 I-0.155 J0.374 F400.000
G1 X276.628 Y21.695 Z-1.000 F400.000
G2 X276.645 Y21.703 Z-1.000 I0.172 J-0.366 F400.000
G2 X277.174 Y21.483 Z-1.000 I0.155 J-0.374 F400.000
G2 X276.955 Y20.955 Z-1.000 I-0.374 J-0.155 F400.000
G2 X276.628 Y21.695 Z-1.000 I-0.155 J0.374 F400.000
G1 X276.628 Y21.695 Z-1.250 F400.000
G2 X276.645 Y21.703 Z-1.250 I0.172 J-0.366 F400.000
G2 X277.174 Y21.483 Z-1.250 I0.155 J-0.374 F400.000
G2 X276.955 Y20.955 Z-1.250 I-0.374 J-0.155 F400.000
G2 X276.628 Y21.695 Z-1.250 I-0.155 J0.374 F400.000
G1 X276.628 Y21.695 Z-1.500 F400.000
G2 X276.645 Y21.703 Z-1.500 I0.172 J-0.366 F400.000
G2 X277.174 Y21.483 Z-1.500 I0.155 J-0.374 F400.000
G2 X276.955 Y20.955 Z-1.500 I-0.374 J-0.155 F400.000
G2 X276.628 Y21.695 Z-1.500 I-0.155 J0.374 F400.000
G1 X276.628 Y21.695 Z-1.750 F400.000
G2 X276.645 Y21.703 Z-1.750 I0.172 J-0.366 F400.000
G2 X277.174 Y21.483 Z-1.750 I0.155 J-0.374 F400.000
G2 X276.955 Y20.955 Z-1.750 I-0.374 J-0.155 F400.000
G2 X276.628 Y21.695 Z-1.750 I-0.155 J0.374 F400.000
G1 X276.628 Y21.695 Z-2.000 F400.000
G2 X276.645 Y21.703 Z-2.000 I0.172 J-0.366 F400.000
G2 X277.174 Y21.483 Z-2.000 I0.155 J-0.374 F400.000
G2 X276.955 Y20.955 Z-2.000 I-0.374 J-0.155 F400.000
G2 X276.628 Y21.695 Z-2.000 I-0.155 J0.374 F400.000
G1 X276.628 Y21.695 Z-2.250 F400.000
G2 X276.645 Y21.703 Z-2.250 I0.172 J-0.366 F400.000
G2 X277.174 Y21.483 Z-2.250 I0.155 J-0.374 F400.000
G2 X276.955 Y20.955 Z-2.250 I-0.374 J-0.155 F400.000
G2 X276.628 Y21.695 Z-2.250 I-0.155 J0.374 F400.000
G1 X276.628 Y21.695 Z-2.500 F400.000
G2 X276.645 Y21.703 Z-2.500 I0.172 J-0.366 F400.000
G2 X277.174 Y21.483 Z-2.500 I0.155 J-0.374 F400.000
G2 X276.955 Y20.955 Z-2.500 I-0.374 J-0.155 F400.000
G2 X276.628 Y21.695 Z-2.500 I-0.155 J0.374 F400.000
G1 X276.628 Y21.695 Z-2.750 F400.000
G2 X276.645 Y21.703 Z-2.750 I0.172 J-0.366 F400.000
G2 X277.174 Y21.483 Z-2.750 I0.155 J-0.374 F400.000
G2 X276.955 Y20.955 Z-2.750 I-0.374 J-0.155 F400.000
G2 X276.628 Y21.695 Z-2.750 I-0.155 J0.374 F400.000
G1 X276.628 Y21.695 Z-3.000 F400.000
G2 X276.645 Y21.703 Z-3.000 I0.172 J-0.366 F400.000
G2 X277.174 Y21.483 Z-3.000 I0.155 J-0.374 F400.000
G2 X276.955 Y20.955 Z-3.000 I-0.374 J-0.155 F400.000
G2 X276.628 Y21.695 Z-3.000 I-0.155 J0.374 F400.000
G1 X276.628 Y21.695 Z-3.250 F400.000
G2 X276.645 Y21.703 Z-3.250 I0.172 J-0.366 F400.000
G2 X277.174 Y21.483 Z-3.250 I0.155 J-0.374 F400.000
G2 X276.955 Y20.955 Z-3.250 I-0.374 J-0.155 F400.000
G2 X276.628 Y21.695 Z-3.250 I-0.155 J0.374 F400.000
G1 X276.628 Y21.695 Z-3.425 F400.000
G2 X276.645 Y21.703 Z-3.425 I0.172 J-0.366 F400.000
G2 X277.174 Y21.483 Z-3.425 I0.155 J-0.374 F400.000
G2 X276.955 Y20.955 Z-3.425 I-0.374 J-0.155 F400.000
G2 X276.628 Y21.695 Z-3.425 I-0.155 J0.374 F400.000
G0 Z5.250
G0 Z5.250
G0 X276.628 Y21.695
G0 X318.639 Y43.144
G0 X318.639 Y43.144 Z3.250
G1 X318.639 Y43.144 Z0.000 F400.000
G2 X318.845 Y43.703 Z0.000 I0.361 J0.184 F400.000
G2 X319.374 Y43.483 Z0.000 I0.155 J-0.374 F400.000
G2 X319.155 Y42.955 Z0.000 I-0.374 J-0.155 F400.000
G2 X318.639 Y43.144 Z0.000 I-0.155 J0.374 F400.000
G1 X318.639 Y43.144 Z-0.250 F400.000
G2 X318.845 Y43.703 Z-0.250 I0.361 J0.184 F400.000
G2 X319.374 Y43.483 Z-0.250 I0.155 J-0.374 F400.000
G2 X319.155 Y42.955 Z-0.250 I-0.374 J-0.155 F400.000
G2 X318.639 Y43.144 Z-0.250 I-0.155 J0.374 F400.000
G1 X318.639 Y43.144 Z-0.500 F400.000
G2 X318.845 Y43.703 Z-0.500 I0.361 J0.184 F400.000
G2 X319.374 Y43.483 Z-0.500 I0.155 J-0.374 F400.000
G2 X319.155 Y42.955 Z-0.500 I-0.374 J-0.155 F400.000
G2 X318.639 Y43.144 Z-0.500 I-0.155 J0.374 F400.000
G1 X318.639 Y43.144 Z-0.750 F400.000
G2 X318.845 Y43.703 Z-0.750 I0.361 J0.184 F400.000
G2 X319.374 Y43.483 Z-0.750 I0.155 J-0.374 F400.000
G2 X319.155 Y42.955 Z-0.750 I-0.374 J-0.155 F400.000
G2 X318.639 Y43.144 Z-0.750 I-0.155 J0.374 F400.000
G1 X318.639 Y43.144 Z-1.000 F400.000
G2 X318.845 Y43.703 Z-1.000 I0.361 J0.184 F400.000
G2 X319.374 Y43.483 Z-1.000 I0.155 J-0.374 F400.000
G2 X319.155 Y42.955 Z-1.000 I-0.374 J-0.155 F400.000
G2 X318.639 Y43.144 Z-1.000 I-0.155 J0.374 F400.000
G1 X318.639 Y43.144 Z-1.250 F400.000
G2 X318.845 Y43.703 Z-1.250 I0.361 J0.184 F400.000
G2 X319.374 Y43.483 Z-1.250 I0.155 J-0.374 F400.000
G2 X319.155 Y42.955 Z-1.250 I-0.374 J-0.155 F400.000
G2 X318.639 Y43.144 Z-1.250 I-0.155 J0.374 F400.000
G1 X318.639 Y43.144 Z-1.500 F400.000
G2 X318.845 Y43.703 Z-1.500 I0.361 J0.184 F400.000
G2 X319.374 Y43.483 Z-1.500 I0.155 J-0.374 F400.000
G2 X319.155 Y42.955 Z-1.500 I-0.374 J-0.155 F400.000
G2 X318.639 Y43.144 Z-1.500 I-0.155 J0.374 F400.000
G1 X318.639 Y43.144 Z-1.750 F400.000
G2 X318.845 Y43.703 Z-1.750 I0.361 J0.184 F400.000
G2 X319.374 Y43.483 Z-1.750 I0.155 J-0.374 F400.000
G2 X319.155 Y42.955 Z-1.750 I-0.374 J-0.155 F400.000
G2 X318.639 Y43.144 Z-1.750 I-0.155 J0.374 F400.000
G1 X318.639 Y43.144 Z-2.000 F400.000
G2 X318.845 Y43.703 Z-2.000 I0.361 J0.184 F400.000
G2 X319.374 Y43.483 Z-2.000 I0.155 J-0.374 F400.000
G2 X319.155 Y42.955 Z-2.000 I-0.374 J-0.155 F400.000
G2 X318.639 Y43.144 Z-2.000 I-0.155 J0.374 F400.000
G1 X318.639 Y43.144 Z-2.250 F400.000
G2 X318.845 Y43.703 Z-2.250 I0.361 J0.184 F400.000
G2 X319.374 Y43.483 Z-2.250 I0.155 J-0.374 F400.000
G2 X319.155 Y42.955 Z-2.250 I-0.374 J-0.155 F400.000
G2 X318.639 Y43.144 Z-2.250 I-0.155 J0.374 F400.000
G1 X318.639 Y43.144 Z-2.500 F400.000
G2 X318.845 Y43.703 Z-2.500 I0.361 J0.184 F400.000
G2 X319.374 Y43.483 Z-2.500 I0.155 J-0.374 F400.000
G2 X319.155 Y42.955 Z-2.500 I-0.374 J-0.155 F400.000
G2 X318.639 Y43.144 Z-2.500 I-0.155 J0.374 F400.000
G1 X318.639 Y43.144 Z-2.750 F400.000
G2 X318.845 Y43.703 Z-2.750 I0.361 J0.184 F400.000
G2 X319.374 Y43.483 Z-2.750 I0.155 J-0.374 F400.000
G2 X319.155 Y42.955 Z-2.750 I-0.374 J-0.155 F400.000
G2 X318.639 Y43.144 Z-2.750 I-0.155 J0.374 F400.000
G1 X318.639 Y43.144 Z-3.000 F400.000
G2 X318.845 Y43.703 Z-3.000 I0.361 J0.184 F400.000
G2 X319.374 Y43.483 Z-3.000 I0.155 J-0.374 F400.000
G2 X319.155 Y42.955 Z-3.000 I-0.374 J-0.155 F400.000
G2 X318.639 Y43.144 Z-3.000 I-0.155 J0.374 F400.000
G1 X318.639 Y43.144 Z-3.250 F400.000
G2 X318.845 Y43.703 Z-3.250 I0.361 J0.184 F400.000
G2 X319.374 Y43.483 Z-3.250 I0.155 J-0.374 F400.000
G2 X319.155 Y42.955 Z-3.250 I-0.374 J-0.155 F400.000
G2 X318.639 Y43.144 Z-3.250 I-0.155 J0.374 F400.000
G1 X318.639 Y43.144 Z-3.425 F400.000
G2 X318.845 Y43.703 Z-3.425 I0.361 J0.184 F400.000
G2 X319.374 Y43.483 Z-3.425 I0.155 J-0.374 F400.000
G2 X319.155 Y42.955 Z-3.425 I-0.374 J-0.155 F400.000
G2 X318.639 Y43.144 Z-3.425 I-0.155 J0.374 F400.000
G0 Z5.250
G0 Z5.250
G0 X318.639 Y43.144
G0 X326.711 Y51.045
G0 X326.711 Y51.045 Z3.250
G1 X326.711 Y51.045 Z0.000 F400.000
G2 X326.845 Y51.703 Z0.000 I0.289 J0.283 F400.000
G2 X327.155 Y50.955 Z0.000 I0.155 J-0.374 F400.000
G2 X326.711 Y51.045 Z0.000 I-0.155 J0.374 F400.000
G1 X326.711 Y51.045 Z-0.250 F400.000
G2 X326.845 Y51.703 Z-0.250 I0.289 J0.283 F400.000
G2 X327.155 Y50.955 Z-0.250 I0.155 J-0.374 F400.000
G2 X326.711 Y51.045 Z-0.250 I-0.155 J0.374 F400.000
G1 X326.711 Y51.045 Z-0.500 F400.000
G2 X326.845 Y51.703 Z-0.500 I0.289 J0.283 F400.000
G2 X327.155 Y50.955 Z-0.500 I0.155 J-0.374 F400.000
G2 X326.711 Y51.045 Z-0.500 I-0.155 J0.374 F400.000
G1 X326.711 Y51.045 Z-0.750 F400.000
G2 X326.845 Y51.703 Z-0.750 I0.289 J0.283 F400.000
G2 X327.155 Y50.955 Z-0.750 I0.155 J-0.374 F400.000
G2 X326.711 Y51.045 Z-0.750 I-0.155 J0.374 F400.000
G1 X326.711 Y51.045 Z-1.000 F400.000
G2 X326.845 Y51.703 Z-1.000 I0.289 J0.283 F400.000
G2 X327.155 Y50.955 Z-1.000 I0.155 J-0.374 F400.000
G2 X326.711 Y51.045 Z-1.000 I-0.155 J0.374 F400.000
G1 X326.711 Y51.045 Z-1.250 F400.000
G2 X326.845 Y51.703 Z-1.250 I0.289 J0.283 F400.000
G2 X327.155 Y50.955 Z-1.250 I0.155 J-0.374 F400.000
G2 X326.711 Y51.045 Z-1.250 I-0.155 J0.374 F400.000
G1 X326.711 Y51.045 Z-1.500 F400.000
G2 X326.845 Y51.703 Z-1.500 I0.289 J0.283 F400.000
G2 X327.155 Y50.955 Z-1.500 I0.155 J-0.374 F400.000
G2 X326.711 Y51.045 Z-1.500 I-0.155 J0.374 F400.000
G1 X326.711 Y51.045 Z-1.750 F400.000
G2 X326.845 Y51.703 Z-1.750 I0.289 J0.283 F400.000
G2 X327.155 Y50.955 Z-1.750 I0.155 J-0.374 F400.000
G2 X326.711 Y51.045 Z-1.750 I-0.155 J0.374 F400.000
G1 X326.711 Y51.045 Z-2.000 F400.000
G2 X326.845 Y51.703 Z-2.000 I0.289 J0.283 F400.000
G2 X327.155 Y50.955 Z-2.000 I0.155 J-0.374 F400.000
G2 X326.711 Y51.045 Z-2.000 I-0.155 J0.374 F400.000
G1 X326.711 Y51.045 Z-2.250 F400.000
G2 X326.845 Y51.703 Z-2.250 I0.289 J0.283 F400.000
G2 X327.155 Y50.955 Z-2.250 I0.155 J-0.374 F400.000
G2 X326.711 Y51.045 Z-2.250 I-0.155 J0.374 F400.000
G1 X326.711 Y51.045 Z-2.500 F400.000
G2 X326.845 Y51.703 Z-2.500 I0.289 J0.283 F400.000
G2 X327.155 Y50.955 Z-2.500 I0.155 J-0.374 F400.000
G2 X326.711 Y51.045 Z-2.500 I-0.155 J0.374 F400.000
G1 X326.711 Y51.045 Z-2.750 F400.000
G2 X326.845 Y51.703 Z-2.750 I0.289 J0.283 F400.000
G2 X327.155 Y50.955 Z-2.750 I0.155 J-0.374 F400.000
G2 X326.711 Y51.045 Z-2.750 I-0.155 J0.374 F400.000
G1 X326.711 Y51.045 Z-3.000 F400.000
G2 X326.845 Y51.703 Z-3.000 I0.289 J0.283 F400.000
G2 X327.155 Y50.955 Z-3.000 I0.155 J-0.374 F400.000
G2 X326.711 Y51.045 Z-3.000 I-0.155 J0.374 F400.000
G1 X326.711 Y51.045 Z-3.250 F400.000
G2 X326.845 Y51.703 Z-3.250 I0.289 J0.283 F400.000
G2 X327.155 Y50.955 Z-3.250 I0.155 J-0.374 F400.000
G2 X326.711 Y51.045 Z-3.250 I-0.155 J0.374 F400.000
G1 X326.711 Y51.045 Z-3.425 F400.000
G2 X326.845 Y51.703 Z-3.425 I0.289 J0.283 F400.000
G2 X327.155 Y50.955 Z-3.425 I0.155 J-0.374 F400.000
G2 X326.711 Y51.045 Z-3.425 I-0.155 J0.374 F400.000
G0 Z5.250
G0 Z5.250
G0 X326.711 Y51.045
G0 X319.276 Y59.032
G0 X319.276 Y59.032 Z3.250
G1 X319.276 Y59.032 Z0.000 F400.000
G2 X319.155 Y58.955 Z0.000 I-0.276 J0.296 F400.000
G2 X318.845 Y59.703 Z0.000 I-0.155 J0.374 F400.000
G2 X319.276 Y59.032 Z0.000 I0.155 J-0.374 F400.000
G1 X319.276 Y59.032 Z-0.250 F400.000
G2 X319.155 Y58.955 Z-0.250 I-0.276 J0.296 F400.000
G2 X318.845 Y59.703 Z-0.250 I-0.155 J0.374 F400.000
G2 X319.276 Y59.032 Z-0.250 I0.155 J-0.374 F400.000
G1 X319.276 Y59.032 Z-0.500 F400.000
G2 X319.155 Y58.955 Z-0.500 I-0.276 J0.296 F400.000
G2 X318.845 Y59.703 Z-0.500 I-0.155 J0.374 F400.000
G2 X319.276 Y59.032 Z-0.500 I0.155 J-0.374 F400.000
G1 X319.276 Y59.032 Z-0.750 F400.000
G2 X319.155 Y58.955 Z-0.750 I-0.276 J0.296 F400.000
G2 X318.845 Y59.703 Z-0.750 I-0.155 J0.374 F400.000
G2 X319.276 Y59.032 Z-0.750 I0.155 J-0.374 F400.000
G1 X319.276 Y59.032 Z-1.000 F400.000
G2 X319.155 Y58.955 Z-1.000 I-0.276 J0.296 F400.000
G2 X318.845 Y59.703 Z-1.000 I-0.155 J0.374 F400.000
G2 X319.276 Y59.032 Z-1.000 I0.155 J-0.374 F400.000
G1 X319.276 Y59.032 Z-1.250 F400.000
G2 X319.155 Y58.955 Z-1.250 I-0.276 J0.296 F400.000
G2 X318.845 Y59.703 Z-1.250 I-0.155 J0.374 F400.000
G2 X319.276 Y59.032 Z-1.250 I0.155 J-0.374 F400.000
G1 X319.276 Y59.032 Z-1.500 F400.000
G2 X319.155 Y58.955 Z-1.500 I-0.276 J0.296 F400.000
G2 X318.845 Y59.703 Z-1.500 I-0.155 J0.374 F400.000
G2 X319.276 Y59.032 Z-1.500 I0.155 J-0.374 F400.000
G1 X319.276 Y59.032 Z-1.750 F400.000
G2 X319.155 Y58.955 Z-1.750 I-0.276 J0.296 F400.000
G2 X318.845 Y59.703 Z-1.750 I-0.155 J0.374 F400.000
G2 X319.276 Y59.032 Z-1.750 I0.155 J-0.374 F400.000
G1 X319.276 Y59.032 Z-2.000 F400.000
G2 X319.155 Y58.955 Z-2.000 I-0.276 J0.296 F400.000
G2 X318.845 Y59.703 Z-2.000 I-0.155 J0.374 F400.000
G2 X319.276 Y59.032 Z-2.000 I0.155 J-0.374 F400.000
G1 X319.276 Y59.032 Z-2.250 F400.000
G2 X319.155 Y58.955 Z-2.250 I-0.276 J0.296 F400.000
G2 X318.845 Y59.703 Z-2.250 I-0.155 J0.374 F400.000
G2 X319.276 Y59.032 Z-2.250 I0.155 J-0.374 F400.000
G1 X319.276 Y59.032 Z-2.500 F400.000
G2 X319.155 Y58.955 Z-2.500 I-0.276 J0.296 F400.000
G2 X318.845 Y59.703 Z-2.500 I-0.155 J0.374 F400.000
G2 X319.276 Y59.032 Z-2.500 I0.155 J-0.374 F400.000
G1 X319.276 Y59.032 Z-2.750 F400.000
G2 X319.155 Y58.955 Z-2.750 I-0.276 J0.296 F400.000
G2 X318.845 Y59.703 Z-2.750 I-0.155 J0.374 F400.000
G2 X319.276 Y59.032 Z-2.750 I0.155 J-0.374 F400.000
G1 X319.276 Y59.032 Z-3.000 F400.000
G2 X319.155 Y58.955 Z-3.000 I-0.276 J0.296 F400.000
G2 X318.845 Y59.703 Z-3.000 I-0.155 J0.374 F400.000
G2 X319.276 Y59.032 Z-3.000 I0.155 J-0.374 F400.000
G1 X319.276 Y59.032 Z-3.250 F400.000
G2 X319.155 Y58.955 Z-3.250 I-0.276 J0.296 F400.000
G2 X318.845 Y59.703 Z-3.250 I-0.155 J0.374 F400.000
G2 X319.276 Y59.032 Z-3.250 I0.155 J-0.374 F400.000
G1 X319.276 Y59.032 Z-3.425 F400.000
G2 X319.155 Y58.955 Z-3.425 I-0.276 J0.296 F400.000
G2 X318.845 Y59.703 Z-3.425 I-0.155 J0.374 F400.000
G2 X319.276 Y59.032 Z-3.425 I0.155 J-0.374 F400.000
G0 Z5.250
G0 Z5.250
G0 X319.276 Y59.032
G0 X334.595 Y59.321
G0 X334.595 Y59.321 Z3.250
G1 X334.595 Y59.321 Z0.000 F400.000
G2 X334.845 Y59.703 Z0.000 I0.405 J0.008 F400.000
G2 X335.155 Y58.955 Z0.000 I0.155 J-0.374 F400.000
G2 X334.595 Y59.321 Z0.000 I-0.155 J0.374 F400.000
G1 X334.595 Y59.321 Z-0.250 F400.000
G2 X334.845 Y59.703 Z-0.250 I0.405 J0.008 F400.000
G2 X335.155 Y58.955 Z-0.250 I0.155 J-0.374 F400.000
G2 X334.595 Y59.321 Z-0.250 I-0.155 J0.374 F400.000
G1 X334.595 Y59.321 Z-0.500 F400.000
G2 X334.845 Y59.703 Z-0.500 I0.405 J0.008 F400.000
G2 X335.155 Y58.955 Z-0.500 I0.155 J-0.374 F400.000
G2 X334.595 Y59.321 Z-0.500 I-0.155 J0.374 F400.000
G1 X334.595 Y59.321 Z-0.750 F400.000
G2 X334.845 Y59.703 Z-0.750 I0.405 J0.008 F400.000
G2 X335.155 Y58.955 Z-0.750 I0.155 J-0.374 F400.000
G2 X334.595 Y59.321 Z-0.750 I-0.155 J0.374 F400.000
G1 X334.595 Y59.321 Z-1.000 F400.000
G2 X334.845 Y59.703 Z-1.000 I0.405 J0.008 F400.000
G2 X335.155 Y58.955 Z-1.000 I0.155 J-0.374 F400.000
G2 X334.595 Y59.321 Z-1.000 I-0.155 J0.374 F400.000
G1 X334.595 Y59.321 Z-1.250 F400.000
G2 X334.845 Y59.703 Z-1.250 I0.405 J0.008 F400.000
G2 X335.155 Y58.955 Z-1.250 I0.155 J-0.374 F400.000
G2 X334.595 Y59.321 Z-1.250 I-0.155 J0.374 F400.000
G1 X334.595 Y59.321 Z-1.500 F400.000
G2 X334.845 Y59.703 Z-1.500 I0.405 J0.008 F400.000
G2 X335.155 Y58.955 Z-1.500 I0.155 J-0.374 F400.000
G2 X334.595 Y59.321 Z-1.500 I-0.155 J0.374 F400.000
G1 X334.595 Y59.321 Z-1.750 F400.000
G2 X334.845 Y59.703 Z-1.750 I0.405 J0.008 F400.000
G2 X335.155 Y58.955 Z-1.750 I0.155 J-0.374 F400.000
G2 X334.595 Y59.321 Z-1.750 I-0.155 J0.374 F400.000
G1 X334.595 Y59.321 Z-2.000 F400.000
G2 X334.845 Y59.703 Z-2.000 I0.405 J0.008 F400.000
G2 X335.155 Y58.955 Z-2.000 I0.155 J-0.374 F400.000
G2 X334.595 Y59.321 Z-2.000 I-0.155 J0.374 F400.000
G1 X334.595 Y59.321 Z-2.250 F400.000
G2 X334.845 Y59.703 Z-2.250 I0.405 J0.008 F400.000
G2 X335.155 Y58.955 Z-2.250 I0.155 J-0.374 F400.000
G2 X334.595 Y59.321 Z-2.250 I-0.155 J0.374 F400.000
G1 X334.595 Y59.321 Z-2.500 F400.000
G2 X334.845 Y59.703 Z-2.500 I0.405 J0.008 F400.000
G2 X335.155 Y58.955 Z-2.500 I0.155 J-0.374 F400.000
G2 X334.595 Y59.321 Z-2.500 I-0.155 J0.374 F400.000
G1 X334.595 Y59.321 Z-2.750 F400.000
G2 X334.845 Y59.703 Z-2.750 I0.405 J0.008 F400.000
G2 X335.155 Y58.955 Z-2.750 I0.155 J-0.374 F400.000
G2 X334.595 Y59.321 Z-2.750 I-0.155 J0.374 F400.000
G1 X334.595 Y59.321 Z-3.000 F400.000
G2 X334.845 Y59.703 Z-3.000 I0.405 J0.008 F400.000
G2 X335.155 Y58.955 Z-3.000 I0.155 J-0.374 F400.000
G2 X334.595 Y59.321 Z-3.000 I-0.155 J0.374 F400.000
G1 X334.595 Y59.321 Z-3.250 F400.000
G2 X334.845 Y59.703 Z-3.250 I0.405 J0.008 F400.000
G2 X335.155 Y58.955 Z-3.250 I0.155 J-0.374 F400.000
G2 X334.595 Y59.321 Z-3.250 I-0.155 J0.374 F400.000
G1 X334.595 Y59.321 Z-3.425 F400.000
G2 X334.845 Y59.703 Z-3.425 I0.405 J0.008 F400.000
G2 X335.155 Y58.955 Z-3.425 I0.155 J-0.374 F400.000
G2 X334.595 Y59.321 Z-3.425 I-0.155 J0.374 F400.000
G0 Z5.250
G0 Z5.250
G0 X334.595 Y59.321
G0 X334.990 Y43.733
G0 X334.990 Y43.733 Z3.250
G1 X334.990 Y43.733 Z0.000 F400.000
G2 X335.155 Y42.955 Z0.000 I0.010 J-0.405 F400.000
G2 X334.845 Y43.703 Z0.000 I-0.155 J0.374 F400.000
G2 X334.990 Y43.733 Z0.000 I0.155 J-0.374 F400.000
G1 X334.990 Y43.733 Z-0.250 F400.000
G2 X335.155 Y42.955 Z-0.250 I0.010 J-0.405 F400.000
G2 X334.845 Y43.703 Z-0.250 I-0.155 J0.374 F400.000
G2 X334.990 Y43.733 Z-0.250 I0.155 J-0.374 F400.000
G1 X334.990 Y43.733 Z-0.500 F400.000
G2 X335.155 Y42.955 Z-0.500 I0.010 J-0.405 F400.000
G2 X334.845 Y43.703 Z-0.500 I-0.155 J0.374 F400.000
G2 X334.990 Y43.733 Z-0.500 I0.155 J-0.374 F400.000
G1 X334.990 Y43.733 Z-0.750 F400.000
G2 X335.155 Y42.955 Z-0.750 I0.010 J-0.405 F400.000
G2 X334.845 Y43.703 Z-0.750 I-0.155 J0.374 F400.000
G2 X334.990 Y43.733 Z-0.750 I0.155 J-0.374 F400.000
G1 X334.990 Y43.733 Z-1.000 F400.000
G2 X335.155 Y42.955 Z-1.000 I0.010 J-0.405 F400.000
G2 X334.845 Y43.703 Z-1.000 I-0.155 J0.374 F400.000
G2 X334.990 Y43.733 Z-1.000 I0.155 J-0.374 F400.000
G1 X334.990 Y43.733 Z-1.250 F400.000
G2 X335.155 Y42.955 Z-1.250 I0.010 J-0.405 F400.000
G2 X334.845 Y43.703 Z-1.250 I-0.155 J0.374 F400.000
G2 X334.990 Y43.733 Z-1.250 I0.155 J-0.374 F400.000
G1 X334.990 Y43.733 Z-1.500 F400.000
G2 X335.155 Y42.955 Z-1.500 I0.010 J-0.405 F400.000
G2 X334.845 Y43.703 Z-1.500 I-0.155 J0.374 F400.000
G2 X334.990 Y43.733 Z-1.500 I0.155 J-0.374 F400.000
G1 X334.990 Y43.733 Z-1.750 F400.000
G2 X335.155 Y42.955 Z-1.750 I0.010 J-0.405 F400.000
G2 X334.845 Y43.703 Z-1.750 I-0.155 J0.374 F400.000
G2 X334.990 Y43.733 Z-1.750 I0.155 J-0.374 F400.000
G1 X334.990 Y43.733 Z-2.000 F400.000
G2 X335.155 Y42.955 Z-2.000 I0.010 J-0.405 F400.000
G2 X334.845 Y43.703 Z-2.000 I-0.155 J0.374 F400.000
G2 X334.990 Y43.733 Z-2.000 I0.155 J-0.374 F400.000
G1 X334.990 Y43.733 Z-2.250 F400.000
G2 X335.155 Y42.955 Z-2.250 I0.010 J-0.405 F400.000
G2 X334.845 Y43.703 Z-2.250 I-0.155 J0.374 F400.000
G2 X334.990 Y43.733 Z-2.250 I0.155 J-0.374 F400.000
G1 X334.990 Y43.733 Z-2.500 F400.000
G2 X335.155 Y42.955 Z-2.500 I0.010 J-0.405 F400.000
G2 X334.845 Y43.703 Z-2.500 I-0.155 J0.374 F400.000
G2 X334.990 Y43.733 Z-2.500 I0.155 J-0.374 F400.000
G1 X334.990 Y43.733 Z-2.750 F400.000
G2 X335.155 Y42.955 Z-2.750 I0.010 J-0.405 F400.000
G2 X334.845 Y43.703 Z-2.750 I-0.155 J0.374 F400.000
G2 X334.990 Y43.733 Z-2.750 I0.155 J-0.374 F400.000
G1 X334.990 Y43.733 Z-3.000 F400.000
G2 X335.155 Y42.955 Z-3.000 I0.010 J-0.405 F400.000
G2 X334.845 Y43.703 Z-3.000 I-0.155 J0.374 F400.000
G2 X334.990 Y43.733 Z-3.000 I0.155 J-0.374 F400.000
G1 X334.990 Y43.733 Z-3.250 F400.000
G2 X335.155 Y42.955 Z-3.250 I0.010 J-0.405 F400.000
G2 X334.845 Y43.703 Z-3.250 I-0.155 J0.374 F400.000
G2 X334.990 Y43.733 Z-3.250 I0.155 J-0.374 F400.000
G1 X334.990 Y43.733 Z-3.425 F400.000
G2 X335.155 Y42.955 Z-3.425 I0.010 J-0.405 F400.000
G2 X334.845 Y43.703 Z-3.425 I-0.155 J0.374 F400.000
G2 X334.990 Y43.733 Z-3.425 I0.155 J-0.374 F400.000
G0 Z5.250
G0 Z5.250
G0 X334.990 Y43.733
G0 X372.408 Y53.229
G0 X372.408 Y53.229 Z3.250
G1 X372.408 Y53.229 Z0.000 F400.000
G2 X372.645 Y53.703 Z0.000 I0.392 J0.100 F400.000
G2 X373.174 Y53.483 Z0.000 I0.155 J-0.374 F400.000
G2 X372.955 Y52.955 Z0.000 I-0.374 J-0.155 F400.000
G2 X372.408 Y53.229 Z0.000 I-0.155 J0.374 F400.000
G1 X372.408 Y53.229 Z-0.250 F400.000
G2 X372.645 Y53.703 Z-0.250 I0.392 J0.100 F400.000
G2 X373.174 Y53.483 Z-0.250 I0.155 J-0.374 F400.000
G2 X372.955 Y52.955 Z-0.250 I-0.374 J-0.155 F400.000
G2 X372.408 Y53.229 Z-0.250 I-0.155 J0.374 F400.000
G1 X372.408 Y53.229 Z-0.500 F400.000
G2 X372.645 Y53.703 Z-0.500 I0.392 J0.100 F400.000
G2 X373.174 Y53.483 Z-0.500 I0.155 J-0.374 F400.000
G2 X372.955 Y52.955 Z-0.500 I-0.374 J-0.155 F400.000
G2 X372.408 Y53.229 Z-0.500 I-0.155 J0.374 F400.000
G1 X372.408 Y53.229 Z-0.750 F400.000
G2 X372.645 Y53.703 Z-0.750 I0.392 J0.100 F400.000
G2 X373.174 Y53.483 Z-0.750 I0.155 J-0.374 F400.000
G2 X372.955 Y52.955 Z-0.750 I-0.374 J-0.155 F400.000
G2 X372.408 Y53.229 Z-0.750 I-0.155 J0.374 F400.000
G1 X372.408 Y53.229 Z-1.000 F400.000
G2 X372.645 Y53.703 Z-1.000 I0.392 J0.100 F400.000
G2 X373.174 Y53.483 Z-1.000 I0.155 J-0.374 F400.000
G2 X372.955 Y52.955 Z-1.000 I-0.374 J-0.155 F400.000
G2 X372.408 Y53.229 Z-1.000 I-0.155 J0.374 F400.000
G1 X372.408 Y53.229 Z-1.250 F400.000
G2 X372.645 Y53.703 Z-1.250 I0.392 J0.100 F400.000
G2 X373.174 Y53.483 Z-1.250 I0.155 J-0.374 F400.000
G2 X372.955 Y52.955 Z-1.250 I-0.374 J-0.155 F400.000
G2 X372.408 Y53.229 Z-1.250 I-0.155 J0.374 F400.000
G1 X372.408 Y53.229 Z-1.500 F400.000
G2 X372.645 Y53.703 Z-1.500 I0.392 J0.100 F400.000
G2 X373.174 Y53.483 Z-1.500 I0.155 J-0.374 F400.000
G2 X372.955 Y52.955 Z-1.500 I-0.374 J-0.155 F400.000
G2 X372.408 Y53.229 Z-1.500 I-0.155 J0.374 F400.000
G1 X372.408 Y53.229 Z-1.750 F400.000
G2 X372.645 Y53.703 Z-1.750 I0.392 J0.100 F400.000
G2 X373.174 Y53.483 Z-1.750 I0.155 J-0.374 F400.000
G2 X372.955 Y52.955 Z-1.750 I-0.374 J-0.155 F400.000
G2 X372.408 Y53.229 Z-1.750 I-0.155 J0.374 F400.000
G1 X372.408 Y53.229 Z-2.000 F400.000
G2 X372.645 Y53.703 Z-2.000 I0.392 J0.100 F400.000
G2 X373.174 Y53.483 Z-2.000 I0.155 J-0.374 F400.000
G2 X372.955 Y52.955 Z-2.000 I-0.374 J-0.155 F400.000
G2 X372.408 Y53.229 Z-2.000 I-0.155 J0.374 F400.000
G1 X372.408 Y53.229 Z-2.250 F400.000
G2 X372.645 Y53.703 Z-2.250 I0.392 J0.100 F400.000
G2 X373.174 Y53.483 Z-2.250 I0.155 J-0.374 F400.000
G2 X372.955 Y52.955 Z-2.250 I-0.374 J-0.155 F400.000
G2 X372.408 Y53.229 Z-2.250 I-0.155 J0.374 F400.000
G1 X372.408 Y53.229 Z-2.500 F400.000
G2 X372.645 Y53.703 Z-2.500 I0.392 J0.100 F400.000
G2 X373.174 Y53.483 Z-2.500 I0.155 J-0.374 F400.000
G2 X372.955 Y52.955 Z-2.500 I-0.374 J-0.155 F400.000
G2 X372.408 Y53.229 Z-2.500 I-0.155 J0.374 F400.000
G1 X372.408 Y53.229 Z-2.750 F400.000
G2 X372.645 Y53.703 Z-2.750 I0.392 J0.100 F400.000
G2 X373.174 Y53.483 Z-2.750 I0.155 J-0.374 F400.000
G2 X372.955 Y52.955 Z-2.750 I-0.374 J-0.155 F400.000
G2 X372.408 Y53.229 Z-2.750 I-0.155 J0.374 F400.000
G1 X372.408 Y53.229 Z-3.000 F400.000
G2 X372.645 Y53.703 Z-3.000 I0.392 J0.100 F400.000
G2 X373.174 Y53.483 Z-3.000 I0.155 J-0.374 F400.000
G2 X372.955 Y52.955 Z-3.000 I-0.374 J-0.155 F400.000
G2 X372.408 Y53.229 Z-3.000 I-0.155 J0.374 F400.000
G1 X372.408 Y53.229 Z-3.250 F400.000
G2 X372.645 Y53.703 Z-3.250 I0.392 J0.100 F400.000
G2 X373.174 Y53.483 Z-3.250 I0.155 J-0.374 F400.000
G2 X372.955 Y52.955 Z-3.250 I-0.374 J-0.155 F400.000
G2 X372.408 Y53.229 Z-3.250 I-0.155 J0.374 F400.000
G1 X372.408 Y53.229 Z-3.425 F400.000
G2 X372.645 Y53.703 Z-3.425 I0.392 J0.100 F400.000
G2 X373.174 Y53.483 Z-3.425 I0.155 J-0.374 F400.000
G2 X372.955 Y52.955 Z-3.425 I-0.374 J-0.155 F400.000
G2 X372.408 Y53.229 Z-3.425 I-0.155 J0.374 F400.000
G0 Z5.250
G0 Z5.250
G0 X372.408 Y53.229
G0 X372.795 Y21.733
G0 X372.795 Y21.733 Z3.250
G1 X372.795 Y21.733 Z0.000 F400.000
G2 X372.955 Y20.955 Z0.000 I0.005 J-0.405 F400.000
G2 X372.645 Y21.703 Z0.000 I-0.155 J0.374 F400.000
G2 X372.795 Y21.733 Z0.000 I0.155 J-0.374 F400.000
G1 X372.795 Y21.733 Z-0.250 F400.000
G2 X372.955 Y20.955 Z-0.250 I0.005 J-0.405 F400.000
G2 X372.645 Y21.703 Z-0.250 I-0.155 J0.374 F400.000
G2 X372.795 Y21.733 Z-0.250 I0.155 J-0.374 F400.000
G1 X372.795 Y21.733 Z-0.500 F400.000
G2 X372.955 Y20.955 Z-0.500 I0.005 J-0.405 F400.000
G2 X372.645 Y21.703 Z-0.500 I-0.155 J0.374 F400.000
G2 X372.795 Y21.733 Z-0.500 I0.155 J-0.374 F400.000
