(Exported by FreeCAD)
(Post Processor: script_module)
(Output Time:2024-11-25 19:21:08.218283)
(begin preamble)
%
G17 G21 G40 G49 G80 G90
M08
G21
(begin operation: Fixture)
(machine: not set, mm/min)
G54
(finish operation: Fixture)
(begin operation: 1/8in Endmill013)
(machine: not set, mm/min)
(1/8in Endmill013)
M05
M09M6 T1
M3 S15000
(finish operation: 1/8in Endmill013)
(begin operation: Profile012)
(machine: not set, mm/min)
(Profile012)
(Compensated Tool Path. Diameter: 3.175)
G0 Z5.250
G0 X323.660 Y63.464
G0 Z3.250
G1 X323.660 Y63.464 Z0.000 F400.000
G2 X323.529 Y62.804 Z0.000 I-0.286 J-0.286 F400.000
G2 X323.219 Y63.552 Z0.000 I-0.155 J0.374 F400.000
G2 X323.660 Y63.464 Z0.000 I0.155 J-0.374 F400.000
G1 X323.660 Y63.464 Z-0.250 F400.000
G2 X323.529 Y62.804 Z-0.250 I-0.286 J-0.286 F400.000
G2 X323.219 Y63.552 Z-0.250 I-0.155 J0.374 F400.000
G2 X323.660 Y63.464 Z-0.250 I0.155 J-0.374 F400.000
G1 X323.660 Y63.464 Z-0.500 F400.000
G2 X323.529 Y62.804 Z-0.500 I-0.286 J-0.286 F400.000
G2 X323.219 Y63.552 Z-0.500 I-0.155 J0.374 F400.000
G2 X323.660 Y63.464 Z-0.500 I0.155 J-0.374 F400.000
G1 X323.660 Y63.464 Z-0.750 F400.000
G2 X323.529 Y62.804 Z-0.750 I-0.286 J-0.286 F400.000
G2 X323.219 Y63.552 Z-0.750 I-0.155 J0.374 F400.000
G2 X323.660 Y63.464 Z-0.750 I0.155 J-0.374 F400.000
G1 X323.660 Y63.464 Z-1.000 F400.000
G2 X323.529 Y62.804 Z-1.000 I-0.286 J-0.286 F400.000
G2 X323.219 Y63.552 Z-1.000 I-0.155 J0.374 F400.000
G2 X323.660 Y63.464 Z-1.000 I0.155 J-0.374 F400.000
G1 X323.660 Y63.464 Z-1.250 F400.000
G2 X323.529 Y62.804 Z-1.250 I-0.286 J-0.286 F400.000
G2 X323.219 Y63.552 Z-1.250 I-0.155 J0.374 F400.000
G2 X323.660 Y63.464 Z-1.250 I0.155 J-0.374 F400.000
G1 X323.660 Y63.464 Z-1.500 F400.000
G2 X323.529 Y62.804 Z-1.500 I-0.286 J-0.286 F400.000
G2 X323.219 Y63.552 Z-1.500 I-0.155 J0.374 F400.000
G2 X323.660 Y63.464 Z-1.500 I0.155 J-0.374 F400.000
G1 X323.660 Y63.464 Z-1.750 F400.000
G2 X323.529 Y62.804 Z-1.750 I-0.286 J-0.286 F400.000
G2 X323.219 Y63.552 Z-1.750 I-0.155 J0.374 F400.000
G2 X323.660 Y63.464 Z-1.750 I0.155 J-0.374 F400.000
G1 X323.660 Y63.464 Z-2.000 F400.000
G2 X323.529 Y62.804 Z-2.000 I-0.286 J-0.286 F400.000
G2 X323.219 Y63.552 Z-2.000 I-0.155 J0.374 F400.000
G2 X323.660 Y63.464 Z-2.000 I0.155 J-0.374 F400.000
G1 X323.660 Y63.464 Z-2.250 F400.000
G2 X323.529 Y62.804 Z-2.250 I-0.286 J-0.286 F400.000
G2 X323.219 Y63.552 Z-2.250 I-0.155 J0.374 F400.000
G2 X323.660 Y63.464 Z-2.250 I0.155 J-0.374 F400.000
G1 X323.660 Y63.464 Z-2.500 F400.000
G2 X323.529 Y62.804 Z-2.500 I-0.286 J-0.286 F400.000
G2 X323.219 Y63.552 Z-2.500 I-0.155 J0.374 F400.000
G2 X323.660 Y63.464 Z-2.500 I0.155 J-0.374 F400.000
G1 X323.660 Y63.464 Z-2.750 F400.000
G2 X323.529 Y62.804 Z-2.750 I-0.286 J-0.286 F400.000
G2 X323.219 Y63.552 Z-2.750 I-0.155 J0.374 F400.000
G2 X323.660 Y63.464 Z-2.750 I0.155 J-0.374 F400.000
G1 X323.660 Y63.464 Z-3.000 F400.000
G2 X323.529 Y62.804 Z-3.000 I-0.286 J-0.286 F400.000
G2 X323.219 Y63.552 Z-3.000 I-0.155 J0.374 F400.000
G2 X323.660 Y63.464 Z-3.000 I0.155 J-0.374 F400.000
G1 X323.660 Y63.464 Z-3.250 F400.000
G2 X323.529 Y62.804 Z-3.250 I-0.286 J-0.286 F400.000
G2 X323.219 Y63.552 Z-3.250 I-0.155 J0.374 F400.000
G2 X323.660 Y63.464 Z-3.250 I0.155 J-0.374 F400.000
G1 X323.660 Y63.464 Z-3.420 F400.000
G2 X323.529 Y62.804 Z-3.420 I-0.286 J-0.286 F400.000
G2 X323.219 Y63.552 Z-3.420 I-0.155 J0.374 F400.000
G2 X323.660 Y63.464 Z-3.420 I0.155 J-0.374 F400.000
G0 Z5.250
G0 Z5.250
G0 X323.660 Y63.464
G0 X339.016 Y55.366
G0 X339.016 Y55.366 Z3.250
G1 X339.016 Y55.366 Z0.000 F400.000
G2 X339.219 Y55.552 Z0.000 I0.358 J-0.189 F400.000
G2 X339.529 Y54.804 Z0.000 I0.155 J-0.374 F400.000
G2 X339.016 Y55.366 Z0.000 I-0.155 J0.374 F400.000
G1 X339.016 Y55.366 Z-0.250 F400.000
G2 X339.219 Y55.552 Z-0.250 I0.358 J-0.189 F400.000
G2 X339.529 Y54.804 Z-0.250 I0.155 J-0.374 F400.000
G2 X339.016 Y55.366 Z-0.250 I-0.155 J0.374 F400.000
G1 X339.016 Y55.366 Z-0.500 F400.000
G2 X339.219 Y55.552 Z-0.500 I0.358 J-0.189 F400.000
G2 X339.529 Y54.804 Z-0.500 I0.155 J-0.374 F400.000
G2 X339.016 Y55.366 Z-0.500 I-0.155 J0.374 F400.000
G1 X339.016 Y55.366 Z-0.750 F400.000
G2 X339.219 Y55.552 Z-0.750 I0.358 J-0.189 F400.000
G2 X339.529 Y54.804 Z-0.750 I0.155 J-0.374 F400.000
G2 X339.016 Y55.366 Z-0.750 I-0.155 J0.374 F400.000
G1 X339.016 Y55.366 Z-1.000 F400.000
G2 X339.219 Y55.552 Z-1.000 I0.358 J-0.189 F400.000
G2 X339.529 Y54.804 Z-1.000 I0.155 J-0.374 F400.000
G2 X339.016 Y55.366 Z-1.000 I-0.155 J0.374 F400.000
G1 X339.016 Y55.366 Z-1.250 F400.000
G2 X339.219 Y55.552 Z-1.250 I0.358 J-0.189 F400.000
G2 X339.529 Y54.804 Z-1.250 I0.155 J-0.374 F400.000
G2 X339.016 Y55.366 Z-1.250 I-0.155 J0.374 F400.000
G1 X339.016 Y55.366 Z-1.500 F400.000
G2 X339.219 Y55.552 Z-1.500 I0.358 J-0.189 F400.000
G2 X339.529 Y54.804 Z-1.500 I0.155 J-0.374 F400.000
G2 X339.016 Y55.366 Z-1.500 I-0.155 J0.374 F400.000
G1 X339.016 Y55.366 Z-1.750 F400.000
G2 X339.219 Y55.552 Z-1.750 I0.358 J-0.189 F400.000
G2 X339.529 Y54.804 Z-1.750 I0.155 J-0.374 F400.000
G2 X339.016 Y55.366 Z-1.750 I-0.155 J0.374 F400.000
G1 X339.016 Y55.366 Z-2.000 F400.000
G2 X339.219 Y55.552 Z-2.000 I0.358 J-0.189 F400.000
G2 X339.529 Y54.804 Z-2.000 I0.155 J-0.374 F400.000
G2 X339.016 Y55.366 Z-2.000 I-0.155 J0.374 F400.000
G1 X339.016 Y55.366 Z-2.250 F400.000
G2 X339.219 Y55.552 Z-2.250 I0.358 J-0.189 F400.000
G2 X339.529 Y54.804 Z-2.250 I0.155 J-0.374 F400.000
G2 X339.016 Y55.366 Z-2.250 I-0.155 J0.374 F400.000
G1 X339.016 Y55.366 Z-2.500 F400.000
G2 X339.219 Y55.552 Z-2.500 I0.358 J-0.189 F400.000
G2 X339.529 Y54.804 Z-2.500 I0.155 J-0.374 F400.000
G2 X339.016 Y55.366 Z-2.500 I-0.155 J0.374 F400.000
G1 X339.016 Y55.366 Z-2.750 F400.000
G2 X339.219 Y55.552 Z-2.750 I0.358 J-0.189 F400.000
G2 X339.529 Y54.804 Z-2.750 I0.155 J-0.374 F400.000
G2 X339.016 Y55.366 Z-2.750 I-0.155 J0.374 F400.000
G1 X339.016 Y55.366 Z-3.000 F400.000
G2 X339.219 Y55.552 Z-3.000 I0.358 J-0.189 F400.000
G2 X339.529 Y54.804 Z-3.000 I0.155 J-0.374 F400.000
G2 X339.016 Y55.366 Z-3.000 I-0.155 J0.374 F400.000
G1 X339.016 Y55.366 Z-3.250 F400.000
G2 X339.219 Y55.552 Z-3.250 I0.358 J-0.189 F400.000
G2 X339.529 Y54.804 Z-3.250 I0.155 J-0.374 F400.000
G2 X339.016 Y55.366 Z-3.250 I-0.155 J0.374 F400.000
G1 X339.016 Y55.366 Z-3.420 F400.000
G2 X339.219 Y55.552 Z-3.420 I0.358 J-0.189 F400.000
G2 X339.529 Y54.804 Z-3.420 I0.155 J-0.374 F400.000
G2 X339.016 Y55.366 Z-3.420 I-0.155 J0.374 F400.000
G0 Z5.250
G0 Z5.250
G0 X339.016 Y55.366
G0 X344.883 Y60.850
G0 X344.883 Y60.850 Z3.250
G1 X344.883 Y60.850 Z0.000 F400.000
G2 X346.526 Y66.480 Z0.000 I2.491 J2.328 F400.000
G2 X348.222 Y59.875 Z0.000 I0.848 J-3.302 F400.000
G2 X344.883 Y60.850 Z0.000 I-0.848 J3.302 F400.000
G1 X344.883 Y60.850 Z-0.250 F400.000
G2 X346.526 Y66.480 Z-0.250 I2.491 J2.328 F400.000
G2 X348.222 Y59.875 Z-0.250 I0.848 J-3.302 F400.000
G2 X344.883 Y60.850 Z-0.250 I-0.848 J3.302 F400.000
G1 X344.883 Y60.850 Z-0.500 F400.000
G2 X346.526 Y66.480 Z-0.500 I2.491 J2.328 F400.000
G2 X348.222 Y59.875 Z-0.500 I0.848 J-3.302 F400.000
G2 X344.883 Y60.850 Z-0.500 I-0.848 J3.302 F400.000
G1 X344.883 Y60.850 Z-0.750 F400.000
G2 X346.526 Y66.480 Z-0.750 I2.491 J2.328 F400.000
G2 X348.222 Y59.875 Z-0.750 I0.848 J-3.302 F400.000
G2 X344.883 Y60.850 Z-0.750 I-0.848 J3.302 F400.000
G1 X344.883 Y60.850 Z-1.000 F400.000
G2 X346.526 Y66.480 Z-1.000 I2.491 J2.328 F400.000
G2 X348.222 Y59.875 Z-1.000 I0.848 J-3.302 F400.000
G2 X344.883 Y60.850 Z-1.000 I-0.848 J3.302 F400.000
G1 X344.883 Y60.850 Z-1.250 F400.000
G2 X346.526 Y66.480 Z-1.250 I2.491 J2.328 F400.000
G2 X348.222 Y59.875 Z-1.250 I0.848 J-3.302 F400.000
G2 X344.883 Y60.850 Z-1.250 I-0.848 J3.302 F400.000
G1 X344.883 Y60.850 Z-1.500 F400.000
G2 X346.526 Y66.480 Z-1.500 I2.491 J2.328 F400.000
G2 X348.222 Y59.875 Z-1.500 I0.848 J-3.302 F400.000
G2 X344.883 Y60.850 Z-1.500 I-0.848 J3.302 F400.000
G1 X344.883 Y60.850 Z-1.750 F400.000
G2 X346.526 Y66.480 Z-1.750 I2.491 J2.328 F400.000
G2 X348.222 Y59.875 Z-1.750 I0.848 J-3.302 F400.000
G2 X344.883 Y60.850 Z-1.750 I-0.848 J3.302 F400.000
G1 X344.883 Y60.850 Z-2.000 F400.000
G2 X346.526 Y66.480 Z-2.000 I2.491 J2.328 F400.000
G2 X348.222 Y59.875 Z-2.000 I0.848 J-3.302 F400.000
G2 X344.883 Y60.850 Z-2.000 I-0.848 J3.302 F400.000
G1 X344.883 Y60.850 Z-2.250 F400.000
G2 X346.526 Y66.480 Z-2.250 I2.491 J2.328 F400.000
G2 X348.222 Y59.875 Z-2.250 I0.848 J-3.302 F400.000
G2 X344.883 Y60.850 Z-2.250 I-0.848 J3.302 F400.000
G1 X344.883 Y60.850 Z-2.500 F400.000
G2 X346.526 Y66.480 Z-2.500 I2.491 J2.328 F400.000
G2 X348.222 Y59.875 Z-2.500 I0.848 J-3.302 F400.000
G2 X344.883 Y60.850 Z-2.500 I-0.848 J3.302 F400.000
G1 X344.883 Y60.850 Z-2.750 F400.000
G2 X346.526 Y66.480 Z-2.750 I2.491 J2.328 F400.000
G2 X348.222 Y59.875 Z-2.750 I0.848 J-3.302 F400.000
G2 X344.883 Y60.850 Z-2.750 I-0.848 J3.302 F400.000
G1 X344.883 Y60.850 Z-3.000 F400.000
G2 X346.526 Y66.480 Z-3.000 I2.491 J2.328 F400.000
G2 X348.222 Y59.875 Z-3.000 I0.848 J-3.302 F400.000
G2 X344.883 Y60.850 Z-3.000 I-0.848 J3.302 F400.000
G1 X344.883 Y60.850 Z-3.250 F400.000
G2 X346.526 Y66.480 Z-3.250 I2.491 J2.328 F400.000
G2 X348.222 Y59.875 Z-3.250 I0.848 J-3.302 F400.000
G2 X344.883 Y60.850 Z-3.250 I-0.848 J3.302 F400.000
G1 X344.883 Y60.850 Z-3.420 F400.000
G2 X346.526 Y66.480 Z-3.420 I2.491 J2.328 F400.000
G2 X348.222 Y59.875 Z-3.420 I0.848 J-3.302 F400.000
G2 X344.883 Y60.850 Z-3.420 I-0.848 J3.302 F400.000
G0 Z5.250
G0 Z5.250
G0 X344.883 Y60.850
G0 X355.085 Y70.894
G0 X355.085 Y70.894 Z3.250
G1 X355.085 Y70.894 Z0.000 F400.000
G2 X355.219 Y71.552 Z0.000 I0.288 J0.284 F400.000
G2 X355.529 Y70.804 Z0.000 I0.155 J-0.374 F400.000
G2 X355.085 Y70.894 Z0.000 I-0.155 J0.374 F400.000
G1 X355.085 Y70.894 Z-0.250 F400.000
G2 X355.219 Y71.552 Z-0.250 I0.288 J0.284 F400.000
G2 X355.529 Y70.804 Z-0.250 I0.155 J-0.374 F400.000
G2 X355.085 Y70.894 Z-0.250 I-0.155 J0.374 F400.000
G1 X355.085 Y70.894 Z-0.500 F400.000
G2 X355.219 Y71.552 Z-0.500 I0.288 J0.284 F400.000
G2 X355.529 Y70.804 Z-0.500 I0.155 J-0.374 F400.000
G2 X355.085 Y70.894 Z-0.500 I-0.155 J0.374 F400.000
G1 X355.085 Y70.894 Z-0.750 F400.000
G2 X355.219 Y71.552 Z-0.750 I0.288 J0.284 F400.000
G2 X355.529 Y70.804 Z-0.750 I0.155 J-0.374 F400.000
G2 X355.085 Y70.894 Z-0.750 I-0.155 J0.374 F400.000
G1 X355.085 Y70.894 Z-1.000 F400.000
G2 X355.219 Y71.552 Z-1.000 I0.288 J0.284 F400.000
G2 X355.529 Y70.804 Z-1.000 I0.155 J-0.374 F400.000
G2 X355.085 Y70.894 Z-1.000 I-0.155 J0.374 F400.000
G1 X355.085 Y70.894 Z-1.250 F400.000
G2 X355.219 Y71.552 Z-1.250 I0.288 J0.284 F400.000
G2 X355.529 Y70.804 Z-1.250 I0.155 J-0.374 F400.000
G2 X355.085 Y70.894 Z-1.250 I-0.155 J0.374 F400.000
G1 X355.085 Y70.894 Z-1.500 F400.000
G2 X355.219 Y71.552 Z-1.500 I0.288 J0.284 F400.000
G2 X355.529 Y70.804 Z-1.500 I0.155 J-0.374 F400.000
G2 X355.085 Y70.894 Z-1.500 I-0.155 J0.374 F400.000
G1 X355.085 Y70.894 Z-1.750 F400.000
G2 X355.219 Y71.552 Z-1.750 I0.288 J0.284 F400.000
G2 X355.529 Y70.804 Z-1.750 I0.155 J-0.374 F400.000
G2 X355.085 Y70.894 Z-1.750 I-0.155 J0.374 F400.000
G1 X355.085 Y70.894 Z-2.000 F400.000
G2 X355.219 Y71.552 Z-2.000 I0.288 J0.284 F400.000
G2 X355.529 Y70.804 Z-2.000 I0.155 J-0.374 F400.000
G2 X355.085 Y70.894 Z-2.000 I-0.155 J0.374 F400.000
G1 X355.085 Y70.894 Z-2.250 F400.000
G2 X355.219 Y71.552 Z-2.250 I0.288 J0.284 F400.000
G2 X355.529 Y70.804 Z-2.250 I0.155 J-0.374 F400.000
G2 X355.085 Y70.894 Z-2.250 I-0.155 J0.374 F400.000
G1 X355.085 Y70.894 Z-2.500 F400.000
G2 X355.219 Y71.552 Z-2.500 I0.288 J0.284 F400.000
G2 X355.529 Y70.804 Z-2.500 I0.155 J-0.374 F400.000
G2 X355.085 Y70.894 Z-2.500 I-0.155 J0.374 F400.000
G1 X355.085 Y70.894 Z-2.750 F400.000
G2 X355.219 Y71.552 Z-2.750 I0.288 J0.284 F400.000
G2 X355.529 Y70.804 Z-2.750 I0.155 J-0.374 F400.000
G2 X355.085 Y70.894 Z-2.750 I-0.155 J0.374 F400.000
G1 X355.085 Y70.894 Z-3.000 F400.000
G2 X355.219 Y71.552 Z-3.000 I0.288 J0.284 F400.000
G2 X355.529 Y70.804 Z-3.000 I0.155 J-0.374 F400.000
G2 X355.085 Y70.894 Z-3.000 I-0.155 J0.374 F400.000
G1 X355.085 Y70.894 Z-3.250 F400.000
G2 X355.219 Y71.552 Z-3.250 I0.288 J0.284 F400.000
G2 X355.529 Y70.804 Z-3.250 I0.155 J-0.374 F400.000
G2 X355.085 Y70.894 Z-3.250 I-0.155 J0.374 F400.000
G1 X355.085 Y70.894 Z-3.420 F400.000
G2 X355.219 Y71.552 Z-3.420 I0.288 J0.284 F400.000
G2 X355.529 Y70.804 Z-3.420 I0.155 J-0.374 F400.000
G2 X355.085 Y70.894 Z-3.420 I-0.155 J0.374 F400.000
G0 Z5.250
G0 Z5.250
G0 X355.085 Y70.894
G0 X339.779 Y71.170
G0 X339.779 Y71.170 Z3.250
G1 X339.779 Y71.170 Z0.000 F400.000
G2 X339.529 Y70.804 Z0.000 I-0.405 J0.007 F400.000
G2 X339.219 Y71.552 Z0.000 I-0.155 J0.374 F400.000
G2 X339.779 Y71.170 Z0.000 I0.155 J-0.374 F400.000
G1 X339.779 Y71.170 Z-0.250 F400.000
G2 X339.529 Y70.804 Z-0.250 I-0.405 J0.007 F400.000
G2 X339.219 Y71.552 Z-0.250 I-0.155 J0.374 F400.000
G2 X339.779 Y71.170 Z-0.250 I0.155 J-0.374 F400.000
G1 X339.779 Y71.170 Z-0.500 F400.000
G2 X339.529 Y70.804 Z-0.500 I-0.405 J0.007 F400.000
G2 X339.219 Y71.552 Z-0.500 I-0.155 J0.374 F400.000
G2 X339.779 Y71.170 Z-0.500 I0.155 J-0.374 F400.000
G1 X339.779 Y71.170 Z-0.750 F400.000
G2 X339.529 Y70.804 Z-0.750 I-0.405 J0.007 F400.000
G2 X339.219 Y71.552 Z-0.750 I-0.155 J0.374 F400.000
G2 X339.779 Y71.170 Z-0.750 I0.155 J-0.374 F400.000
G1 X339.779 Y71.170 Z-1.000 F400.000
G2 X339.529 Y70.804 Z-1.000 I-0.405 J0.007 F400.000
G2 X339.219 Y71.552 Z-1.000 I-0.155 J0.374 F400.000
G2 X339.779 Y71.170 Z-1.000 I0.155 J-0.374 F400.000
G1 X339.779 Y71.170 Z-1.250 F400.000
G2 X339.529 Y70.804 Z-1.250 I-0.405 J0.007 F400.000
G2 X339.219 Y71.552 Z-1.250 I-0.155 J0.374 F400.000
G2 X339.779 Y71.170 Z-1.250 I0.155 J-0.374 F400.000
G1 X339.779 Y71.170 Z-1.500 F400.000
G2 X339.529 Y70.804 Z-1.500 I-0.405 J0.007 F400.000
G2 X339.219 Y71.552 Z-1.500 I-0.155 J0.374 F400.000
G2 X339.779 Y71.170 Z-1.500 I0.155 J-0.374 F400.000
G1 X339.779 Y71.170 Z-1.750 F400.000
G2 X339.529 Y70.804 Z-1.750 I-0.405 J0.007 F400.000
G2 X339.219 Y71.552 Z-1.750 I-0.155 J0.374 F400.000
G2 X339.779 Y71.170 Z-1.750 I0.155 J-0.374 F400.000
G1 X339.779 Y71.170 Z-2.000 F400.000
G2 X339.529 Y70.804 Z-2.000 I-0.405 J0.007 F400.000
G2 X339.219 Y71.552 Z-2.000 I-0.155 J0.374 F400.000
G2 X339.779 Y71.170 Z-2.000 I0.155 J-0.374 F400.000
G1 X339.779 Y71.170 Z-2.250 F400.000
G2 X339.529 Y70.804 Z-2.250 I-0.405 J0.007 F400.000
G2 X339.219 Y71.552 Z-2.250 I-0.155 J0.374 F400.000
G2 X339.779 Y71.170 Z-2.250 I0.155 J-0.374 F400.000
G1 X339.779 Y71.170 Z-2.500 F400.000
G2 X339.529 Y70.804 Z-2.500 I-0.405 J0.007 F400.000
G2 X339.219 Y71.552 Z-2.500 I-0.155 J0.374 F400.000
G2 X339.779 Y71.170 Z-2.500 I0.155 J-0.374 F400.000
G1 X339.779 Y71.170 Z-2.750 F400.000
G2 X339.529 Y70.804 Z-2.750 I-0.405 J0.007 F400.000
G2 X339.219 Y71.552 Z-2.750 I-0.155 J0.374 F400.000
G2 X339.779 Y71.170 Z-2.750 I0.155 J-0.374 F400.000
G1 X339.779 Y71.170 Z-3.000 F400.000
G2 X339.529 Y70.804 Z-3.000 I-0.405 J0.007 F400.000
G2 X339.219 Y71.552 Z-3.000 I-0.155 J0.374 F400.000
G2 X339.779 Y71.170 Z-3.000 I0.155 J-0.374 F400.000
G1 X339.779 Y71.170 Z-3.250 F400.000
G2 X339.529 Y70.804 Z-3.250 I-0.405 J0.007 F400.000
G2 X339.219 Y71.552 Z-3.250 I-0.155 J0.374 F400.000
G2 X339.779 Y71.170 Z-3.250 I0.155 J-0.374 F400.000
G1 X339.779 Y71.170 Z-3.420 F400.000
G2 X339.529 Y70.804 Z-3.420 I-0.405 J0.007 F400.000
G2 X339.219 Y71.552 Z-3.420 I-0.155 J0.374 F400.000
G2 X339.779 Y71.170 Z-3.420 I0.155 J-0.374 F400.000
G0 Z5.250
G0 Z5.250
G0 X339.779 Y71.170
G0 X355.091 Y55.467
G0 X355.091 Y55.467 Z3.250
G1 X355.091 Y55.467 Z0.000 F400.000
G2 X355.219 Y55.552 Z0.000 I0.283 J-0.290 F400.000
G2 X355.529 Y54.804 Z0.000 I0.155 J-0.374 F400.000
G2 X355.091 Y55.467 Z0.000 I-0.155 J0.374 F400.000
G1 X355.091 Y55.467 Z-0.250 F400.000
G2 X355.219 Y55.552 Z-0.250 I0.283 J-0.290 F400.000
G2 X355.529 Y54.804 Z-0.250 I0.155 J-0.374 F400.000
G2 X355.091 Y55.467 Z-0.250 I-0.155 J0.374 F400.000
G1 X355.091 Y55.467 Z-0.500 F400.000
G2 X355.219 Y55.552 Z-0.500 I0.283 J-0.290 F400.000
G2 X355.529 Y54.804 Z-0.500 I0.155 J-0.374 F400.000
G2 X355.091 Y55.467 Z-0.500 I-0.155 J0.374 F400.000
G1 X355.091 Y55.467 Z-0.750 F400.000
G2 X355.219 Y55.552 Z-0.750 I0.283 J-0.290 F400.000
G2 X355.529 Y54.804 Z-0.750 I0.155 J-0.374 F400.000
G2 X355.091 Y55.467 Z-0.750 I-0.155 J0.374 F400.000
G1 X355.091 Y55.467 Z-1.000 F400.000
G2 X355.219 Y55.552 Z-1.000 I0.283 J-0.290 F400.000
G2 X355.529 Y54.804 Z-1.000 I0.155 J-0.374 F400.000
G2 X355.091 Y55.467 Z-1.000 I-0.155 J0.374 F400.000
G1 X355.091 Y55.467 Z-1.250 F400.000
G2 X355.219 Y55.552 Z-1.250 I0.283 J-0.290 F400.000
G2 X355.529 Y54.804 Z-1.250 I0.155 J-0.374 F400.000
G2 X355.091 Y55.467 Z-1.250 I-0.155 J0.374 F400.000
G1 X355.091 Y55.467 Z-1.500 F400.000
G2 X355.219 Y55.552 Z-1.500 I0.283 J-0.290 F400.000
G2 X355.529 Y54.804 Z-1.500 I0.155 J-0.374 F400.000
G2 X355.091 Y55.467 Z-1.500 I-0.155 J0.374 F400.000
G1 X355.091 Y55.467 Z-1.750 F400.000
G2 X355.219 Y55.552 Z-1.750 I0.283 J-0.290 F400.000
G2 X355.529 Y54.804 Z-1.750 I0.155 J-0.374 F400.000
G2 X355.091 Y55.467 Z-1.750 I-0.155 J0.374 F400.000
G1 X355.091 Y55.467 Z-2.000 F400.000
G2 X355.219 Y55.552 Z-2.000 I0.283 J-0.290 F400.000
G2 X355.529 Y54.804 Z-2.000 I0.155 J-0.374 F400.000
G2 X355.091 Y55.467 Z-2.000 I-0.155 J0.374 F400.000
G1 X355.091 Y55.467 Z-2.250 F400.000
G2 X355.219 Y55.552 Z-2.250 I0.283 J-0.290 F400.000
G2 X355.529 Y54.804 Z-2.250 I0.155 J-0.374 F400.000
G2 X355.091 Y55.467 Z-2.250 I-0.155 J0.374 F400.000
G1 X355.091 Y55.467 Z-2.500 F400.000
G2 X355.219 Y55.552 Z-2.500 I0.283 J-0.290 F400.000
G2 X355.529 Y54.804 Z-2.500 I0.155 J-0.374 F400.000
G2 X355.091 Y55.467 Z-2.500 I-0.155 J0.374 F400.000
G1 X355.091 Y55.467 Z-2.750 F400.000
G2 X355.219 Y55.552 Z-2.750 I0.283 J-0.290 F400.000
G2 X355.529 Y54.804 Z-2.750 I0.155 J-0.374 F400.000
G2 X355.091 Y55.467 Z-2.750 I-0.155 J0.374 F400.000
G1 X355.091 Y55.467 Z-3.000 F400.000
G2 X355.219 Y55.552 Z-3.000 I0.283 J-0.290 F400.000
G2 X355.529 Y54.804 Z-3.000 I0.155 J-0.374 F400.000
G2 X355.091 Y55.467 Z-3.000 I-0.155 J0.374 F400.000
G1 X355.091 Y55.467 Z-3.250 F400.000
G2 X355.219 Y55.552 Z-3.250 I0.283 J-0.290 F400.000
G2 X355.529 Y54.804 Z-3.250 I0.155 J-0.374 F400.000
G2 X355.091 Y55.467 Z-3.250 I-0.155 J0.374 F400.000
G1 X355.091 Y55.467 Z-3.420 F400.000
G2 X355.219 Y55.552 Z-3.420 I0.283 J-0.290 F400.000
G2 X355.529 Y54.804 Z-3.420 I0.155 J-0.374 F400.000
G2 X355.091 Y55.467 Z-3.420 I-0.155 J0.374 F400.000
G0 Z5.250
G0 Z5.250
G0 X355.091 Y55.467
G0 X355.371 Y100.773
G0 X355.371 Y100.773 Z3.250
G1 X355.371 Y100.773 Z0.000 F400.000
G2 X355.219 Y101.552 Z0.000 I0.003 J0.405 F400.000
G2 X355.529 Y100.804 Z0.000 I0.155 J-0.374 F400.000
G2 X355.371 Y100.773 Z0.000 I-0.155 J0.374 F400.000
G1 X355.371 Y100.773 Z-0.250 F400.000
G2 X355.219 Y101.552 Z-0.250 I0.003 J0.405 F400.000
G2 X355.529 Y100.804 Z-0.250 I0.155 J-0.374 F400.000
G2 X355.371 Y100.773 Z-0.250 I-0.155 J0.374 F400.000
G1 X355.371 Y100.773 Z-0.500 F400.000
G2 X355.219 Y101.552 Z-0.500 I0.003 J0.405 F400.000
G2 X355.529 Y100.804 Z-0.500 I0.155 J-0.374 F400.000
G2 X355.371 Y100.773 Z-0.500 I-0.155 J0.374 F400.000
G1 X355.371 Y100.773 Z-0.750 F400.000
G2 X355.219 Y101.552 Z-0.750 I0.003 J0.405 F400.000
G2 X355.529 Y100.804 Z-0.750 I0.155 J-0.374 F400.000
G2 X355.371 Y100.773 Z-0.750 I-0.155 J0.374 F400.000
G1 X355.371 Y100.773 Z-1.000 F400.000
G2 X355.219 Y101.552 Z-1.000 I0.003 J0.405 F400.000
G2 X355.529 Y100.804 Z-1.000 I0.155 J-0.374 F400.000
G2 X355.371 Y100.773 Z-1.000 I-0.155 J0.374 F400.000
G1 X355.371 Y100.773 Z-1.250 F400.000
G2 X355.219 Y101.552 Z-1.250 I0.003 J0.405 F400.000
G2 X355.529 Y100.804 Z-1.250 I0.155 J-0.374 F400.000
G2 X355.371 Y100.773 Z-1.250 I-0.155 J0.374 F400.000
G1 X355.371 Y100.773 Z-1.500 F400.000
G2 X355.219 Y101.552 Z-1.500 I0.003 J0.405 F400.000
G2 X355.529 Y100.804 Z-1.500 I0.155 J-0.374 F400.000
G2 X355.371 Y100.773 Z-1.500 I-0.155 J0.374 F400.000
G1 X355.371 Y100.773 Z-1.750 F400.000
G2 X355.219 Y101.552 Z-1.750 I0.003 J0.405 F400.000
G2 X355.529 Y100.804 Z-1.750 I0.155 J-0.374 F400.000
G2 X355.371 Y100.773 Z-1.750 I-0.155 J0.374 F400.000
G1 X355.371 Y100.773 Z-2.000 F400.000
G2 X355.219 Y101.552 Z-2.000 I0.003 J0.405 F400.000
G2 X355.529 Y100.804 Z-2.000 I0.155 J-0.374 F400.000
G2 X355.371 Y100.773 Z-2.000 I-0.155 J0.374 F400.000
G1 X355.371 Y100.773 Z-2.250 F400.000
G2 X355.219 Y101.552 Z-2.250 I0.003 J0.405 F400.000
G2 X355.529 Y100.804 Z-2.250 I0.155 J-0.374 F400.000
G2 X355.371 Y100.773 Z-2.250 I-0.155 J0.374 F400.000
G1 X355.371 Y100.773 Z-2.500 F400.000
G2 X355.219 Y101.552 Z-2.500 I0.003 J0.405 F400.000
G2 X355.529 Y100.804 Z-2.500 I0.155 J-0.374 F400.000
G2 X355.371 Y100.773 Z-2.500 I-0.155 J0.374 F400.000
G1 X355.371 Y100.773 Z-2.750 F400.000
G2 X355.219 Y101.552 Z-2.750 I0.003 J0.405 F400.000
G2 X355.529 Y100.804 Z-2.750 I0.155 J-0.374 F400.000
G2 X355.371 Y100.773 Z-2.750 I-0.155 J0.374 F400.000
G1 X355.371 Y100.773 Z-3.000 F400.000
G2 X355.219 Y101.552 Z-3.000 I0.003 J0.405 F400.000
G2 X355.529 Y100.804 Z-3.000 I0.155 J-0.374 F400.000
G2 X355.371 Y100.773 Z-3.000 I-0.155 J0.374 F400.000
G1 X355.371 Y100.773 Z-3.250 F400.000
G2 X355.219 Y101.552 Z-3.250 I0.003 J0.405 F400.000
G2 X355.529 Y100.804 Z-3.250 I0.155 J-0.374 F400.000
G2 X355.371 Y100.773 Z-3.250 I-0.155 J0.374 F400.000
G1 X355.371 Y100.773 Z-3.420 F400.000
G2 X355.219 Y101.552 Z-3.420 I0.003 J0.405 F400.000
G2 X355.529 Y100.804 Z-3.420 I0.155 J-0.374 F400.000
G2 X355.371 Y100.773 Z-3.420 I-0.155 J0.374 F400.000
G0 Z5.250
G0 Z5.250
G0 X355.371 Y100.773
G0 X349.724 Y106.708
G0 X349.724 Y106.708 Z3.250
G1 X349.724 Y106.708 Z0.000 F400.000
G2 X348.222 Y105.875 Z0.000 I-2.350 J2.470 F400.000
G2 X346.526 Y112.480 Z0.000 I-0.848 J3.302 F400.000
G2 X349.724 Y106.708 Z0.000 I0.848 J-3.302 F400.000
G1 X349.724 Y106.708 Z-0.250 F400.000
G2 X348.222 Y105.875 Z-0.250 I-2.350 J2.470 F400.000
G2 X346.526 Y112.480 Z-0.250 I-0.848 J3.302 F400.000
G2 X349.724 Y106.708 Z-0.250 I0.848 J-3.302 F400.000
G1 X349.724 Y106.708 Z-0.500 F400.000
G2 X348.222 Y105.875 Z-0.500 I-2.350 J2.470 F400.000
G2 X346.526 Y112.480 Z-0.500 I-0.848 J3.302 F400.000
G2 X349.724 Y106.708 Z-0.500 I0.848 J-3.302 F400.000
G1 X349.724 Y106.708 Z-0.750 F400.000
G2 X348.222 Y105.875 Z-0.750 I-2.350 J2.470 F400.000
G2 X346.526 Y112.480 Z-0.750 I-0.848 J3.302 F400.000
G2 X349.724 Y106.708 Z-0.750 I0.848 J-3.302 F400.000
G1 X349.724 Y106.708 Z-1.000 F400.000
G2 X348.222 Y105.875 Z-1.000 I-2.350 J2.470 F400.000
G2 X346.526 Y112.480 Z-1.000 I-0.848 J3.302 F400.000
G2 X349.724 Y106.708 Z-1.000 I0.848 J-3.302 F400.000
G1 X349.724 Y106.708 Z-1.250 F400.000
G2 X348.222 Y105.875 Z-1.250 I-2.350 J2.470 F400.000
G2 X346.526 Y112.480 Z-1.250 I-0.848 J3.302 F400.000
G2 X349.724 Y106.708 Z-1.250 I0.848 J-3.302 F400.000
G1 X349.724 Y106.708 Z-1.500 F400.000
G2 X348.222 Y105.875 Z-1.500 I-2.350 J2.470 F400.000
G2 X346.526 Y112.480 Z-1.500 I-0.848 J3.302 F400.000
G2 X349.724 Y106.708 Z-1.500 I0.848 J-3.302 F400.000
G1 X349.724 Y106.708 Z-1.750 F400.000
G2 X348.222 Y105.875 Z-1.750 I-2.350 J2.470 F400.000
G2 X346.526 Y112.480 Z-1.750 I-0.848 J3.302 F400.000
G2 X349.724 Y106.708 Z-1.750 I0.848 J-3.302 F400.000
G1 X349.724 Y106.708 Z-2.000 F400.000
G2 X348.222 Y105.875 Z-2.000 I-2.350 J2.470 F400.000
G2 X346.526 Y112.480 Z-2.000 I-0.848 J3.302 F400.000
G2 X349.724 Y106.708 Z-2.000 I0.848 J-3.302 F400.000
G1 X349.724 Y106.708 Z-2.250 F400.000
G2 X348.222 Y105.875 Z-2.250 I-2.350 J2.470 F400.000
G2 X346.526 Y112.480 Z-2.250 I-0.848 J3.302 F400.000
G2 X349.724 Y106.708 Z-2.250 I0.848 J-3.302 F400.000
G1 X349.724 Y106.708 Z-2.500 F400.000
G2 X348.222 Y105.875 Z-2.500 I-2.350 J2.470 F400.000
G2 X346.526 Y112.480 Z-2.500 I-0.848 J3.302 F400.000
G2 X349.724 Y106.708 Z-2.500 I0.848 J-3.302 F400.000
G1 X349.724 Y106.708 Z-2.750 F400.000
G2 X348.222 Y105.875 Z-2.750 I-2.350 J2.470 F400.000
G2 X346.526 Y112.480 Z-2.750 I-0.848 J3.302 F400.000
G2 X349.724 Y106.708 Z-2.750 I0.848 J-3.302 F400.000
G1 X349.724 Y106.708 Z-3.000 F400.000
G2 X348.222 Y105.875 Z-3.000 I-2.350 J2.470 F400.000
G2 X346.526 Y112.480 Z-3.000 I-0.848 J3.302 F400.000
G2 X349.724 Y106.708 Z-3.000 I0.848 J-3.302 F400.000
G1 X349.724 Y106.708 Z-3.250 F400.000
G2 X348.222 Y105.875 Z-3.250 I-2.350 J2.470 F400.000
G2 X346.526 Y112.480 Z-3.250 I-0.848 J3.302 F400.000
G2 X349.724 Y106.708 Z-3.250 I0.848 J-3.302 F400.000
G1 X349.724 Y106.708 Z-3.420 F400.000
G2 X348.222 Y105.875 Z-3.420 I-2.350 J2.470 F400.000
G2 X346.526 Y112.480 Z-3.420 I-0.848 J3.302 F400.000
G2 X349.724 Y106.708 Z-3.420 I0.848 J-3.302 F400.000
G0 Z5.250
G0 Z5.250
G0 X349.724 Y106.708
G0 X355.182 Y116.821
G0 X355.182 Y116.821 Z3.250
G1 X355.182 Y116.821 Z0.000 F400.000
G2 X355.219 Y117.552 Z0.000 I0.192 J0.356 F400.000
G2 X355.529 Y116.804 Z0.000 I0.155 J-0.374 F400.000
G2 X355.182 Y116.821 Z0.000 I-0.155 J0.374 F400.000
G1 X355.182 Y116.821 Z-0.250 F400.000
G2 X355.219 Y117.552 Z-0.250 I0.192 J0.356 F400.000
G2 X355.529 Y116.804 Z-0.250 I0.155 J-0.374 F400.000
G2 X355.182 Y116.821 Z-0.250 I-0.155 J0.374 F400.000
G1 X355.182 Y116.821 Z-0.500 F400.000
G2 X355.219 Y117.552 Z-0.500 I0.192 J0.356 F400.000
G2 X355.529 Y116.804 Z-0.500 I0.155 J-0.374 F400.000
G2 X355.182 Y116.821 Z-0.500 I-0.155 J0.374 F400.000
G1 X355.182 Y116.821 Z-0.750 F400.000
G2 X355.219 Y117.552 Z-0.750 I0.192 J0.356 F400.000
G2 X355.529 Y116.804 Z-0.750 I0.155 J-0.374 F400.000
G2 X355.182 Y116.821 Z-0.750 I-0.155 J0.374 F400.000
G1 X355.182 Y116.821 Z-1.000 F400.000
G2 X355.219 Y117.552 Z-1.000 I0.192 J0.356 F400.000
G2 X355.529 Y116.804 Z-1.000 I0.155 J-0.374 F400.000
G2 X355.182 Y116.821 Z-1.000 I-0.155 J0.374 F400.000
G1 X355.182 Y116.821 Z-1.250 F400.000
G2 X355.219 Y117.552 Z-1.250 I0.192 J0.356 F400.000
G2 X355.529 Y116.804 Z-1.250 I0.155 J-0.374 F400.000
G2 X355.182 Y116.821 Z-1.250 I-0.155 J0.374 F400.000
G1 X355.182 Y116.821 Z-1.500 F400.000
G2 X355.219 Y117.552 Z-1.500 I0.192 J0.356 F400.000
G2 X355.529 Y116.804 Z-1.500 I0.155 J-0.374 F400.000
G2 X355.182 Y116.821 Z-1.500 I-0.155 J0.374 F400.000
G1 X355.182 Y116.821 Z-1.750 F400.000
G2 X355.219 Y117.552 Z-1.750 I0.192 J0.356 F400.000
G2 X355.529 Y116.804 Z-1.750 I0.155 J-0.374 F400.000
G2 X355.182 Y116.821 Z-1.750 I-0.155 J0.374 F400.000
G1 X355.182 Y116.821 Z-2.000 F400.000
G2 X355.219 Y117.552 Z-2.000 I0.192 J0.356 F400.000
G2 X355.529 Y116.804 Z-2.000 I0.155 J-0.374 F400.000
G2 X355.182 Y116.821 Z-2.000 I-0.155 J0.374 F400.000
G1 X355.182 Y116.821 Z-2.250 F400.000
G2 X355.219 Y117.552 Z-2.250 I0.192 J0.356 F400.000
G2 X355.529 Y116.804 Z-2.250 I0.155 J-0.374 F400.000
G2 X355.182 Y116.821 Z-2.250 I-0.155 J0.374 F400.000
G1 X355.182 Y116.821 Z-2.500 F400.000
G2 X355.219 Y117.552 Z-2.500 I0.192 J0.356 F400.000
G2 X355.529 Y116.804 Z-2.500 I0.155 J-0.374 F400.000
G2 X355.182 Y116.821 Z-2.500 I-0.155 J0.374 F400.000
G1 X355.182 Y116.821 Z-2.750 F400.000
G2 X355.219 Y117.552 Z-2.750 I0.192 J0.356 F400.000
G2 X355.529 Y116.804 Z-2.750 I0.155 J-0.374 F400.000
G2 X355.182 Y116.821 Z-2.750 I-0.155 J0.374 F400.000
G1 X355.182 Y116.821 Z-3.000 F400.000
G2 X355.219 Y117.552 Z-3.000 I0.192 J0.356 F400.000
G2 X355.529 Y116.804 Z-3.000 I0.155 J-0.374 F400.000
G2 X355.182 Y116.821 Z-3.000 I-0.155 J0.374 F400.000
G1 X355.182 Y116.821 Z-3.250 F400.000
G2 X355.219 Y117.552 Z-3.250 I0.192 J0.356 F400.000
G2 X355.529 Y116.804 Z-3.250 I0.155 J-0.374 F400.000
G2 X355.182 Y116.821 Z-3.250 I-0.155 J0.374 F400.000
G1 X355.182 Y116.821 Z-3.420 F400.000
G2 X355.219 Y117.552 Z-3.420 I0.192 J0.356 F400.000
G2 X355.529 Y116.804 Z-3.420 I0.155 J-0.374 F400.000
G2 X355.182 Y116.821 Z-3.420 I-0.155 J0.374 F400.000
G0 Z5.250
G0 Z5.250
G0 X355.182 Y116.821
G0 X339.779 Y117.168
G0 X339.779 Y117.168 Z3.250
G1 X339.779 Y117.168 Z0.000 F400.000
G2 X339.529 Y116.804 Z0.000 I-0.405 J0.009 F400.000
G2 X339.219 Y117.552 Z0.000 I-0.155 J0.374 F400.000
G2 X339.779 Y117.168 Z0.000 I0.155 J-0.374 F400.000
G1 X339.779 Y117.168 Z-0.250 F400.000
G2 X339.529 Y116.804 Z-0.250 I-0.405 J0.009 F400.000
G2 X339.219 Y117.552 Z-0.250 I-0.155 J0.374 F400.000
G2 X339.779 Y117.168 Z-0.250 I0.155 J-0.374 F400.000
G1 X339.779 Y117.168 Z-0.500 F400.000
G2 X339.529 Y116.804 Z-0.500 I-0.405 J0.009 F400.000
G2 X339.219 Y117.552 Z-0.500 I-0.155 J0.374 F400.000
G2 X339.779 Y117.168 Z-0.500 I0.155 J-0.374 F400.000
G1 X339.779 Y117.168 Z-0.750 F400.000
G2 X339.529 Y116.804 Z-0.750 I-0.405 J0.009 F400.000
G2 X339.219 Y117.552 Z-0.750 I-0.155 J0.374 F400.000
G2 X339.779 Y117.168 Z-0.750 I0.155 J-0.374 F400.000
G1 X339.779 Y117.168 Z-1.000 F400.000
G2 X339.529 Y116.804 Z-1.000 I-0.405 J0.009 F400.000
G2 X339.219 Y117.552 Z-1.000 I-0.155 J0.374 F400.000
G2 X339.779 Y117.168 Z-1.000 I0.155 J-0.374 F400.000
G1 X339.779 Y117.168 Z-1.250 F400.000
G2 X339.529 Y116.804 Z-1.250 I-0.405 J0.009 F400.000
G2 X339.219 Y117.552 Z-1.250 I-0.155 J0.374 F400.000
G2 X339.779 Y117.168 Z-1.250 I0.155 J-0.374 F400.000
G1 X339.779 Y117.168 Z-1.500 F400.000
G2 X339.529 Y116.804 Z-1.500 I-0.405 J0.009 F400.000
G2 X339.219 Y117.552 Z-1.500 I-0.155 J0.374 F400.000
G2 X339.779 Y117.168 Z-1.500 I0.155 J-0.374 F400.000
G1 X339.779 Y117.168 Z-1.750 F400.000
G2 X339.529 Y116.804 Z-1.750 I-0.405 J0.009 F400.000
G2 X339.219 Y117.552 Z-1.750 I-0.155 J0.374 F400.000
G2 X339.779 Y117.168 Z-1.750 I0.155 J-0.374 F400.000
G1 X339.779 Y117.168 Z-2.000 F400.000
G2 X339.529 Y116.804 Z-2.000 I-0.405 J0.009 F400.000
G2 X339.219 Y117.552 Z-2.000 I-0.155 J0.374 F400.000
G2 X339.779 Y117.168 Z-2.000 I0.155 J-0.374 F400.000
G1 X339.779 Y117.168 Z-2.250 F400.000
G2 X339.529 Y116.804 Z-2.250 I-0.405 J0.009 F400.000
G2 X339.219 Y117.552 Z-2.250 I-0.155 J0.374 F400.000
G2 X339.779 Y117.168 Z-2.250 I0.155 J-0.374 F400.000
G1 X339.779 Y117.168 Z-2.500 F400.000
G2 X339.529 Y116.804 Z-2.500 I-0.405 J0.009 F400.000
G2 X339.219 Y117.552 Z-2.500 I-0.155 J0.374 F400.000
G2 X339.779 Y117.168 Z-2.500 I0.155 J-0.374 F400.000
G1 X339.779 Y117.168 Z-2.750 F400.000
G2 X339.529 Y116.804 Z-2.750 I-0.405 J0.009 F400.000
G2 X339.219 Y117.552 Z-2.750 I-0.155 J0.374 F400.000
G2 X339.779 Y117.168 Z-2.750 I0.155 J-0.374 F400.000
G1 X339.779 Y117.168 Z-3.000 F400.000
G2 X339.529 Y116.804 Z-3.000 I-0.405 J0.009 F400.000
G2 X339.219 Y117.552 Z-3.000 I-0.155 J0.374 F400.000
G2 X339.779 Y117.168 Z-3.000 I0.155 J-0.374 F400.000
G1 X339.779 Y117.168 Z-3.250 F400.000
G2 X339.529 Y116.804 Z-3.250 I-0.405 J0.009 F400.000
G2 X339.219 Y117.552 Z-3.250 I-0.155 J0.374 F400.000
G2 X339.779 Y117.168 Z-3.250 I0.155 J-0.374 F400.000
G1 X339.779 Y117.168 Z-3.420 F400.000
G2 X339.529 Y116.804 Z-3.420 I-0.405 J0.009 F400.000
G2 X339.219 Y117.552 Z-3.420 I-0.155 J0.374 F400.000
G2 X339.779 Y117.168 Z-3.420 I0.155 J-0.374 F400.000
G0 Z5.250
G0 Z5.250
G0 X339.779 Y117.168
G0 X339.384 Y101.582
G0 X339.384 Y101.582 Z3.250
G1 X339.384 Y101.582 Z0.000 F400.000
G2 X339.529 Y100.804 Z0.000 I-0.010 J-0.405 F400.000
G2 X339.219 Y101.552 Z0.000 I-0.155 J0.374 F400.000
G2 X339.384 Y101.582 Z0.000 I0.155 J-0.374 F400.000
G1 X339.384 Y101.582 Z-0.250 F400.000
G2 X339.529 Y100.804 Z-0.250 I-0.010 J-0.405 F400.000
G2 X339.219 Y101.552 Z-0.250 I-0.155 J0.374 F400.000
G2 X339.384 Y101.582 Z-0.250 I0.155 J-0.374 F400.000
G1 X339.384 Y101.582 Z-0.500 F400.000
G2 X339.529 Y100.804 Z-0.500 I-0.010 J-0.405 F400.000
G2 X339.219 Y101.552 Z-0.500 I-0.155 J0.374 F400.000
G2 X339.384 Y101.582 Z-0.500 I0.155 J-0.374 F400.000
G1 X339.384 Y101.582 Z-0.750 F400.000
G2 X339.529 Y100.804 Z-0.750 I-0.010 J-0.405 F400.000
G2 X339.219 Y101.552 Z-0.750 I-0.155 J0.374 F400.000
G2 X339.384 Y101.582 Z-0.750 I0.155 J-0.374 F400.000
G1 X339.384 Y101.582 Z-1.000 F400.000
G2 X339.529 Y100.804 Z-1.000 I-0.010 J-0.405 F400.000
G2 X339.219 Y101.552 Z-1.000 I-0.155 J0.374 F400.000
G2 X339.384 Y101.582 Z-1.000 I0.155 J-0.374 F400.000
G1 X339.384 Y101.582 Z-1.250 F400.000
G2 X339.529 Y100.804 Z-1.250 I-0.010 J-0.405 F400.000
G2 X339.219 Y101.552 Z-1.250 I-0.155 J0.374 F400.000
G2 X339.384 Y101.582 Z-1.250 I0.155 J-0.374 F400.000
G1 X339.384 Y101.582 Z-1.500 F400.000
G2 X339.529 Y100.804 Z-1.500 I-0.010 J-0.405 F400.000
G2 X339.219 Y101.552 Z-1.500 I-0.155 J0.374 F400.000
G2 X339.384 Y101.582 Z-1.500 I0.155 J-0.374 F400.000
G1 X339.384 Y101.582 Z-1.750 F400.000
G2 X339.529 Y100.804 Z-1.750 I-0.010 J-0.405 F400.000
G2 X339.219 Y101.552 Z-1.750 I-0.155 J0.374 F400.000
G2 X339.384 Y101.582 Z-1.750 I0.155 J-0.374 F400.000
G1 X339.384 Y101.582 Z-2.000 F400.000
G2 X339.529 Y100.804 Z-2.000 I-0.010 J-0.405 F400.000
G2 X339.219 Y101.552 Z-2.000 I-0.155 J0.374 F400.000
G2 X339.384 Y101.582 Z-2.000 I0.155 J-0.374 F400.000
G1 X339.384 Y101.582 Z-2.250 F400.000
G2 X339.529 Y100.804 Z-2.250 I-0.010 J-0.405 F400.000
G2 X339.219 Y101.552 Z-2.250 I-0.155 J0.374 F400.000
G2 X339.384 Y101.582 Z-2.250 I0.155 J-0.374 F400.000
G1 X339.384 Y101.582 Z-2.500 F400.000
G2 X339.529 Y100.804 Z-2.500 I-0.010 J-0.405 F400.000
G2 X339.219 Y101.552 Z-2.500 I-0.155 J0.374 F400.000
G2 X339.384 Y101.582 Z-2.500 I0.155 J-0.374 F400.000
G1 X339.384 Y101.582 Z-2.750 F400.000
G2 X339.529 Y100.804 Z-2.750 I-0.010 J-0.405 F400.000
G2 X339.219 Y101.552 Z-2.750 I-0.155 J0.374 F400.000
G2 X339.384 Y101.582 Z-2.750 I0.155 J-0.374 F400.000
G1 X339.384 Y101.582 Z-3.000 F400.000
G2 X339.529 Y100.804 Z-3.000 I-0.010 J-0.405 F400.000
G2 X339.219 Y101.552 Z-3.000 I-0.155 J0.374 F400.000
G2 X339.384 Y101.582 Z-3.000 I0.155 J-0.374 F400.000
G1 X339.384 Y101.582 Z-3.250 F400.000
G2 X339.529 Y100.804 Z-3.250 I-0.010 J-0.405 F400.000
G2 X339.219 Y101.552 Z-3.250 I-0.155 J0.374 F400.000
G2 X339.384 Y101.582 Z-3.250 I0.155 J-0.374 F400.000
G1 X339.384 Y101.582 Z-3.420 F400.000
G2 X339.529 Y100.804 Z-3.420 I-0.010 J-0.405 F400.000
G2 X339.219 Y101.552 Z-3.420 I-0.155 J0.374 F400.000
G2 X339.384 Y101.582 Z-3.420 I0.155 J-0.374 F400.000
G0 Z5.250
G0 Z5.250
G0 X339.384 Y101.582
G0 X323.740 Y109.004
G0 X323.740 Y109.004 Z3.250
G1 X323.740 Y109.004 Z0.000 F400.000
G2 X323.529 Y108.804 Z0.000 I-0.366 J0.174 F400.000
G2 X323.219 Y109.552 Z0.000 I-0.155 J0.374 F400.000
G2 X323.740 Y109.004 Z0.000 I0.155 J-0.374 F400.000
G1 X323.740 Y109.004 Z-0.250 F400.000
G2 X323.529 Y108.804 Z-0.250 I-0.366 J0.174 F400.000
G2 X323.219 Y109.552 Z-0.250 I-0.155 J0.374 F400.000
G2 X323.740 Y109.004 Z-0.250 I0.155 J-0.374 F400.000
G1 X323.740 Y109.004 Z-0.500 F400.000
G2 X323.529 Y108.804 Z-0.500 I-0.366 J0.174 F400.000
G2 X323.219 Y109.552 Z-0.500 I-0.155 J0.374 F400.000
G2 X323.740 Y109.004 Z-0.500 I0.155 J-0.374 F400.000
G1 X323.740 Y109.004 Z-0.750 F400.000
G2 X323.529 Y108.804 Z-0.750 I-0.366 J0.174 F400.000
G2 X323.219 Y109.552 Z-0.750 I-0.155 J0.374 F400.000
G2 X323.740 Y109.004 Z-0.750 I0.155 J-0.374 F400.000
G1 X323.740 Y109.004 Z-1.000 F400.000
G2 X323.529 Y108.804 Z-1.000 I-0.366 J0.174 F400.000
G2 X323.219 Y109.552 Z-1.000 I-0.155 J0.374 F400.000
G2 X323.740 Y109.004 Z-1.000 I0.155 J-0.374 F400.000
G1 X323.740 Y109.004 Z-1.250 F400.000
G2 X323.529 Y108.804 Z-1.250 I-0.366 J0.174 F400.000
G2 X323.219 Y109.552 Z-1.250 I-0.155 J0.374 F400.000
G2 X323.740 Y109.004 Z-1.250 I0.155 J-0.374 F400.000
G1 X323.740 Y109.004 Z-1.500 F400.000
G2 X323.529 Y108.804 Z-1.500 I-0.366 J0.174 F400.000
G2 X323.219 Y109.552 Z-1.500 I-0.155 J0.374 F400.000
G2 X323.740 Y109.004 Z-1.500 I0.155 J-0.374 F400.000
G1 X323.740 Y109.004 Z-1.750 F400.000
G2 X323.529 Y108.804 Z-1.750 I-0.366 J0.174 F400.000
G2 X323.219 Y109.552 Z-1.750 I-0.155 J0.374 F400.000
G2 X323.740 Y109.004 Z-1.750 I0.155 J-0.374 F400.000
G1 X323.740 Y109.004 Z-2.000 F400.000
G2 X323.529 Y108.804 Z-2.000 I-0.366 J0.174 F400.000
G2 X323.219 Y109.552 Z-2.000 I-0.155 J0.374 F400.000
G2 X323.740 Y109.004 Z-2.000 I0.155 J-0.374 F400.000
G1 X323.740 Y109.004 Z-2.250 F400.000
G2 X323.529 Y108.804 Z-2.250 I-0.366 J0.174 F400.000
G2 X323.219 Y109.552 Z-2.250 I-0.155 J0.374 F400.000
G2 X323.740 Y109.004 Z-2.250 I0.155 J-0.374 F400.000
G1 X323.740 Y109.004 Z-2.500 F400.000
G2 X323.529 Y108.804 Z-2.500 I-0.366 J0.174 F400.000
G2 X323.219 Y109.552 Z-2.500 I-0.155 J0.374 F400.000
G2 X323.740 Y109.004 Z-2.500 I0.155 J-0.374 F400.000
G1 X323.740 Y109.004 Z-2.750 F400.000
G2 X323.529 Y108.804 Z-2.750 I-0.366 J0.174 F400.000
G2 X323.219 Y109.552 Z-2.750 I-0.155 J0.374 F400.000
G2 X323.740 Y109.004 Z-2.750 I0.155 J-0.374 F400.000
G1 X323.740 Y109.004 Z-3.000 F400.000
G2 X323.529 Y108.804 Z-3.000 I-0.366 J0.174 F400.000
G2 X323.219 Y109.552 Z-3.000 I-0.155 J0.374 F400.000
G2 X323.740 Y109.004 Z-3.000 I0.155 J-0.374 F400.000
G1 X323.740 Y109.004 Z-3.250 F400.000
G2 X323.529 Y108.804 Z-3.250 I-0.366 J0.174 F400.000
G2 X323.219 Y109.552 Z-3.250 I-0.155 J0.374 F400.000
G2 X323.740 Y109.004 Z-3.250 I0.155 J-0.374 F400.000
G1 X323.740 Y109.004 Z-3.420 F400.000
G2 X323.529 Y108.804 Z-3.420 I-0.366 J0.174 F400.000
G2 X323.219 Y109.552 Z-3.420 I-0.155 J0.374 F400.000
G2 X323.740 Y109.004 Z-3.420 I0.155 J-0.374 F400.000
G0 Z5.250
G0 Z5.250
(finish operation: Profile012)
(begin operation: Profile013)
(machine: not set, mm/min)
(Profile013)
(Compensated Tool Path. Diameter: 3.175)
G0 Z5.250
G0 X370.774 Y130.824
G0 Z3.250
G1 X370.774 Y130.824 Z0.000 F400.000
G2 X372.959 Y126.017 Z0.000 I-4.385 J-4.894 F400.000
G1 X372.961 Y46.430 Z0.000 F400.000
G2 X368.940 Y40.365 Z0.000 I-6.591 J0.005 F400.000
G2 X361.421 Y39.091 Z0.000 I-7.470 J21.266 F400.000
G1 X339.374 Y39.090 Z0.000 F400.000
G2 X331.880 Y40.340 Z0.000 I-0.089 J22.565 F400.000
G2 X327.789 Y46.338 Z0.000 I2.479 J6.086 F400.000
G1 X327.786 Y53.129 Z0.000 F400.000
G3 X324.326 Y56.590 Z0.000 I-3.420 J0.041 F400.000
G1 X315.374 Y56.590 Z0.000 F400.000
G2 X313.786 Y58.178 Z0.000 I-0.000 J1.587 F400.000
G1 X313.786 Y68.178 Z0.000 F400.000
G2 X315.374 Y69.765 Z0.000 I1.588 J-0.000 F400.000
G1 X324.326 Y69.765 Z0.000 F400.000
G3 X327.786 Y73.226 Z0.000 I0.040 J3.420 F400.000
G1 X327.786 Y99.130 Z0.000 F400.000
G3 X324.326 Y102.590 Z0.000 I-3.420 J0.040 F400.000
G1 X315.374 Y102.590 Z0.000 F400.000
G2 X313.786 Y104.178 Z0.000 I-0.000 J1.587 F400.000
G1 X313.786 Y114.178 Z0.000 F400.000
G2 X315.374 Y115.765 Z0.000 I1.587 J0.000 F400.000
G1 X324.326 Y115.765 Z0.000 F400.000
G3 X327.786 Y119.226 Z0.000 I0.040 J3.420 F400.000
G1 X327.786 Y125.926 Z0.000 F400.000
G2 X331.808 Y131.991 Z0.000 I6.591 J-0.005 F400.000
G2 X339.327 Y133.264 Z0.000 I7.470 J-21.266 F400.000
G1 X361.374 Y133.265 Z0.000 F400.000
G2 X368.867 Y132.016 Z0.000 I0.089 J-22.565 F400.000
G2 X370.774 Y130.824 Z0.000 I-2.479 J-6.086 F400.000
G1 X370.774 Y130.824 Z-0.250 F400.000
G2 X372.959 Y126.017 Z-0.250 I-4.385 J-4.894 F400.000
G1 X372.961 Y46.430 Z-0.250 F400.000
G2 X368.940 Y40.365 Z-0.250 I-6.591 J0.005 F400.000
G2 X361.421 Y39.091 Z-0.250 I-7.470 J21.266 F400.000
G1 X339.374 Y39.090 Z-0.250 F400.000
G2 X331.880 Y40.340 Z-0.250 I-0.089 J22.565 F400.000
G2 X327.789 Y46.338 Z-0.250 I2.479 J6.086 F400.000
G1 X327.786 Y53.129 Z-0.250 F400.000
G3 X324.326 Y56.590 Z-0.250 I-3.420 J0.041 F400.000
G1 X315.374 Y56.590 Z-0.250 F400.000
G2 X313.786 Y58.178 Z-0.250 I-0.000 J1.587 F400.000
G1 X313.786 Y68.178 Z-0.250 F400.000
G2 X315.374 Y69.765 Z-0.250 I1.588 J-0.000 F400.000
G1 X324.326 Y69.765 Z-0.250 F400.000
G3 X327.786 Y73.226 Z-0.250 I0.040 J3.420 F400.000
G1 X327.786 Y99.130 Z-0.250 F400.000
G3 X324.326 Y102.590 Z-0.250 I-3.420 J0.040 F400.000
G1 X315.374 Y102.590 Z-0.250 F400.000
G2 X313.786 Y104.178 Z-0.250 I-0.000 J1.587 F400.000
G1 X313.786 Y114.178 Z-0.250 F400.000
G2 X315.374 Y115.765 Z-0.250 I1.587 J0.000 F400.000
G1 X324.326 Y115.765 Z-0.250 F400.000
G3 X327.786 Y119.226 Z-0.250 I0.040 J3.420 F400.000
G1 X327.786 Y125.926 Z-0.250 F400.000
G2 X331.808 Y131.991 Z-0.250 I6.591 J-0.005 F400.000
G2 X339.327 Y133.264 Z-0.250 I7.470 J-21.266 F400.000
G1 X361.374 Y133.265 Z-0.250 F400.000
G2 X368.867 Y132.016 Z-0.250 I0.089 J-22.565 F400.000
G2 X370.774 Y130.824 Z-0.250 I-2.479 J-6.086 F400.000
G1 X370.774 Y130.824 Z-0.500 F400.000
G2 X372.959 Y126.017 Z-0.500 I-4.385 J-4.894 F400.000
G1 X372.961 Y46.430 Z-0.500 F400.000
G2 X368.940 Y40.365 Z-0.500 I-6.591 J0.005 F400.000
G2 X361.421 Y39.091 Z-0.500 I-7.470 J21.266 F400.000
G1 X339.374 Y39.090 Z-0.500 F400.000
G2 X331.880 Y40.340 Z-0.500 I-0.089 J22.565 F400.000
G2 X327.789 Y46.338 Z-0.500 I2.479 J6.086 F400.000
G1 X327.786 Y53.129 Z-0.500 F400.000
G3 X324.326 Y56.590 Z-0.500 I-3.420 J0.041 F400.000
G1 X315.374 Y56.590 Z-0.500 F400.000
G2 X313.786 Y58.178 Z-0.500 I-0.000 J1.587 F400.000
G1 X313.786 Y68.178 Z-0.500 F400.000
G2 X315.374 Y69.765 Z-0.500 I1.588 J-0.000 F400.000
G1 X324.326 Y69.765 Z-0.500 F400.000
G3 X327.786 Y73.226 Z-0.500 I0.040 J3.420 F400.000
G1 X327.786 Y99.130 Z-0.500 F400.000
G3 X324.326 Y102.590 Z-0.500 I-3.420 J0.040 F400.000
G1 X315.374 Y102.590 Z-0.500 F400.000
G2 X313.786 Y104.178 Z-0.500 I-0.000 J1.587 F400.000
G1 X313.786 Y114.178 Z-0.500 F400.000
G2 X315.374 Y115.765 Z-0.500 I1.587 J0.000 F400.000
G1 X324.326 Y115.765 Z-0.500 F400.000
G3 X327.786 Y119.226 Z-0.500 I0.040 J3.420 F400.000
G1 X327.786 Y125.926 Z-0.500 F400.000
G2 X331.808 Y131.991 Z-0.500 I6.591 J-0.005 F400.000
G2 X339.327 Y133.264 Z-0.500 I7.470 J-21.266 F400.000
G1 X361.374 Y133.265 Z-0.500 F400.000
G2 X368.867 Y132.016 Z-0.500 I0.089 J-22.565 F400.000
G2 X370.774 Y130.824 Z-0.500 I-2.479 J-6.086 F400.000
G1 X370.774 Y130.824 Z-0.750 F400.000
G2 X372.959 Y126.017 Z-0.750 I-4.385 J-4.894 F400.000
G1 X372.961 Y46.430 Z-0.750 F400.000
G2 X368.940 Y40.365 Z-0.750 I-6.591 J0.005 F400.000
G2 X361.421 Y39.091 Z-0.750 I-7.470 J21.266 F400.000
G1 X339.374 Y39.090 Z-0.750 F400.000
G2 X331.880 Y40.340 Z-0.750 I-0.089 J22.565 F400.000
G2 X327.789 Y46.338 Z-0.750 I2.479 J6.086 F400.000
G1 X327.786 Y53.129 Z-0.750 F400.000
G3 X324.326 Y56.590 Z-0.750 I-3.420 J0.041 F400.000
G1 X315.374 Y56.590 Z-0.750 F400.000
G2 X313.786 Y58.178 Z-0.750 I-0.000 J1.587 F400.000
G1 X313.786 Y68.178 Z-0.750 F400.000
G2 X315.374 Y69.765 Z-0.750 I1.588 J-0.000 F400.000
G1 X324.326 Y69.765 Z-0.750 F400.000
G3 X327.786 Y73.226 Z-0.750 I0.040 J3.420 F400.000
G1 X327.786 Y99.130 Z-0.750 F400.000
G3 X324.326 Y102.590 Z-0.750 I-3.420 J0.040 F400.000
G1 X315.374 Y102.590 Z-0.750 F400.000
G2 X313.786 Y104.178 Z-0.750 I-0.000 J1.587 F400.000
G1 X313.786 Y114.178 Z-0.750 F400.000
G2 X315.374 Y115.765 Z-0.750 I1.587 J0.000 F400.000
G1 X324.326 Y115.765 Z-0.750 F400.000
G3 X327.786 Y119.226 Z-0.750 I0.040 J3.420 F400.000
G1 X327.786 Y125.926 Z-0.750 F400.000
G2 X331.808 Y131.991 Z-0.750 I6.591 J-0.005 F400.000
G2 X339.327 Y133.264 Z-0.750 I7.470 J-21.266 F400.000
G1 X361.374 Y133.265 Z-0.750 F400.000
G2 X368.867 Y132.016 Z-0.750 I0.089 J-22.565 F400.000
G2 X370.774 Y130.824 Z-0.750 I-2.479 J-6.086 F400.000
G1 X370.774 Y130.824 Z-1.000 F400.000
G2 X372.959 Y126.017 Z-1.000 I-4.385 J-4.894 F400.000
G1 X372.961 Y46.430 Z-1.000 F400.000
G2 X368.940 Y40.365 Z-1.000 I-6.591 J0.005 F400.000
G2 X361.421 Y39.091 Z-1.000 I-7.470 J21.266 F400.000
G1 X339.374 Y39.090 Z-1.000 F400.000
G2 X331.880 Y40.340 Z-1.000 I-0.089 J22.565 F400.000
G2 X327.789 Y46.338 Z-1.000 I2.479 J6.086 F400.000
G1 X327.786 Y53.129 Z-1.000 F400.000
G3 X324.326 Y56.590 Z-1.000 I-3.420 J0.041 F400.000
G1 X315.374 Y56.590 Z-1.000 F400.000
G2 X313.786 Y58.178 Z-1.000 I-0.000 J1.587 F400.000
G1 X313.786 Y68.178 Z-1.000 F400.000
G2 X315.374 Y69.765 Z-1.000 I1.588 J-0.000 F400.000
G1 X324.326 Y69.765 Z-1.000 F400.000
G3 X327.786 Y73.226 Z-1.000 I0.040 J3.420 F400.000
G1 X327.786 Y99.130 Z-1.000 F400.000
G3 X324.326 Y102.590 Z-1.000 I-3.420 J0.040 F400.000
G1 X315.374 Y102.590 Z-1.000 F400.000
G2 X313.786 Y104.178 Z-1.000 I-0.000 J1.587 F400.000
G1 X313.786 Y114.178 Z-1.000 F400.000
G2 X315.374 Y115.765 Z-1.000 I1.587 J0.000 F400.000
G1 X324.326 Y115.765 Z-1.000 F400.000
G3 X327.786 Y119.226 Z-1.000 I0.040 J3.420 F400.000
G1 X327.786 Y125.926 Z-1.000 F400.000
G2 X331.808 Y131.991 Z-1.000 I6.591 J-0.005 F400.000
G2 X339.327 Y133.264 Z-1.000 I7.470 J-21.266 F400.000
G1 X361.374 Y133.265 Z-1.000 F400.000
G2 X368.867 Y132.016 Z-1.000 I0.089 J-22.565 F400.000
G2 X370.774 Y130.824 Z-1.000 I-2.479 J-6.086 F400.000
G1 X370.774 Y130.824 Z-1.250 F400.000
G2 X372.959 Y126.017 Z-1.250 I-4.385 J-4.894 F400.000
G1 X372.961 Y46.430 Z-1.250 F400.000
G2 X368.940 Y40.365 Z-1.250 I-6.591 J0.005 F400.000
G2 X361.421 Y39.091 Z-1.250 I-7.470 J21.266 F400.000
G1 X339.374 Y39.090 Z-1.250 F400.000
G2 X331.880 Y40.340 Z-1.250 I-0.089 J22.565 F400.000
G2 X327.789 Y46.338 Z-1.250 I2.479 J6.086 F400.000
G1 X327.786 Y53.129 Z-1.250 F400.000
G3 X324.326 Y56.590 Z-1.250 I-3.420 J0.041 F400.000
G1 X315.374 Y56.590 Z-1.250 F400.000
G2 X313.786 Y58.178 Z-1.250 I-0.000 J1.587 F400.000
G1 X313.786 Y68.178 Z-1.250 F400.000
G2 X315.374 Y69.765 Z-1.250 I1.588 J-0.000 F400.000
G1 X324.326 Y69.765 Z-1.250 F400.000
G3 X327.786 Y73.226 Z-1.250 I0.040 J3.420 F400.000
G1 X327.786 Y99.130 Z-1.250 F400.000
G3 X324.326 Y102.590 Z-1.250 I-3.420 J0.040 F400.000
G1 X315.374 Y102.590 Z-1.250 F400.000
G2 X313.786 Y104.178 Z-1.250 I-0.000 J1.587 F400.000
G1 X313.786 Y114.178 Z-1.250 F400.000
G2 X315.374 Y115.765 Z-1.250 I1.587 J0.000 F400.000
G1 X324.326 Y115.765 Z-1.250 F400.000
G3 X327.786 Y119.226 Z-1.250 I0.040 J3.420 F400.000
G1 X327.786 Y125.926 Z-1.250 F400.000
G2 X331.808 Y131.991 Z-1.250 I6.591 J-0.005 F400.000
G2 X339.327 Y133.264 Z-1.250 I7.470 J-21.266 F400.000
G1 X361.374 Y133.265 Z-1.250 F400.000
G2 X368.867 Y132.016 Z-1.250 I0.089 J-22.565 F400.000
G2 X370.774 Y130.824 Z-1.250 I-2.479 J-6.086 F400.000
G1 X370.774 Y130.824 Z-1.500 F400.000
G2 X372.959 Y126.017 Z-1.500 I-4.385 J-4.894 F400.000
G1 X372.961 Y46.430 Z-1.500 F400.000
G2 X368.940 Y40.365 Z-1.500 I-6.591 J0.005 F400.000
G2 X361.421 Y39.091 Z-1.500 I-7.470 J21.266 F400.000
G1 X339.374 Y39.090 Z-1.500 F400.000
G2 X331.880 Y40.340 Z-1.500 I-0.089 J22.565 F400.000
G2 X327.789 Y46.338 Z-1.500 I2.479 J6.086 F400.000
G1 X327.786 Y53.129 Z-1.500 F400.000
G3 X324.326 Y56.590 Z-1.500 I-3.420 J0.041 F400.000
G1 X315.374 Y56.590 Z-1.500 F400.000
G2 X313.786 Y58.178 Z-1.500 I-0.000 J1.587 F400.000
G1 X313.786 Y68.178 Z-1.500 F400.000
G2 X315.374 Y69.765 Z-1.500 I1.588 J-0.000 F400.000
G1 X324.326 Y69.765 Z-1.500 F400.000
G3 X327.786 Y73.226 Z-1.500 I0.040 J3.420 F400.000
G1 X327.786 Y99.130 Z-1.500 F400.000
G3 X324.326 Y102.590 Z-1.500 I-3.420 J0.040 F400.000
G1 X315.374 Y102.590 Z-1.500 F400.000
G2 X313.786 Y104.178 Z-1.500 I-0.000 J1.587 F400.000
G1 X313.786 Y114.178 Z-1.500 F400.000
G2 X315.374 Y115.765 Z-1.500 I1.587 J0.000 F400.000
G1 X324.326 Y115.765 Z-1.500 F400.000
G3 X327.786 Y119.226 Z-1.500 I0.040 J3.420 F400.000
G1 X327.786 Y125.926 Z-1.500 F400.000
G2 X331.808 Y131.991 Z-1.500 I6.591 J-0.005 F400.000
G2 X339.327 Y133.264 Z-1.500 I7.470 J-21.266 F400.000
G1 X361.374 Y133.265 Z-1.500 F400.000
G2 X368.867 Y132.016 Z-1.500 I0.089 J-22.565 F400.000
G2 X370.774 Y130.824 Z-1.500 I-2.479 J-6.086 F400.000
G1 X370.774 Y130.824 Z-1.750 F400.000
G2 X372.959 Y126.017 Z-1.750 I-4.385 J-4.894 F400.000
G1 X372.961 Y46.430 Z-1.750 F400.000
G2 X368.940 Y40.365 Z-1.750 I-6.591 J0.005 F400.000
G2 X361.421 Y39.091 Z-1.750 I-7.470 J21.266 F400.000
G1 X339.374 Y39.090 Z-1.750 F400.000
G2 X331.880 Y40.340 Z-1.750 I-0.089 J22.565 F400.000
G2 X327.789 Y46.338 Z-1.750 I2.479 J6.086 F400.000
G1 X327.786 Y53.129 Z-1.750 F400.000
G3 X324.326 Y56.590 Z-1.750 I-3.420 J0.041 F400.000
G1 X315.374 Y56.590 Z-1.750 F400.000
G2 X313.786 Y58.178 Z-1.750 I-0.000 J1.587 F400.000
G1 X313.786 Y68.178 Z-1.750 F400.000
G2 X315.374 Y69.765 Z-1.750 I1.588 J-0.000 F400.000
G1 X324.326 Y69.765 Z-1.750 F400.000
G3 X327.786 Y73.226 Z-1.750 I0.040 J3.420 F400.000
G1 X327.786 Y99.130 Z-1.750 F400.000
G3 X324.326 Y102.590 Z-1.750 I-3.420 J0.040 F400.000
G1 X315.374 Y102.590 Z-1.750 F400.000
G2 X313.786 Y104.178 Z-1.750 I-0.000 J1.587 F400.000
G1 X313.786 Y114.178 Z-1.750 F400.000
G2 X315.374 Y115.765 Z-1.750 I1.587 J0.000 F400.000
G1 X324.326 Y115.765 Z-1.750 F400.000
G3 X327.786 Y119.226 Z-1.750 I0.040 J3.420 F400.000
G1 X327.786 Y125.926 Z-1.750 F400.000
G2 X331.808 Y131.991 Z-1.750 I6.591 J-0.005 F400.000
G2 X339.327 Y133.264 Z-1.750 I7.470 J-21.266 F400.000
G1 X361.374 Y133.265 Z-1.750 F400.000
G2 X368.867 Y132.016 Z-1.750 I0.089 J-22.565 F400.000
G2 X370.774 Y130.824 Z-1.750 I-2.479 J-6.086 F400.000
G1 X370.774 Y130.824 Z-2.000 F400.000
G2 X372.959 Y126.017 Z-2.000 I-4.385 J-4.894 F400.000
G1 X372.961 Y46.430 Z-2.000 F400.000
G2 X368.940 Y40.365 Z-2.000 I-6.591 J0.005 F400.000
G2 X361.421 Y39.091 Z-2.000 I-7.470 J21.266 F400.000
G1 X339.374 Y39.090 Z-2.000 F400.000
G2 X331.880 Y40.340 Z-2.000 I-0.089 J22.565 F400.000
G2 X327.789 Y46.338 Z-2.000 I2.479 J6.086 F400.000
G1 X327.786 Y53.129 Z-2.000 F400.000
G3 X324.326 Y56.590 Z-2.000 I-3.420 J0.041 F400.000
G1 X315.374 Y56.590 Z-2.000 F400.000
G2 X313.786 Y58.178 Z-2.000 I-0.000 J1.587 F400.000
G1 X313.786 Y68.178 Z-2.000 F400.000
G2 X315.374 Y69.765 Z-2.000 I1.588 J-0.000 F400.000
G1 X324.326 Y69.765 Z-2.000 F400.000
G3 X327.786 Y73.226 Z-2.000 I0.040 J3.420 F400.000
G1 X327.786 Y99.130 Z-2.000 F400.000
G3 X324.326 Y102.590 Z-2.000 I-3.420 J0.040 F400.000
G1 X315.374 Y102.590 Z-2.000 F400.000
G2 X313.786 Y104.178 Z-2.000 I-0.000 J1.587 F400.000
G1 X313.786 Y114.178 Z-2.000 F400.000
G2 X315.374 Y115.765 Z-2.000 I1.587 J0.000 F400.000
G1 X324.326 Y115.765 Z-2.000 F400.000
G3 X327.786 Y119.226 Z-2.000 I0.040 J3.420 F400.000
G1 X327.786 Y125.926 Z-2.000 F400.000
G2 X331.808 Y131.991 Z-2.000 I6.591 J-0.005 F400.000
G2 X339.327 Y133.264 Z-2.000 I7.470 J-21.266 F400.000
G1 X361.374 Y133.265 Z-2.000 F400.000
G2 X368.867 Y132.016 Z-2.000 I0.089 J-22.565 F400.000
G2 X370.774 Y130.824 Z-2.000 I-2.479 J-6.086 F400.000
G1 X370.774 Y130.824 Z-2.250 F400.000
G2 X372.959 Y126.017 Z-2.250 I-4.385 J-4.894 F400.000
G1 X372.961 Y46.430 Z-2.250 F400.000
G2 X368.940 Y40.365 Z-2.250 I-6.591 J0.005 F400.000
G2 X361.421 Y39.091 Z-2.250 I-7.470 J21.266 F400.000
G1 X339.374 Y39.090 Z-2.250 F400.000
G2 X331.880 Y40.340 Z-2.250 I-0.089 J22.565 F400.000
G2 X327.789 Y46.338 Z-2.250 I2.479 J6.086 F400.000
G1 X327.786 Y53.129 Z-2.250 F400.000
G3 X324.326 Y56.590 Z-2.250 I-3.420 J0.041 F400.000
G1 X315.374 Y56.590 Z-2.250 F400.000
G2 X313.786 Y58.178 Z-2.250 I-0.000 J1.587 F400.000
G1 X313.786 Y68.178 Z-2.250 F400.000
G2 X315.374 Y69.765 Z-2.250 I1.588 J-0.000 F400.000
G1 X324.326 Y69.765 Z-2.250 F400.000
G3 X327.786 Y73.226 Z-2.250 I0.040 J3.420 F400.000
G1 X327.786 Y99.130 Z-2.250 F400.000
G3 X324.326 Y102.590 Z-2.250 I-3.420 J0.040 F400.000
G1 X315.374 Y102.590 Z-2.250 F400.000
G2 X313.786 Y104.178 Z-2.250 I-0.000 J1.587 F400.000
G1 X313.786 Y114.178 Z-2.250 F400.000
G2 X315.374 Y115.765 Z-2.250 I1.587 J0.000 F400.000
G1 X324.326 Y115.765 Z-2.250 F400.000
G3 X327.786 Y119.226 Z-2.250 I0.040 J3.420 F400.000
G1 X327.786 Y125.926 Z-2.250 F400.000
G2 X331.808 Y131.991 Z-2.250 I6.591 J-0.005 F400.000
G2 X339.327 Y133.264 Z-2.250 I7.470 J-21.266 F400.000
G1 X361.374 Y133.265 Z-2.250 F400.000
G2 X368.867 Y132.016 Z-2.250 I0.089 J-22.565 F400.000
G2 X370.774 Y130.824 Z-2.250 I-2.479 J-6.086 F400.000
G1 X370.774 Y130.824 Z-2.500 F400.000
G2 X372.959 Y126.017 Z-2.500 I-4.385 J-4.894 F400.000
G1 X372.961 Y46.430 Z-2.500 F400.000
G2 X368.940 Y40.365 Z-2.500 I-6.591 J0.005 F400.000
G2 X361.421 Y39.091 Z-2.500 I-7.470 J21.266 F400.000
G1 X339.374 Y39.090 Z-2.500 F400.000
G2 X331.880 Y40.340 Z-2.500 I-0.089 J22.565 F400.000
G2 X327.789 Y46.338 Z-2.500 I2.479 J6.086 F400.000
G1 X327.786 Y53.129 Z-2.500 F400.000
G3 X324.326 Y56.590 Z-2.500 I-3.420 J0.041 F400.000
G1 X315.374 Y56.590 Z-2.500 F400.000
G2 X313.786 Y58.178 Z-2.500 I-0.000 J1.587 F400.000
G1 X313.786 Y68.178 Z-2.500 F400.000
G2 X315.374 Y69.765 Z-2.500 I1.588 J-0.000 F400.000
G1 X324.326 Y69.765 Z-2.500 F400.000
G3 X327.786 Y73.226 Z-2.500 I0.040 J3.420 F400.000
G1 X327.786 Y99.130 Z-2.500 F400.000
G3 X324.326 Y102.590 Z-2.500 I-3.420 J0.040 F400.000
G1 X315.374 Y102.590 Z-2.500 F400.000
G2 X313.786 Y104.178 Z-2.500 I-0.000 J1.587 F400.000
G1 X313.786 Y114.178 Z-2.500 F400.000
G2 X315.374 Y115.765 Z-2.500 I1.587 J0.000 F400.000
G1 X324.326 Y115.765 Z-2.500 F400.000
G3 X327.786 Y119.226 Z-2.500 I0.040 J3.420 F400.000
G1 X327.786 Y125.926 Z-2.500 F400.000
G2 X331.808 Y131.991 Z-2.500 I6.591 J-0.005 F400.000
G2 X339.327 Y133.264 Z-2.500 I7.470 J-21.266 F400.000
G1 X361.374 Y133.265 Z-2.500 F400.000
G2 X368.867 Y132.016 Z-2.500 I0.089 J-22.565 F400.000
G2 X370.774 Y130.824 Z-2.500 I-2.479 J-6.086 F400.000
G1 X370.774 Y130.824 Z-2.750 F400.000
G2 X372.959 Y126.017 Z-2.750 I-4.385 J-4.894 F400.000
G1 X372.961 Y46.430 Z-2.750 F400.000
G2 X368.940 Y40.365 Z-2.750 I-6.591 J0.005 F400.000
G2 X361.421 Y39.091 Z-2.750 I-7.470 J21.266 F400.000
G1 X339.374 Y39.090 Z-2.750 F400.000
G2 X331.880 Y40.340 Z-2.750 I-0.089 J22.565 F400.000
G2 X327.789 Y46.338 Z-2.750 I2.479 J6.086 F400.000
G1 X327.786 Y53.129 Z-2.750 F400.000
G3 X324.326 Y56.590 Z-2.750 I-3.420 J0.041 F400.000
G1 X315.374 Y56.590 Z-2.750 F400.000
G2 X313.786 Y58.178 Z-2.750 I-0.000 J1.587 F400.000
G1 X313.786 Y68.178 Z-2.750 F400.000
G2 X315.374 Y69.765 Z-2.750 I1.588 J-0.000 F400.000
G1 X324.326 Y69.765 Z-2.750 F400.000
G3 X327.786 Y73.226 Z-2.750 I0.040 J3.420 F400.000
G1 X327.786 Y99.130 Z-2.750 F400.000
G3 X324.326 Y102.590 Z-2.750 I-3.420 J0.040 F400.000
G1 X315.374 Y102.590 Z-2.750 F400.000
G2 X313.786 Y104.178 Z-2.750 I-0.000 J1.587 F400.000
G1 X313.786 Y114.178 Z-2.750 F400.000
G2 X315.374 Y115.765 Z-2.750 I1.587 J0.000 F400.000
G1 X324.326 Y115.765 Z-2.750 F400.000
G3 X327.786 Y119.226 Z-2.750 I0.040 J3.420 F400.000
G1 X327.786 Y125.926 Z-2.750 F400.000
G2 X331.808 Y131.991 Z-2.750 I6.591 J-0.005 F400.000
G2 X339.327 Y133.264 Z-2.750 I7.470 J-21.266 F400.000
G1 X361.374 Y133.265 Z-2.750 F400.000
G2 X368.867 Y132.016 Z-2.750 I0.089 J-22.565 F400.000
G2 X370.774 Y130.824 Z-2.750 I-2.479 J-6.086 F400.000
G1 X370.774 Y130.824 Z-3.000 F400.000
G2 X372.959 Y126.017 Z-3.000 I-4.385 J-4.894 F400.000
G1 X372.961 Y46.430 Z-3.000 F400.000
G2 X368.940 Y40.365 Z-3.000 I-6.591 J0.005 F400.000
G2 X361.421 Y39.091 Z-3.000 I-7.470 J21.266 F400.000
G1 X339.374 Y39.090 Z-3.000 F400.000
G2 X331.880 Y40.340 Z-3.000 I-0.089 J22.565 F400.000
G2 X327.789 Y46.338 Z-3.000 I2.479 J6.086 F400.000
G1 X327.786 Y53.129 Z-3.000 F400.000
G3 X324.326 Y56.590 Z-3.000 I-3.420 J0.041 F400.000
G1 X315.374 Y56.590 Z-3.000 F400.000
G2 X313.786 Y58.178 Z-3.000 I-0.000 J1.587 F400.000
G1 X313.786 Y68.178 Z-3.000 F400.000
G2 X315.374 Y69.765 Z-3.000 I1.588 J-0.000 F400.000
G1 X324.326 Y69.765 Z-3.000 F400.000
G3 X327.786 Y73.226 Z-3.000 I0.040 J3.420 F400.000
G1 X327.786 Y99.130 Z-3.000 F400.000
G3 X324.326 Y102.590 Z-3.000 I-3.420 J0.040 F400.000
G1 X315.374 Y102.590 Z-3.000 F400.000
G2 X313.786 Y104.178 Z-3.000 I-0.000 J1.587 F400.000
G1 X313.786 Y114.178 Z-3.000 F400.000
G2 X315.374 Y115.765 Z-3.000 I1.587 J0.000 F400.000
G1 X324.326 Y115.765 Z-3.000 F400.000
G3 X327.786 Y119.226 Z-3.000 I0.040 J3.420 F400.000
G1 X327.786 Y125.926 Z-3.000 F400.000
G2 X331.808 Y131.991 Z-3.000 I6.591 J-0.005 F400.000
G2 X339.327 Y133.264 Z-3.000 I7.470 J-21.266 F400.000
G1 X361.374 Y133.265 Z-3.000 F400.000
G2 X368.867 Y132.016 Z-3.000 I0.089 J-22.565 F400.000
G2 X370.774 Y130.824 Z-3.000 I-2.479 J-6.086 F400.000
G1 X370.774 Y130.824 Z-3.250 F400.000
G2 X372.959 Y126.017 Z-3.250 I-4.385 J-4.894 F400.000
G1 X372.961 Y46.430 Z-3.250 F400.000
G2 X368.940 Y40.365 Z-3.250 I-6.591 J0.005 F400.000
G2 X361.421 Y39.091 Z-3.250 I-7.470 J21.266 F400.000
G1 X339.374 Y39.090 Z-3.250 F400.000
G2 X331.880 Y40.340 Z-3.250 I-0.089 J22.565 F400.000
G2 X327.789 Y46.338 Z-3.250 I2.479 J6.086 F400.000
G1 X327.786 Y53.129 Z-3.250 F400.000
G3 X324.326 Y56.590 Z-3.250 I-3.420 J0.041 F400.000
G1 X315.374 Y56.590 Z-3.250 F400.000
G2 X313.786 Y58.178 Z-3.250 I-0.000 J1.587 F400.000
G1 X313.786 Y68.178 Z-3.250 F400.000
G2 X315.374 Y69.765 Z-3.250 I1.588 J-0.000 F400.000
G1 X324.326 Y69.765 Z-3.250 F400.000
G3 X327.786 Y73.226 Z-3.250 I0.040 J3.420 F400.000
G1 X327.786 Y99.130 Z-3.250 F400.000
G3 X324.326 Y102.590 Z-3.250 I-3.420 J0.040 F400.000
G1 X315.374 Y102.590 Z-3.250 F400.000
G2 X313.786 Y104.178 Z-3.250 I-0.000 J1.587 F400.000
G1 X313.786 Y114.178 Z-3.250 F400.000
G2 X315.374 Y115.765 Z-3.250 I1.587 J0.000 F400.000
G1 X324.326 Y115.765 Z-3.250 F400.000
G3 X327.786 Y119.226 Z-3.250 I0.040 J3.420 F400.000
G1 X327.786 Y125.926 Z-3.250 F400.000
G2 X331.808 Y131.991 Z-3.250 I6.591 J-0.005 F400.000
G2 X339.327 Y133.264 Z-3.250 I7.470 J-21.266 F400.000
G1 X361.374 Y133.265 Z-3.250 F400.000
G2 X368.867 Y132.016 Z-3.250 I0.089 J-22.565 F400.000
G2 X370.774 Y130.824 Z-3.250 I-2.479 J-6.086 F400.000
G1 X370.774 Y130.824 Z-3.420 F400.000
G2 X372.959 Y126.017 Z-3.420 I-4.385 J-4.894 F400.000
G1 X372.961 Y46.430 Z-3.420 F400.000
G2 X368.940 Y40.365 Z-3.420 I-6.591 J0.005 F400.000
G2 X361.421 Y39.091 Z-3.420 I-7.470 J21.266 F400.000
G1 X339.374 Y39.090 Z-3.420 F400.000
G2 X331.880 Y40.340 Z-3.420 I-0.089 J22.565 F400.000
G2 X327.789 Y46.338 Z-3.420 I2.479 J6.086 F400.000
G1 X327.786 Y53.129 Z-3.420 F400.000
G3 X324.326 Y56.590 Z-3.420 I-3.420 J0.041 F400.000
G1 X315.374 Y56.590 Z-3.420 F400.000
G2 X313.786 Y58.178 Z-3.420 I-0.000 J1.587 F400.000
G1 X313.786 Y68.178 Z-3.420 F400.000
G2 X315.374 Y69.765 Z-3.420 I1.588 J-0.000 F400.000
G1 X324.326 Y69.765 Z-3.420 F400.000
G3 X327.786 Y73.226 Z-3.420 I0.040 J3.420 F400.000
G1 X327.786 Y99.130 Z-3.420 F400.000
G3 X324.326 Y102.590 Z-3.420 I-3.420 J0.040 F400.000
G1 X315.374 Y102.590 Z-3.420 F400.000
G2 X313.786 Y104.178 Z-3.420 I-0.000 J1.587 F400.000
G1 X313.786 Y114.178 Z-3.420 F400.000
G2 X315.374 Y115.765 Z-3.420 I1.587 J0.000 F400.000
G1 X324.326 Y115.765 Z-3.420 F400.000
G3 X327.786 Y119.226 Z-3.420 I0.040 J3.420 F400.000
G1 X327.786 Y125.926 Z-3.420 F400.000
G2 X331.808 Y131.991 Z-3.420 I6.591 J-0.005 F400.000
G2 X339.327 Y133.264 Z-3.420 I7.470 J-21.266 F400.000
G1 X361.374 Y133.265 Z-3.420 F400.000
G2 X368.867 Y132.016 Z-3.420 I0.089 J-22.565 F400.000
G2 X370.774 Y130.824 Z-3.420 I-2.479 J-6.086 F400.000
G0 Z5.250
G0 Z5.250
(finish operation: Profile013)
(begin postamble)
M05 M09
G17 G90 G80 G40
M30
