(Exported by FreeCAD)
(Post Processor: script_module)
(Output Time:2024-11-25 16:15:20.508677)
(begin preamble)
%
G17 G21 G40 G49 G80 G90
M08
G21
(begin operation: Fixture)
(machine: not set, mm/min)
G54
(finish operation: Fixture)
(begin operation: 1/8in Endmill007)
(machine: not set, mm/min)
(1/8in Endmill007)
M05
M09M6 T1
M3 S15000
(finish operation: 1/8in Endmill007)
(begin operation: Profile006)
(machine: not set, mm/min)
(Profile006)
(Compensated Tool Path. Diameter: 3.175)
G0 Z5.250
G0 X108.786 Y169.207
G0 Z3.250
G1 X108.786 Y169.207 Z0.000 F400.000
G2 X108.655 Y168.547 Z0.000 I-0.286 J-0.286 F400.000
G2 X108.345 Y169.295 Z0.000 I-0.155 J0.374 F400.000
G2 X108.786 Y169.207 Z0.000 I0.155 J-0.374 F400.000
G1 X108.786 Y169.207 Z-0.250 F400.000
G2 X108.655 Y168.547 Z-0.250 I-0.286 J-0.286 F400.000
G2 X108.345 Y169.295 Z-0.250 I-0.155 J0.374 F400.000
G2 X108.786 Y169.207 Z-0.250 I0.155 J-0.374 F400.000
G1 X108.786 Y169.207 Z-0.500 F400.000
G2 X108.655 Y168.547 Z-0.500 I-0.286 J-0.286 F400.000
G2 X108.345 Y169.295 Z-0.500 I-0.155 J0.374 F400.000
G2 X108.786 Y169.207 Z-0.500 I0.155 J-0.374 F400.000
G1 X108.786 Y169.207 Z-0.750 F400.000
G2 X108.655 Y168.547 Z-0.750 I-0.286 J-0.286 F400.000
G2 X108.345 Y169.295 Z-0.750 I-0.155 J0.374 F400.000
G2 X108.786 Y169.207 Z-0.750 I0.155 J-0.374 F400.000
G1 X108.786 Y169.207 Z-1.000 F400.000
G2 X108.655 Y168.547 Z-1.000 I-0.286 J-0.286 F400.000
G2 X108.345 Y169.295 Z-1.000 I-0.155 J0.374 F400.000
G2 X108.786 Y169.207 Z-1.000 I0.155 J-0.374 F400.000
G1 X108.786 Y169.207 Z-1.250 F400.000
G2 X108.655 Y168.547 Z-1.250 I-0.286 J-0.286 F400.000
G2 X108.345 Y169.295 Z-1.250 I-0.155 J0.374 F400.000
G2 X108.786 Y169.207 Z-1.250 I0.155 J-0.374 F400.000
G1 X108.786 Y169.207 Z-1.500 F400.000
G2 X108.655 Y168.547 Z-1.500 I-0.286 J-0.286 F400.000
G2 X108.345 Y169.295 Z-1.500 I-0.155 J0.374 F400.000
G2 X108.786 Y169.207 Z-1.500 I0.155 J-0.374 F400.000
G1 X108.786 Y169.207 Z-1.750 F400.000
G2 X108.655 Y168.547 Z-1.750 I-0.286 J-0.286 F400.000
G2 X108.345 Y169.295 Z-1.750 I-0.155 J0.374 F400.000
G2 X108.786 Y169.207 Z-1.750 I0.155 J-0.374 F400.000
G1 X108.786 Y169.207 Z-2.000 F400.000
G2 X108.655 Y168.547 Z-2.000 I-0.286 J-0.286 F400.000
G2 X108.345 Y169.295 Z-2.000 I-0.155 J0.374 F400.000
G2 X108.786 Y169.207 Z-2.000 I0.155 J-0.374 F400.000
G1 X108.786 Y169.207 Z-2.250 F400.000
G2 X108.655 Y168.547 Z-2.250 I-0.286 J-0.286 F400.000
G2 X108.345 Y169.295 Z-2.250 I-0.155 J0.374 F400.000
G2 X108.786 Y169.207 Z-2.250 I0.155 J-0.374 F400.000
G1 X108.786 Y169.207 Z-2.500 F400.000
G2 X108.655 Y168.547 Z-2.500 I-0.286 J-0.286 F400.000
G2 X108.345 Y169.295 Z-2.500 I-0.155 J0.374 F400.000
G2 X108.786 Y169.207 Z-2.500 I0.155 J-0.374 F400.000
G1 X108.786 Y169.207 Z-2.750 F400.000
G2 X108.655 Y168.547 Z-2.750 I-0.286 J-0.286 F400.000
G2 X108.345 Y169.295 Z-2.750 I-0.155 J0.374 F400.000
G2 X108.786 Y169.207 Z-2.750 I0.155 J-0.374 F400.000
G1 X108.786 Y169.207 Z-3.000 F400.000
G2 X108.655 Y168.547 Z-3.000 I-0.286 J-0.286 F400.000
G2 X108.345 Y169.295 Z-3.000 I-0.155 J0.374 F400.000
G2 X108.786 Y169.207 Z-3.000 I0.155 J-0.374 F400.000
G1 X108.786 Y169.207 Z-3.250 F400.000
G2 X108.655 Y168.547 Z-3.250 I-0.286 J-0.286 F400.000
G2 X108.345 Y169.295 Z-3.250 I-0.155 J0.374 F400.000
G2 X108.786 Y169.207 Z-3.250 I0.155 J-0.374 F400.000
G1 X108.786 Y169.207 Z-3.420 F400.000
G2 X108.655 Y168.547 Z-3.420 I-0.286 J-0.286 F400.000
G2 X108.345 Y169.295 Z-3.420 I-0.155 J0.374 F400.000
G2 X108.786 Y169.207 Z-3.420 I0.155 J-0.374 F400.000
G0 Z5.250
G0 Z5.250
G0 X108.786 Y169.207
G0 X58.649 Y198.715
G0 X58.649 Y198.715 Z3.250
G1 X58.649 Y198.715 Z0.000 F400.000
G2 X58.455 Y198.547 Z0.000 I-0.349 J0.205 F400.000
G2 X58.145 Y199.295 Z0.000 I-0.155 J0.374 F400.000
G2 X58.649 Y198.715 Z0.000 I0.155 J-0.374 F400.000
G1 X58.649 Y198.715 Z-0.250 F400.000
G2 X58.455 Y198.547 Z-0.250 I-0.349 J0.205 F400.000
G2 X58.145 Y199.295 Z-0.250 I-0.155 J0.374 F400.000
G2 X58.649 Y198.715 Z-0.250 I0.155 J-0.374 F400.000
G1 X58.649 Y198.715 Z-0.500 F400.000
G2 X58.455 Y198.547 Z-0.500 I-0.349 J0.205 F400.000
G2 X58.145 Y199.295 Z-0.500 I-0.155 J0.374 F400.000
G2 X58.649 Y198.715 Z-0.500 I0.155 J-0.374 F400.000
G1 X58.649 Y198.715 Z-0.750 F400.000
G2 X58.455 Y198.547 Z-0.750 I-0.349 J0.205 F400.000
G2 X58.145 Y199.295 Z-0.750 I-0.155 J0.374 F400.000
G2 X58.649 Y198.715 Z-0.750 I0.155 J-0.374 F400.000
G1 X58.649 Y198.715 Z-1.000 F400.000
G2 X58.455 Y198.547 Z-1.000 I-0.349 J0.205 F400.000
G2 X58.145 Y199.295 Z-1.000 I-0.155 J0.374 F400.000
G2 X58.649 Y198.715 Z-1.000 I0.155 J-0.374 F400.000
G1 X58.649 Y198.715 Z-1.250 F400.000
G2 X58.455 Y198.547 Z-1.250 I-0.349 J0.205 F400.000
G2 X58.145 Y199.295 Z-1.250 I-0.155 J0.374 F400.000
G2 X58.649 Y198.715 Z-1.250 I0.155 J-0.374 F400.000
G1 X58.649 Y198.715 Z-1.500 F400.000
G2 X58.455 Y198.547 Z-1.500 I-0.349 J0.205 F400.000
G2 X58.145 Y199.295 Z-1.500 I-0.155 J0.374 F400.000
G2 X58.649 Y198.715 Z-1.500 I0.155 J-0.374 F400.000
G1 X58.649 Y198.715 Z-1.750 F400.000
G2 X58.455 Y198.547 Z-1.750 I-0.349 J0.205 F400.000
G2 X58.145 Y199.295 Z-1.750 I-0.155 J0.374 F400.000
G2 X58.649 Y198.715 Z-1.750 I0.155 J-0.374 F400.000
G1 X58.649 Y198.715 Z-2.000 F400.000
G2 X58.455 Y198.547 Z-2.000 I-0.349 J0.205 F400.000
G2 X58.145 Y199.295 Z-2.000 I-0.155 J0.374 F400.000
G2 X58.649 Y198.715 Z-2.000 I0.155 J-0.374 F400.000
G1 X58.649 Y198.715 Z-2.250 F400.000
G2 X58.455 Y198.547 Z-2.250 I-0.349 J0.205 F400.000
G2 X58.145 Y199.295 Z-2.250 I-0.155 J0.374 F400.000
G2 X58.649 Y198.715 Z-2.250 I0.155 J-0.374 F400.000
G1 X58.649 Y198.715 Z-2.500 F400.000
G2 X58.455 Y198.547 Z-2.500 I-0.349 J0.205 F400.000
G2 X58.145 Y199.295 Z-2.500 I-0.155 J0.374 F400.000
G2 X58.649 Y198.715 Z-2.500 I0.155 J-0.374 F400.000
G1 X58.649 Y198.715 Z-2.750 F400.000
G2 X58.455 Y198.547 Z-2.750 I-0.349 J0.205 F400.000
G2 X58.145 Y199.295 Z-2.750 I-0.155 J0.374 F400.000
G2 X58.649 Y198.715 Z-2.750 I0.155 J-0.374 F400.000
G1 X58.649 Y198.715 Z-3.000 F400.000
G2 X58.455 Y198.547 Z-3.000 I-0.349 J0.205 F400.000
G2 X58.145 Y199.295 Z-3.000 I-0.155 J0.374 F400.000
G2 X58.649 Y198.715 Z-3.000 I0.155 J-0.374 F400.000
G1 X58.649 Y198.715 Z-3.250 F400.000
G2 X58.455 Y198.547 Z-3.250 I-0.349 J0.205 F400.000
G2 X58.145 Y199.295 Z-3.250 I-0.155 J0.374 F400.000
G2 X58.649 Y198.715 Z-3.250 I0.155 J-0.374 F400.000
G1 X58.649 Y198.715 Z-3.420 F400.000
G2 X58.455 Y198.547 Z-3.420 I-0.349 J0.205 F400.000
G2 X58.145 Y199.295 Z-3.420 I-0.155 J0.374 F400.000
G2 X58.649 Y198.715 Z-3.420 I0.155 J-0.374 F400.000
G0 Z5.250
G0 Z5.250
G0 X58.649 Y198.715
G0 X12.762 Y252.612
G0 X12.762 Y252.612 Z3.250
G1 X12.762 Y252.612 Z0.000 F400.000
G2 X12.655 Y252.547 Z0.000 I-0.262 J0.308 F400.000
G2 X12.345 Y253.295 Z0.000 I-0.155 J0.374 F400.000
G2 X12.762 Y252.612 Z0.000 I0.155 J-0.374 F400.000
G1 X12.762 Y252.612 Z-0.250 F400.000
G2 X12.655 Y252.547 Z-0.250 I-0.262 J0.308 F400.000
G2 X12.345 Y253.295 Z-0.250 I-0.155 J0.374 F400.000
G2 X12.762 Y252.612 Z-0.250 I0.155 J-0.374 F400.000
G1 X12.762 Y252.612 Z-0.500 F400.000
G2 X12.655 Y252.547 Z-0.500 I-0.262 J0.308 F400.000
G2 X12.345 Y253.295 Z-0.500 I-0.155 J0.374 F400.000
G2 X12.762 Y252.612 Z-0.500 I0.155 J-0.374 F400.000
G1 X12.762 Y252.612 Z-0.750 F400.000
G2 X12.655 Y252.547 Z-0.750 I-0.262 J0.308 F400.000
G2 X12.345 Y253.295 Z-0.750 I-0.155 J0.374 F400.000
G2 X12.762 Y252.612 Z-0.750 I0.155 J-0.374 F400.000
G1 X12.762 Y252.612 Z-1.000 F400.000
G2 X12.655 Y252.547 Z-1.000 I-0.262 J0.308 F400.000
G2 X12.345 Y253.295 Z-1.000 I-0.155 J0.374 F400.000
G2 X12.762 Y252.612 Z-1.000 I0.155 J-0.374 F400.000
G1 X12.762 Y252.612 Z-1.250 F400.000
G2 X12.655 Y252.547 Z-1.250 I-0.262 J0.308 F400.000
G2 X12.345 Y253.295 Z-1.250 I-0.155 J0.374 F400.000
G2 X12.762 Y252.612 Z-1.250 I0.155 J-0.374 F400.000
G1 X12.762 Y252.612 Z-1.500 F400.000
G2 X12.655 Y252.547 Z-1.500 I-0.262 J0.308 F400.000
G2 X12.345 Y253.295 Z-1.500 I-0.155 J0.374 F400.000
G2 X12.762 Y252.612 Z-1.500 I0.155 J-0.374 F400.000
G1 X12.762 Y252.612 Z-1.750 F400.000
G2 X12.655 Y252.547 Z-1.750 I-0.262 J0.308 F400.000
G2 X12.345 Y253.295 Z-1.750 I-0.155 J0.374 F400.000
G2 X12.762 Y252.612 Z-1.750 I0.155 J-0.374 F400.000
G1 X12.762 Y252.612 Z-2.000 F400.000
G2 X12.655 Y252.547 Z-2.000 I-0.262 J0.308 F400.000
G2 X12.345 Y253.295 Z-2.000 I-0.155 J0.374 F400.000
G2 X12.762 Y252.612 Z-2.000 I0.155 J-0.374 F400.000
G1 X12.762 Y252.612 Z-2.250 F400.000
G2 X12.655 Y252.547 Z-2.250 I-0.262 J0.308 F400.000
G2 X12.345 Y253.295 Z-2.250 I-0.155 J0.374 F400.000
G2 X12.762 Y252.612 Z-2.250 I0.155 J-0.374 F400.000
G1 X12.762 Y252.612 Z-2.500 F400.000
G2 X12.655 Y252.547 Z-2.500 I-0.262 J0.308 F400.000
G2 X12.345 Y253.295 Z-2.500 I-0.155 J0.374 F400.000
G2 X12.762 Y252.612 Z-2.500 I0.155 J-0.374 F400.000
G1 X12.762 Y252.612 Z-2.750 F400.000
G2 X12.655 Y252.547 Z-2.750 I-0.262 J0.308 F400.000
G2 X12.345 Y253.295 Z-2.750 I-0.155 J0.374 F400.000
G2 X12.762 Y252.612 Z-2.750 I0.155 J-0.374 F400.000
G1 X12.762 Y252.612 Z-3.000 F400.000
G2 X12.655 Y252.547 Z-3.000 I-0.262 J0.308 F400.000
G2 X12.345 Y253.295 Z-3.000 I-0.155 J0.374 F400.000
G2 X12.762 Y252.612 Z-3.000 I0.155 J-0.374 F400.000
G1 X12.762 Y252.612 Z-3.250 F400.000
G2 X12.655 Y252.547 Z-3.250 I-0.262 J0.308 F400.000
G2 X12.345 Y253.295 Z-3.250 I-0.155 J0.374 F400.000
G2 X12.762 Y252.612 Z-3.250 I0.155 J-0.374 F400.000
G1 X12.762 Y252.612 Z-3.420 F400.000
G2 X12.655 Y252.547 Z-3.420 I-0.262 J0.308 F400.000
G2 X12.345 Y253.295 Z-3.420 I-0.155 J0.374 F400.000
G2 X12.762 Y252.612 Z-3.420 I0.155 J-0.374 F400.000
G0 Z5.250
G0 Z5.250
G0 X12.762 Y252.612
G0 X108.095 Y252.919
G0 X108.095 Y252.919 Z3.250
G1 X108.095 Y252.919 Z0.000 F400.000
G2 X108.345 Y253.295 Z0.000 I0.405 J0.001 F400.000
G2 X108.874 Y253.076 Z0.000 I0.155 J-0.374 F400.000
G2 X108.655 Y252.547 Z0.000 I-0.374 J-0.155 F400.000
G2 X108.095 Y252.919 Z0.000 I-0.155 J0.374 F400.000
G1 X108.095 Y252.919 Z-0.250 F400.000
G2 X108.345 Y253.295 Z-0.250 I0.405 J0.001 F400.000
G2 X108.874 Y253.076 Z-0.250 I0.155 J-0.374 F400.000
G2 X108.655 Y252.547 Z-0.250 I-0.374 J-0.155 F400.000
G2 X108.095 Y252.919 Z-0.250 I-0.155 J0.374 F400.000
G1 X108.095 Y252.919 Z-0.500 F400.000
G2 X108.345 Y253.295 Z-0.500 I0.405 J0.001 F400.000
G2 X108.874 Y253.076 Z-0.500 I0.155 J-0.374 F400.000
G2 X108.655 Y252.547 Z-0.500 I-0.374 J-0.155 F400.000
G2 X108.095 Y252.919 Z-0.500 I-0.155 J0.374 F400.000
G1 X108.095 Y252.919 Z-0.750 F400.000
G2 X108.345 Y253.295 Z-0.750 I0.405 J0.001 F400.000
G2 X108.874 Y253.076 Z-0.750 I0.155 J-0.374 F400.000
G2 X108.655 Y252.547 Z-0.750 I-0.374 J-0.155 F400.000
G2 X108.095 Y252.919 Z-0.750 I-0.155 J0.374 F400.000
G1 X108.095 Y252.919 Z-1.000 F400.000
G2 X108.345 Y253.295 Z-1.000 I0.405 J0.001 F400.000
G2 X108.874 Y253.076 Z-1.000 I0.155 J-0.374 F400.000
G2 X108.655 Y252.547 Z-1.000 I-0.374 J-0.155 F400.000
G2 X108.095 Y252.919 Z-1.000 I-0.155 J0.374 F400.000
G1 X108.095 Y252.919 Z-1.250 F400.000
G2 X108.345 Y253.295 Z-1.250 I0.405 J0.001 F400.000
G2 X108.874 Y253.076 Z-1.250 I0.155 J-0.374 F400.000
G2 X108.655 Y252.547 Z-1.250 I-0.374 J-0.155 F400.000
G2 X108.095 Y252.919 Z-1.250 I-0.155 J0.374 F400.000
G1 X108.095 Y252.919 Z-1.500 F400.000
G2 X108.345 Y253.295 Z-1.500 I0.405 J0.001 F400.000
G2 X108.874 Y253.076 Z-1.500 I0.155 J-0.374 F400.000
G2 X108.655 Y252.547 Z-1.500 I-0.374 J-0.155 F400.000
G2 X108.095 Y252.919 Z-1.500 I-0.155 J0.374 F400.000
G1 X108.095 Y252.919 Z-1.750 F400.000
G2 X108.345 Y253.295 Z-1.750 I0.405 J0.001 F400.000
G2 X108.874 Y253.076 Z-1.750 I0.155 J-0.374 F400.000
G2 X108.655 Y252.547 Z-1.750 I-0.374 J-0.155 F400.000
G2 X108.095 Y252.919 Z-1.750 I-0.155 J0.374 F400.000
G1 X108.095 Y252.919 Z-2.000 F400.000
G2 X108.345 Y253.295 Z-2.000 I0.405 J0.001 F400.000
G2 X108.874 Y253.076 Z-2.000 I0.155 J-0.374 F400.000
G2 X108.655 Y252.547 Z-2.000 I-0.374 J-0.155 F400.000
G2 X108.095 Y252.919 Z-2.000 I-0.155 J0.374 F400.000
G1 X108.095 Y252.919 Z-2.250 F400.000
G2 X108.345 Y253.295 Z-2.250 I0.405 J0.001 F400.000
G2 X108.874 Y253.076 Z-2.250 I0.155 J-0.374 F400.000
G2 X108.655 Y252.547 Z-2.250 I-0.374 J-0.155 F400.000
G2 X108.095 Y252.919 Z-2.250 I-0.155 J0.374 F400.000
G1 X108.095 Y252.919 Z-2.500 F400.000
G2 X108.345 Y253.295 Z-2.500 I0.405 J0.001 F400.000
G2 X108.874 Y253.076 Z-2.500 I0.155 J-0.374 F400.000
G2 X108.655 Y252.547 Z-2.500 I-0.374 J-0.155 F400.000
G2 X108.095 Y252.919 Z-2.500 I-0.155 J0.374 F400.000
G1 X108.095 Y252.919 Z-2.750 F400.000
G2 X108.345 Y253.295 Z-2.750 I0.405 J0.001 F400.000
G2 X108.874 Y253.076 Z-2.750 I0.155 J-0.374 F400.000
G2 X108.655 Y252.547 Z-2.750 I-0.374 J-0.155 F400.000
G2 X108.095 Y252.919 Z-2.750 I-0.155 J0.374 F400.000
G1 X108.095 Y252.919 Z-3.000 F400.000
G2 X108.345 Y253.295 Z-3.000 I0.405 J0.001 F400.000
G2 X108.874 Y253.076 Z-3.000 I0.155 J-0.374 F400.000
G2 X108.655 Y252.547 Z-3.000 I-0.374 J-0.155 F400.000
G2 X108.095 Y252.919 Z-3.000 I-0.155 J0.374 F400.000
G1 X108.095 Y252.919 Z-3.250 F400.000
G2 X108.345 Y253.295 Z-3.250 I0.405 J0.001 F400.000
G2 X108.874 Y253.076 Z-3.250 I0.155 J-0.374 F400.000
G2 X108.655 Y252.547 Z-3.250 I-0.374 J-0.155 F400.000
G2 X108.095 Y252.919 Z-3.250 I-0.155 J0.374 F400.000
G1 X108.095 Y252.919 Z-3.420 F400.000
G2 X108.345 Y253.295 Z-3.420 I0.405 J0.001 F400.000
G2 X108.874 Y253.076 Z-3.420 I0.155 J-0.374 F400.000
G2 X108.655 Y252.547 Z-3.420 I-0.374 J-0.155 F400.000
G2 X108.095 Y252.919 Z-3.420 I-0.155 J0.374 F400.000
G0 Z5.250
G0 Z5.250
G0 X108.095 Y252.919
G0 X227.101 Y231.991
G0 X227.101 Y231.991 Z3.250
G1 X227.101 Y231.991 Z0.000 F400.000
G2 X227.345 Y232.295 Z0.000 I0.399 J-0.070 F400.000
G2 X227.655 Y231.547 Z0.000 I0.155 J-0.374 F400.000
G2 X227.101 Y231.991 Z0.000 I-0.155 J0.374 F400.000
G1 X227.101 Y231.991 Z-0.250 F400.000
G2 X227.345 Y232.295 Z-0.250 I0.399 J-0.070 F400.000
G2 X227.655 Y231.547 Z-0.250 I0.155 J-0.374 F400.000
G2 X227.101 Y231.991 Z-0.250 I-0.155 J0.374 F400.000
G1 X227.101 Y231.991 Z-0.500 F400.000
G2 X227.345 Y232.295 Z-0.500 I0.399 J-0.070 F400.000
G2 X227.655 Y231.547 Z-0.500 I0.155 J-0.374 F400.000
G2 X227.101 Y231.991 Z-0.500 I-0.155 J0.374 F400.000
G1 X227.101 Y231.991 Z-0.750 F400.000
G2 X227.345 Y232.295 Z-0.750 I0.399 J-0.070 F400.000
G2 X227.655 Y231.547 Z-0.750 I0.155 J-0.374 F400.000
G2 X227.101 Y231.991 Z-0.750 I-0.155 J0.374 F400.000
G1 X227.101 Y231.991 Z-1.000 F400.000
G2 X227.345 Y232.295 Z-1.000 I0.399 J-0.070 F400.000
G2 X227.655 Y231.547 Z-1.000 I0.155 J-0.374 F400.000
G2 X227.101 Y231.991 Z-1.000 I-0.155 J0.374 F400.000
G1 X227.101 Y231.991 Z-1.250 F400.000
G2 X227.345 Y232.295 Z-1.250 I0.399 J-0.070 F400.000
G2 X227.655 Y231.547 Z-1.250 I0.155 J-0.374 F400.000
G2 X227.101 Y231.991 Z-1.250 I-0.155 J0.374 F400.000
G1 X227.101 Y231.991 Z-1.500 F400.000
G2 X227.345 Y232.295 Z-1.500 I0.399 J-0.070 F400.000
G2 X227.655 Y231.547 Z-1.500 I0.155 J-0.374 F400.000
G2 X227.101 Y231.991 Z-1.500 I-0.155 J0.374 F400.000
G1 X227.101 Y231.991 Z-1.750 F400.000
G2 X227.345 Y232.295 Z-1.750 I0.399 J-0.070 F400.000
G2 X227.655 Y231.547 Z-1.750 I0.155 J-0.374 F400.000
G2 X227.101 Y231.991 Z-1.750 I-0.155 J0.374 F400.000
G1 X227.101 Y231.991 Z-2.000 F400.000
G2 X227.345 Y232.295 Z-2.000 I0.399 J-0.070 F400.000
G2 X227.655 Y231.547 Z-2.000 I0.155 J-0.374 F400.000
G2 X227.101 Y231.991 Z-2.000 I-0.155 J0.374 F400.000
G1 X227.101 Y231.991 Z-2.250 F400.000
G2 X227.345 Y232.295 Z-2.250 I0.399 J-0.070 F400.000
G2 X227.655 Y231.547 Z-2.250 I0.155 J-0.374 F400.000
G2 X227.101 Y231.991 Z-2.250 I-0.155 J0.374 F400.000
G1 X227.101 Y231.991 Z-2.500 F400.000
G2 X227.345 Y232.295 Z-2.500 I0.399 J-0.070 F400.000
G2 X227.655 Y231.547 Z-2.500 I0.155 J-0.374 F400.000
G2 X227.101 Y231.991 Z-2.500 I-0.155 J0.374 F400.000
G1 X227.101 Y231.991 Z-2.750 F400.000
G2 X227.345 Y232.295 Z-2.750 I0.399 J-0.070 F400.000
G2 X227.655 Y231.547 Z-2.750 I0.155 J-0.374 F400.000
G2 X227.101 Y231.991 Z-2.750 I-0.155 J0.374 F400.000
G1 X227.101 Y231.991 Z-3.000 F400.000
G2 X227.345 Y232.295 Z-3.000 I0.399 J-0.070 F400.000
G2 X227.655 Y231.547 Z-3.000 I0.155 J-0.374 F400.000
G2 X227.101 Y231.991 Z-3.000 I-0.155 J0.374 F400.000
G1 X227.101 Y231.991 Z-3.250 F400.000
G2 X227.345 Y232.295 Z-3.250 I0.399 J-0.070 F400.000
G2 X227.655 Y231.547 Z-3.250 I0.155 J-0.374 F400.000
G2 X227.101 Y231.991 Z-3.250 I-0.155 J0.374 F400.000
G1 X227.101 Y231.991 Z-3.420 F400.000
G2 X227.345 Y232.295 Z-3.420 I0.399 J-0.070 F400.000
G2 X227.655 Y231.547 Z-3.420 I0.155 J-0.374 F400.000
G2 X227.101 Y231.991 Z-3.420 I-0.155 J0.374 F400.000
G0 Z5.250
G0 Z5.250
G0 X227.101 Y231.991
G0 X254.415 Y231.932
G0 X254.415 Y231.932 Z3.250
G1 X254.415 Y231.932 Z0.000 F400.000
G2 X260.195 Y237.318 Z0.000 I5.410 J-0.012 F400.000
G2 X259.688 Y226.512 Z0.000 I-0.370 J-5.398 F400.000
G1 X259.114 Y226.557 Z0.000 F400.000
G2 X254.415 Y231.932 Z0.000 I0.711 J5.363 F400.000
G1 X254.415 Y231.932 Z-0.250 F400.000
G2 X260.195 Y237.318 Z-0.250 I5.410 J-0.012 F400.000
G2 X259.688 Y226.512 Z-0.250 I-0.370 J-5.398 F400.000
G1 X259.114 Y226.557 Z-0.250 F400.000
G2 X254.415 Y231.932 Z-0.250 I0.711 J5.363 F400.000
G1 X254.415 Y231.932 Z-0.500 F400.000
G2 X260.195 Y237.318 Z-0.500 I5.410 J-0.012 F400.000
G2 X259.688 Y226.512 Z-0.500 I-0.370 J-5.398 F400.000
G1 X259.114 Y226.557 Z-0.500 F400.000
G2 X254.415 Y231.932 Z-0.500 I0.711 J5.363 F400.000
G1 X254.415 Y231.932 Z-0.750 F400.000
G2 X260.195 Y237.318 Z-0.750 I5.410 J-0.012 F400.000
G2 X259.688 Y226.512 Z-0.750 I-0.370 J-5.398 F400.000
G1 X259.114 Y226.557 Z-0.750 F400.000
G2 X254.415 Y231.932 Z-0.750 I0.711 J5.363 F400.000
G1 X254.415 Y231.932 Z-1.000 F400.000
G2 X260.195 Y237.318 Z-1.000 I5.410 J-0.012 F400.000
G2 X259.688 Y226.512 Z-1.000 I-0.370 J-5.398 F400.000
G1 X259.114 Y226.557 Z-1.000 F400.000
G2 X254.415 Y231.932 Z-1.000 I0.711 J5.363 F400.000
G1 X254.415 Y231.932 Z-1.250 F400.000
G2 X260.195 Y237.318 Z-1.250 I5.410 J-0.012 F400.000
G2 X259.688 Y226.512 Z-1.250 I-0.370 J-5.398 F400.000
G1 X259.114 Y226.557 Z-1.250 F400.000
G2 X254.415 Y231.932 Z-1.250 I0.711 J5.363 F400.000
G1 X254.415 Y231.932 Z-1.500 F400.000
G2 X260.195 Y237.318 Z-1.500 I5.410 J-0.012 F400.000
G2 X259.688 Y226.512 Z-1.500 I-0.370 J-5.398 F400.000
G1 X259.114 Y226.557 Z-1.500 F400.000
G2 X254.415 Y231.932 Z-1.500 I0.711 J5.363 F400.000
G1 X254.415 Y231.932 Z-1.750 F400.000
G2 X260.195 Y237.318 Z-1.750 I5.410 J-0.012 F400.000
G2 X259.688 Y226.512 Z-1.750 I-0.370 J-5.398 F400.000
G1 X259.114 Y226.557 Z-1.750 F400.000
G2 X254.415 Y231.932 Z-1.750 I0.711 J5.363 F400.000
G1 X254.415 Y231.932 Z-2.000 F400.000
G2 X260.195 Y237.318 Z-2.000 I5.410 J-0.012 F400.000
G2 X259.688 Y226.512 Z-2.000 I-0.370 J-5.398 F400.000
G1 X259.114 Y226.557 Z-2.000 F400.000
G2 X254.415 Y231.932 Z-2.000 I0.711 J5.363 F400.000
G1 X254.415 Y231.932 Z-2.250 F400.000
G2 X260.195 Y237.318 Z-2.250 I5.410 J-0.012 F400.000
G2 X259.688 Y226.512 Z-2.250 I-0.370 J-5.398 F400.000
G1 X259.114 Y226.557 Z-2.250 F400.000
G2 X254.415 Y231.932 Z-2.250 I0.711 J5.363 F400.000
G1 X254.415 Y231.932 Z-2.500 F400.000
G2 X260.195 Y237.318 Z-2.500 I5.410 J-0.012 F400.000
G2 X259.688 Y226.512 Z-2.500 I-0.370 J-5.398 F400.000
G1 X259.114 Y226.557 Z-2.500 F400.000
G2 X254.415 Y231.932 Z-2.500 I0.711 J5.363 F400.000
G1 X254.415 Y231.932 Z-2.750 F400.000
G2 X260.195 Y237.318 Z-2.750 I5.410 J-0.012 F400.000
G2 X259.688 Y226.512 Z-2.750 I-0.370 J-5.398 F400.000
G1 X259.114 Y226.557 Z-2.750 F400.000
G2 X254.415 Y231.932 Z-2.750 I0.711 J5.363 F400.000
G1 X254.415 Y231.932 Z-3.000 F400.000
G2 X260.195 Y237.318 Z-3.000 I5.410 J-0.012 F400.000
G2 X259.688 Y226.512 Z-3.000 I-0.370 J-5.398 F400.000
G1 X259.114 Y226.557 Z-3.000 F400.000
G2 X254.415 Y231.932 Z-3.000 I0.711 J5.363 F400.000
G1 X254.415 Y231.932 Z-3.250 F400.000
G2 X260.195 Y237.318 Z-3.250 I5.410 J-0.012 F400.000
G2 X259.688 Y226.512 Z-3.250 I-0.370 J-5.398 F400.000
G1 X259.114 Y226.557 Z-3.250 F400.000
G2 X254.415 Y231.932 Z-3.250 I0.711 J5.363 F400.000
G1 X254.415 Y231.932 Z-3.420 F400.000
G2 X260.195 Y237.318 Z-3.420 I5.410 J-0.012 F400.000
G2 X259.688 Y226.512 Z-3.420 I-0.370 J-5.398 F400.000
G1 X259.114 Y226.557 Z-3.420 F400.000
G2 X254.415 Y231.932 Z-3.420 I0.711 J5.363 F400.000
G0 Z5.250
G0 Z5.250
G0 X254.415 Y231.932
G0 X276.207 Y252.642
G0 X276.207 Y252.642 Z3.250
G1 X276.207 Y252.642 Z0.000 F400.000
G2 X276.345 Y253.295 Z0.000 I0.293 J0.279 F400.000
G2 X276.874 Y253.076 Z0.000 I0.155 J-0.374 F400.000
G2 X276.655 Y252.547 Z0.000 I-0.374 J-0.155 F400.000
G2 X276.207 Y252.642 Z0.000 I-0.155 J0.374 F400.000
G1 X276.207 Y252.642 Z-0.250 F400.000
G2 X276.345 Y253.295 Z-0.250 I0.293 J0.279 F400.000
G2 X276.874 Y253.076 Z-0.250 I0.155 J-0.374 F400.000
G2 X276.655 Y252.547 Z-0.250 I-0.374 J-0.155 F400.000
G2 X276.207 Y252.642 Z-0.250 I-0.155 J0.374 F400.000
G1 X276.207 Y252.642 Z-0.500 F400.000
G2 X276.345 Y253.295 Z-0.500 I0.293 J0.279 F400.000
G2 X276.874 Y253.076 Z-0.500 I0.155 J-0.374 F400.000
G2 X276.655 Y252.547 Z-0.500 I-0.374 J-0.155 F400.000
G2 X276.207 Y252.642 Z-0.500 I-0.155 J0.374 F400.000
G1 X276.207 Y252.642 Z-0.750 F400.000
G2 X276.345 Y253.295 Z-0.750 I0.293 J0.279 F400.000
G2 X276.874 Y253.076 Z-0.750 I0.155 J-0.374 F400.000
G2 X276.655 Y252.547 Z-0.750 I-0.374 J-0.155 F400.000
G2 X276.207 Y252.642 Z-0.750 I-0.155 J0.374 F400.000
G1 X276.207 Y252.642 Z-1.000 F400.000
G2 X276.345 Y253.295 Z-1.000 I0.293 J0.279 F400.000
G2 X276.874 Y253.076 Z-1.000 I0.155 J-0.374 F400.000
G2 X276.655 Y252.547 Z-1.000 I-0.374 J-0.155 F400.000
G2 X276.207 Y252.642 Z-1.000 I-0.155 J0.374 F400.000
G1 X276.207 Y252.642 Z-1.250 F400.000
G2 X276.345 Y253.295 Z-1.250 I0.293 J0.279 F400.000
G2 X276.874 Y253.076 Z-1.250 I0.155 J-0.374 F400.000
G2 X276.655 Y252.547 Z-1.250 I-0.374 J-0.155 F400.000
G2 X276.207 Y252.642 Z-1.250 I-0.155 J0.374 F400.000
G1 X276.207 Y252.642 Z-1.500 F400.000
G2 X276.345 Y253.295 Z-1.500 I0.293 J0.279 F400.000
G2 X276.874 Y253.076 Z-1.500 I0.155 J-0.374 F400.000
G2 X276.655 Y252.547 Z-1.500 I-0.374 J-0.155 F400.000
G2 X276.207 Y252.642 Z-1.500 I-0.155 J0.374 F400.000
G1 X276.207 Y252.642 Z-1.750 F400.000
G2 X276.345 Y253.295 Z-1.750 I0.293 J0.279 F400.000
G2 X276.874 Y253.076 Z-1.750 I0.155 J-0.374 F400.000
G2 X276.655 Y252.547 Z-1.750 I-0.374 J-0.155 F400.000
G2 X276.207 Y252.642 Z-1.750 I-0.155 J0.374 F400.000
G1 X276.207 Y252.642 Z-2.000 F400.000
G2 X276.345 Y253.295 Z-2.000 I0.293 J0.279 F400.000
G2 X276.874 Y253.076 Z-2.000 I0.155 J-0.374 F400.000
G2 X276.655 Y252.547 Z-2.000 I-0.374 J-0.155 F400.000
G2 X276.207 Y252.642 Z-2.000 I-0.155 J0.374 F400.000
G1 X276.207 Y252.642 Z-2.250 F400.000
G2 X276.345 Y253.295 Z-2.250 I0.293 J0.279 F400.000
G2 X276.874 Y253.076 Z-2.250 I0.155 J-0.374 F400.000
G2 X276.655 Y252.547 Z-2.250 I-0.374 J-0.155 F400.000
G2 X276.207 Y252.642 Z-2.250 I-0.155 J0.374 F400.000
G1 X276.207 Y252.642 Z-2.500 F400.000
G2 X276.345 Y253.295 Z-2.500 I0.293 J0.279 F400.000
G2 X276.874 Y253.076 Z-2.500 I0.155 J-0.374 F400.000
G2 X276.655 Y252.547 Z-2.500 I-0.374 J-0.155 F400.000
G2 X276.207 Y252.642 Z-2.500 I-0.155 J0.374 F400.000
G1 X276.207 Y252.642 Z-2.750 F400.000
G2 X276.345 Y253.295 Z-2.750 I0.293 J0.279 F400.000
G2 X276.874 Y253.076 Z-2.750 I0.155 J-0.374 F400.000
G2 X276.655 Y252.547 Z-2.750 I-0.374 J-0.155 F400.000
G2 X276.207 Y252.642 Z-2.750 I-0.155 J0.374 F400.000
G1 X276.207 Y252.642 Z-3.000 F400.000
G2 X276.345 Y253.295 Z-3.000 I0.293 J0.279 F400.000
G2 X276.874 Y253.076 Z-3.000 I0.155 J-0.374 F400.000
G2 X276.655 Y252.547 Z-3.000 I-0.374 J-0.155 F400.000
G2 X276.207 Y252.642 Z-3.000 I-0.155 J0.374 F400.000
G1 X276.207 Y252.642 Z-3.250 F400.000
G2 X276.345 Y253.295 Z-3.250 I0.293 J0.279 F400.000
G2 X276.874 Y253.076 Z-3.250 I0.155 J-0.374 F400.000
G2 X276.655 Y252.547 Z-3.250 I-0.374 J-0.155 F400.000
G2 X276.207 Y252.642 Z-3.250 I-0.155 J0.374 F400.000
G1 X276.207 Y252.642 Z-3.420 F400.000
G2 X276.345 Y253.295 Z-3.420 I0.293 J0.279 F400.000
G2 X276.874 Y253.076 Z-3.420 I0.155 J-0.374 F400.000
G2 X276.655 Y252.547 Z-3.420 I-0.374 J-0.155 F400.000
G2 X276.207 Y252.642 Z-3.420 I-0.155 J0.374 F400.000
G0 Z5.250
G0 Z5.250
G0 X276.207 Y252.642
G0 X261.115 Y191.175
G0 X261.115 Y191.175 Z3.250
G1 X261.115 Y191.175 Z0.000 F400.000
G2 X259.770 Y180.511 Z0.000 I-1.290 J-5.254 F400.000
G1 X259.196 Y180.547 Z0.000 F400.000
G2 X260.170 Y191.320 Z0.000 I0.629 J5.374 F400.000
G2 X261.115 Y191.175 Z0.000 I-0.345 J-5.399 F400.000
G1 X261.115 Y191.175 Z-0.250 F400.000
G2 X259.770 Y180.511 Z-0.250 I-1.290 J-5.254 F400.000
G1 X259.196 Y180.547 Z-0.250 F400.000
G2 X260.170 Y191.320 Z-0.250 I0.629 J5.374 F400.000
G2 X261.115 Y191.175 Z-0.250 I-0.345 J-5.399 F400.000
G1 X261.115 Y191.175 Z-0.500 F400.000
G2 X259.770 Y180.511 Z-0.500 I-1.290 J-5.254 F400.000
G1 X259.196 Y180.547 Z-0.500 F400.000
G2 X260.170 Y191.320 Z-0.500 I0.629 J5.374 F400.000
G2 X261.115 Y191.175 Z-0.500 I-0.345 J-5.399 F400.000
G1 X261.115 Y191.175 Z-0.750 F400.000
G2 X259.770 Y180.511 Z-0.750 I-1.290 J-5.254 F400.000
G1 X259.196 Y180.547 Z-0.750 F400.000
G2 X260.170 Y191.320 Z-0.750 I0.629 J5.374 F400.000
G2 X261.115 Y191.175 Z-0.750 I-0.345 J-5.399 F400.000
G1 X261.115 Y191.175 Z-1.000 F400.000
G2 X259.770 Y180.511 Z-1.000 I-1.290 J-5.254 F400.000
G1 X259.196 Y180.547 Z-1.000 F400.000
G2 X260.170 Y191.320 Z-1.000 I0.629 J5.374 F400.000
G2 X261.115 Y191.175 Z-1.000 I-0.345 J-5.399 F400.000
G1 X261.115 Y191.175 Z-1.250 F400.000
G2 X259.770 Y180.511 Z-1.250 I-1.290 J-5.254 F400.000
G1 X259.196 Y180.547 Z-1.250 F400.000
G2 X260.170 Y191.320 Z-1.250 I0.629 J5.374 F400.000
G2 X261.115 Y191.175 Z-1.250 I-0.345 J-5.399 F400.000
G1 X261.115 Y191.175 Z-1.500 F400.000
G2 X259.770 Y180.511 Z-1.500 I-1.290 J-5.254 F400.000
G1 X259.196 Y180.547 Z-1.500 F400.000
G2 X260.170 Y191.320 Z-1.500 I0.629 J5.374 F400.000
G2 X261.115 Y191.175 Z-1.500 I-0.345 J-5.399 F400.000
G1 X261.115 Y191.175 Z-1.750 F400.000
G2 X259.770 Y180.511 Z-1.750 I-1.290 J-5.254 F400.000
G1 X259.196 Y180.547 Z-1.750 F400.000
G2 X260.170 Y191.320 Z-1.750 I0.629 J5.374 F400.000
G2 X261.115 Y191.175 Z-1.750 I-0.345 J-5.399 F400.000
G1 X261.115 Y191.175 Z-2.000 F400.000
G2 X259.770 Y180.511 Z-2.000 I-1.290 J-5.254 F400.000
G1 X259.196 Y180.547 Z-2.000 F400.000
G2 X260.170 Y191.320 Z-2.000 I0.629 J5.374 F400.000
G2 X261.115 Y191.175 Z-2.000 I-0.345 J-5.399 F400.000
G1 X261.115 Y191.175 Z-2.250 F400.000
G2 X259.770 Y180.511 Z-2.250 I-1.290 J-5.254 F400.000
G1 X259.196 Y180.547 Z-2.250 F400.000
G2 X260.170 Y191.320 Z-2.250 I0.629 J5.374 F400.000
G2 X261.115 Y191.175 Z-2.250 I-0.345 J-5.399 F400.000
G1 X261.115 Y191.175 Z-2.500 F400.000
G2 X259.770 Y180.511 Z-2.500 I-1.290 J-5.254 F400.000
G1 X259.196 Y180.547 Z-2.500 F400.000
G2 X260.170 Y191.320 Z-2.500 I0.629 J5.374 F400.000
G2 X261.115 Y191.175 Z-2.500 I-0.345 J-5.399 F400.000
G1 X261.115 Y191.175 Z-2.750 F400.000
G2 X259.770 Y180.511 Z-2.750 I-1.290 J-5.254 F400.000
G1 X259.196 Y180.547 Z-2.750 F400.000
G2 X260.170 Y191.320 Z-2.750 I0.629 J5.374 F400.000
G2 X261.115 Y191.175 Z-2.750 I-0.345 J-5.399 F400.000
G1 X261.115 Y191.175 Z-3.000 F400.000
G2 X259.770 Y180.511 Z-3.000 I-1.290 J-5.254 F400.000
G1 X259.196 Y180.547 Z-3.000 F400.000
G2 X260.170 Y191.320 Z-3.000 I0.629 J5.374 F400.000
G2 X261.115 Y191.175 Z-3.000 I-0.345 J-5.399 F400.000
G1 X261.115 Y191.175 Z-3.250 F400.000
G2 X259.770 Y180.511 Z-3.250 I-1.290 J-5.254 F400.000
G1 X259.196 Y180.547 Z-3.250 F400.000
G2 X260.170 Y191.320 Z-3.250 I0.629 J5.374 F400.000
G2 X261.115 Y191.175 Z-3.250 I-0.345 J-5.399 F400.000
G1 X261.115 Y191.175 Z-3.420 F400.000
G2 X259.770 Y180.511 Z-3.420 I-1.290 J-5.254 F400.000
G1 X259.196 Y180.547 Z-3.420 F400.000
G2 X260.170 Y191.320 Z-3.420 I0.629 J5.374 F400.000
G2 X261.115 Y191.175 Z-3.420 I-0.345 J-5.399 F400.000
G0 Z5.250
G0 Z5.250
G0 X261.115 Y191.175
G0 X227.900 Y185.983
G0 X227.900 Y185.983 Z3.250
G1 X227.900 Y185.983 Z0.000 F400.000
G2 X227.655 Y185.547 Z0.000 I-0.400 J-0.063 F400.000
G2 X227.126 Y185.766 Z0.000 I-0.155 J0.374 F400.000
G2 X227.345 Y186.295 Z0.000 I0.374 J0.155 F400.000
G2 X227.900 Y185.983 Z0.000 I0.155 J-0.374 F400.000
G1 X227.900 Y185.983 Z-0.250 F400.000
G2 X227.655 Y185.547 Z-0.250 I-0.400 J-0.063 F400.000
G2 X227.126 Y185.766 Z-0.250 I-0.155 J0.374 F400.000
G2 X227.345 Y186.295 Z-0.250 I0.374 J0.155 F400.000
G2 X227.900 Y185.983 Z-0.250 I0.155 J-0.374 F400.000
G1 X227.900 Y185.983 Z-0.500 F400.000
G2 X227.655 Y185.547 Z-0.500 I-0.400 J-0.063 F400.000
G2 X227.126 Y185.766 Z-0.500 I-0.155 J0.374 F400.000
G2 X227.345 Y186.295 Z-0.500 I0.374 J0.155 F400.000
G2 X227.900 Y185.983 Z-0.500 I0.155 J-0.374 F400.000
G1 X227.900 Y185.983 Z-0.750 F400.000
G2 X227.655 Y185.547 Z-0.750 I-0.400 J-0.063 F400.000
G2 X227.126 Y185.766 Z-0.750 I-0.155 J0.374 F400.000
G2 X227.345 Y186.295 Z-0.750 I0.374 J0.155 F400.000
G2 X227.900 Y185.983 Z-0.750 I0.155 J-0.374 F400.000
G1 X227.900 Y185.983 Z-1.000 F400.000
G2 X227.655 Y185.547 Z-1.000 I-0.400 J-0.063 F400.000
G2 X227.126 Y185.766 Z-1.000 I-0.155 J0.374 F400.000
G2 X227.345 Y186.295 Z-1.000 I0.374 J0.155 F400.000
G2 X227.900 Y185.983 Z-1.000 I0.155 J-0.374 F400.000
G1 X227.900 Y185.983 Z-1.250 F400.000
G2 X227.655 Y185.547 Z-1.250 I-0.400 J-0.063 F400.000
G2 X227.126 Y185.766 Z-1.250 I-0.155 J0.374 F400.000
G2 X227.345 Y186.295 Z-1.250 I0.374 J0.155 F400.000
G2 X227.900 Y185.983 Z-1.250 I0.155 J-0.374 F400.000
G1 X227.900 Y185.983 Z-1.500 F400.000
G2 X227.655 Y185.547 Z-1.500 I-0.400 J-0.063 F400.000
G2 X227.126 Y185.766 Z-1.500 I-0.155 J0.374 F400.000
G2 X227.345 Y186.295 Z-1.500 I0.374 J0.155 F400.000
G2 X227.900 Y185.983 Z-1.500 I0.155 J-0.374 F400.000
G1 X227.900 Y185.983 Z-1.750 F400.000
G2 X227.655 Y185.547 Z-1.750 I-0.400 J-0.063 F400.000
G2 X227.126 Y185.766 Z-1.750 I-0.155 J0.374 F400.000
G2 X227.345 Y186.295 Z-1.750 I0.374 J0.155 F400.000
G2 X227.900 Y185.983 Z-1.750 I0.155 J-0.374 F400.000
G1 X227.900 Y185.983 Z-2.000 F400.000
G2 X227.655 Y185.547 Z-2.000 I-0.400 J-0.063 F400.000
G2 X227.126 Y185.766 Z-2.000 I-0.155 J0.374 F400.000
G2 X227.345 Y186.295 Z-2.000 I0.374 J0.155 F400.000
G2 X227.900 Y185.983 Z-2.000 I0.155 J-0.374 F400.000
G1 X227.900 Y185.983 Z-2.250 F400.000
G2 X227.655 Y185.547 Z-2.250 I-0.400 J-0.063 F400.000
G2 X227.126 Y185.766 Z-2.250 I-0.155 J0.374 F400.000
G2 X227.345 Y186.295 Z-2.250 I0.374 J0.155 F400.000
G2 X227.900 Y185.983 Z-2.250 I0.155 J-0.374 F400.000
G1 X227.900 Y185.983 Z-2.500 F400.000
G2 X227.655 Y185.547 Z-2.500 I-0.400 J-0.063 F400.000
G2 X227.126 Y185.766 Z-2.500 I-0.155 J0.374 F400.000
G2 X227.345 Y186.295 Z-2.500 I0.374 J0.155 F400.000
G2 X227.900 Y185.983 Z-2.500 I0.155 J-0.374 F400.000
G1 X227.900 Y185.983 Z-2.750 F400.000
G2 X227.655 Y185.547 Z-2.750 I-0.400 J-0.063 F400.000
G2 X227.126 Y185.766 Z-2.750 I-0.155 J0.374 F400.000
G2 X227.345 Y186.295 Z-2.750 I0.374 J0.155 F400.000
G2 X227.900 Y185.983 Z-2.750 I0.155 J-0.374 F400.000
G1 X227.900 Y185.983 Z-3.000 F400.000
G2 X227.655 Y185.547 Z-3.000 I-0.400 J-0.063 F400.000
G2 X227.126 Y185.766 Z-3.000 I-0.155 J0.374 F400.000
G2 X227.345 Y186.295 Z-3.000 I0.374 J0.155 F400.000
G2 X227.900 Y185.983 Z-3.000 I0.155 J-0.374 F400.000
G1 X227.900 Y185.983 Z-3.250 F400.000
G2 X227.655 Y185.547 Z-3.250 I-0.400 J-0.063 F400.000
G2 X227.126 Y185.766 Z-3.250 I-0.155 J0.374 F400.000
G2 X227.345 Y186.295 Z-3.250 I0.374 J0.155 F400.000
G2 X227.900 Y185.983 Z-3.250 I0.155 J-0.374 F400.000
G1 X227.900 Y185.983 Z-3.420 F400.000
G2 X227.655 Y185.547 Z-3.420 I-0.400 J-0.063 F400.000
G2 X227.126 Y185.766 Z-3.420 I-0.155 J0.374 F400.000
G2 X227.345 Y186.295 Z-3.420 I0.374 J0.155 F400.000
G2 X227.900 Y185.983 Z-3.420 I0.155 J-0.374 F400.000
G0 Z5.250
G0 Z5.250
G0 X227.900 Y185.983
G0 X323.599 Y198.867
G0 X323.599 Y198.867 Z3.250
G1 X323.599 Y198.867 Z0.000 F400.000
G2 X323.845 Y199.295 Z0.000 I0.401 J0.054 F400.000
G2 X324.155 Y198.547 Z0.000 I0.155 J-0.374 F400.000
G2 X323.599 Y198.867 Z0.000 I-0.155 J0.374 F400.000
G1 X323.599 Y198.867 Z-0.250 F400.000
G2 X323.845 Y199.295 Z-0.250 I0.401 J0.054 F400.000
G2 X324.155 Y198.547 Z-0.250 I0.155 J-0.374 F400.000
G2 X323.599 Y198.867 Z-0.250 I-0.155 J0.374 F400.000
G1 X323.599 Y198.867 Z-0.500 F400.000
G2 X323.845 Y199.295 Z-0.500 I0.401 J0.054 F400.000
G2 X324.155 Y198.547 Z-0.500 I0.155 J-0.374 F400.000
G2 X323.599 Y198.867 Z-0.500 I-0.155 J0.374 F400.000
G1 X323.599 Y198.867 Z-0.750 F400.000
G2 X323.845 Y199.295 Z-0.750 I0.401 J0.054 F400.000
G2 X324.155 Y198.547 Z-0.750 I0.155 J-0.374 F400.000
G2 X323.599 Y198.867 Z-0.750 I-0.155 J0.374 F400.000
G1 X323.599 Y198.867 Z-1.000 F400.000
G2 X323.845 Y199.295 Z-1.000 I0.401 J0.054 F400.000
G2 X324.155 Y198.547 Z-1.000 I0.155 J-0.374 F400.000
G2 X323.599 Y198.867 Z-1.000 I-0.155 J0.374 F400.000
G1 X323.599 Y198.867 Z-1.250 F400.000
G2 X323.845 Y199.295 Z-1.250 I0.401 J0.054 F400.000
G2 X324.155 Y198.547 Z-1.250 I0.155 J-0.374 F400.000
G2 X323.599 Y198.867 Z-1.250 I-0.155 J0.374 F400.000
G1 X323.599 Y198.867 Z-1.500 F400.000
G2 X323.845 Y199.295 Z-1.500 I0.401 J0.054 F400.000
G2 X324.155 Y198.547 Z-1.500 I0.155 J-0.374 F400.000
G2 X323.599 Y198.867 Z-1.500 I-0.155 J0.374 F400.000
G1 X323.599 Y198.867 Z-1.750 F400.000
G2 X323.845 Y199.295 Z-1.750 I0.401 J0.054 F400.000
G2 X324.155 Y198.547 Z-1.750 I0.155 J-0.374 F400.000
G2 X323.599 Y198.867 Z-1.750 I-0.155 J0.374 F400.000
G1 X323.599 Y198.867 Z-2.000 F400.000
G2 X323.845 Y199.295 Z-2.000 I0.401 J0.054 F400.000
G2 X324.155 Y198.547 Z-2.000 I0.155 J-0.374 F400.000
G2 X323.599 Y198.867 Z-2.000 I-0.155 J0.374 F400.000
G1 X323.599 Y198.867 Z-2.250 F400.000
G2 X323.845 Y199.295 Z-2.250 I0.401 J0.054 F400.000
G2 X324.155 Y198.547 Z-2.250 I0.155 J-0.374 F400.000
G2 X323.599 Y198.867 Z-2.250 I-0.155 J0.374 F400.000
G1 X323.599 Y198.867 Z-2.500 F400.000
G2 X323.845 Y199.295 Z-2.500 I0.401 J0.054 F400.000
G2 X324.155 Y198.547 Z-2.500 I0.155 J-0.374 F400.000
G2 X323.599 Y198.867 Z-2.500 I-0.155 J0.374 F400.000
G1 X323.599 Y198.867 Z-2.750 F400.000
G2 X323.845 Y199.295 Z-2.750 I0.401 J0.054 F400.000
G2 X324.155 Y198.547 Z-2.750 I0.155 J-0.374 F400.000
G2 X323.599 Y198.867 Z-2.750 I-0.155 J0.374 F400.000
G1 X323.599 Y198.867 Z-3.000 F400.000
G2 X323.845 Y199.295 Z-3.000 I0.401 J0.054 F400.000
G2 X324.155 Y198.547 Z-3.000 I0.155 J-0.374 F400.000
G2 X323.599 Y198.867 Z-3.000 I-0.155 J0.374 F400.000
G1 X323.599 Y198.867 Z-3.250 F400.000
G2 X323.845 Y199.295 Z-3.250 I0.401 J0.054 F400.000
G2 X324.155 Y198.547 Z-3.250 I0.155 J-0.374 F400.000
G2 X323.599 Y198.867 Z-3.250 I-0.155 J0.374 F400.000
G1 X323.599 Y198.867 Z-3.420 F400.000
G2 X323.845 Y199.295 Z-3.420 I0.401 J0.054 F400.000
G2 X324.155 Y198.547 Z-3.420 I0.155 J-0.374 F400.000
G2 X323.599 Y198.867 Z-3.420 I-0.155 J0.374 F400.000
G0 Z5.250
G0 Z5.250
G0 X323.599 Y198.867
G0 X369.537 Y252.613
G0 X369.537 Y252.613 Z3.250
G1 X369.537 Y252.613 Z0.000 F400.000
G2 X369.645 Y253.295 Z0.000 I0.263 J0.308 F400.000
G2 X369.955 Y252.547 Z0.000 I0.155 J-0.374 F400.000
G2 X369.537 Y252.613 Z0.000 I-0.155 J0.374 F400.000
G1 X369.537 Y252.613 Z-0.250 F400.000
G2 X369.645 Y253.295 Z-0.250 I0.263 J0.308 F400.000
G2 X369.955 Y252.547 Z-0.250 I0.155 J-0.374 F400.000
G2 X369.537 Y252.613 Z-0.250 I-0.155 J0.374 F400.000
G1 X369.537 Y252.613 Z-0.500 F400.000
G2 X369.645 Y253.295 Z-0.500 I0.263 J0.308 F400.000
G2 X369.955 Y252.547 Z-0.500 I0.155 J-0.374 F400.000
G2 X369.537 Y252.613 Z-0.500 I-0.155 J0.374 F400.000
G1 X369.537 Y252.613 Z-0.750 F400.000
G2 X369.645 Y253.295 Z-0.750 I0.263 J0.308 F400.000
G2 X369.955 Y252.547 Z-0.750 I0.155 J-0.374 F400.000
G2 X369.537 Y252.613 Z-0.750 I-0.155 J0.374 F400.000
G1 X369.537 Y252.613 Z-1.000 F400.000
G2 X369.645 Y253.295 Z-1.000 I0.263 J0.308 F400.000
G2 X369.955 Y252.547 Z-1.000 I0.155 J-0.374 F400.000
G2 X369.537 Y252.613 Z-1.000 I-0.155 J0.374 F400.000
G1 X369.537 Y252.613 Z-1.250 F400.000
G2 X369.645 Y253.295 Z-1.250 I0.263 J0.308 F400.000
G2 X369.955 Y252.547 Z-1.250 I0.155 J-0.374 F400.000
G2 X369.537 Y252.613 Z-1.250 I-0.155 J0.374 F400.000
G1 X369.537 Y252.613 Z-1.500 F400.000
G2 X369.645 Y253.295 Z-1.500 I0.263 J0.308 F400.000
G2 X369.955 Y252.547 Z-1.500 I0.155 J-0.374 F400.000
G2 X369.537 Y252.613 Z-1.500 I-0.155 J0.374 F400.000
G1 X369.537 Y252.613 Z-1.750 F400.000
G2 X369.645 Y253.295 Z-1.750 I0.263 J0.308 F400.000
G2 X369.955 Y252.547 Z-1.750 I0.155 J-0.374 F400.000
G2 X369.537 Y252.613 Z-1.750 I-0.155 J0.374 F400.000
G1 X369.537 Y252.613 Z-2.000 F400.000
G2 X369.645 Y253.295 Z-2.000 I0.263 J0.308 F400.000
G2 X369.955 Y252.547 Z-2.000 I0.155 J-0.374 F400.000
G2 X369.537 Y252.613 Z-2.000 I-0.155 J0.374 F400.000
G1 X369.537 Y252.613 Z-2.250 F400.000
G2 X369.645 Y253.295 Z-2.250 I0.263 J0.308 F400.000
G2 X369.955 Y252.547 Z-2.250 I0.155 J-0.374 F400.000
G2 X369.537 Y252.613 Z-2.250 I-0.155 J0.374 F400.000
G1 X369.537 Y252.613 Z-2.500 F400.000
G2 X369.645 Y253.295 Z-2.500 I0.263 J0.308 F400.000
G2 X369.955 Y252.547 Z-2.500 I0.155 J-0.374 F400.000
G2 X369.537 Y252.613 Z-2.500 I-0.155 J0.374 F400.000
G1 X369.537 Y252.613 Z-2.750 F400.000
G2 X369.645 Y253.295 Z-2.750 I0.263 J0.308 F400.000
G2 X369.955 Y252.547 Z-2.750 I0.155 J-0.374 F400.000
G2 X369.537 Y252.613 Z-2.750 I-0.155 J0.374 F400.000
G1 X369.537 Y252.613 Z-3.000 F400.000
G2 X369.645 Y253.295 Z-3.000 I0.263 J0.308 F400.000
G2 X369.955 Y252.547 Z-3.000 I0.155 J-0.374 F400.000
G2 X369.537 Y252.613 Z-3.000 I-0.155 J0.374 F400.000
G1 X369.537 Y252.613 Z-3.250 F400.000
G2 X369.645 Y253.295 Z-3.250 I0.263 J0.308 F400.000
G2 X369.955 Y252.547 Z-3.250 I0.155 J-0.374 F400.000
G2 X369.537 Y252.613 Z-3.250 I-0.155 J0.374 F400.000
G1 X369.537 Y252.613 Z-3.420 F400.000
G2 X369.645 Y253.295 Z-3.420 I0.263 J0.308 F400.000
G2 X369.955 Y252.547 Z-3.420 I0.155 J-0.374 F400.000
G2 X369.537 Y252.613 Z-3.420 I-0.155 J0.374 F400.000
G0 Z5.250
G0 Z5.250
(finish operation: Profile006)
(begin operation: Profile007)
(machine: not set, mm/min)
(Profile007)
(Compensated Tool Path. Diameter: 3.175)
G0 Z5.250
G0 X375.164 Y258.285
G0 Z3.250
G1 X375.164 Y258.285 Z0.000 F400.000
G2 X377.385 Y253.010 Z0.000 I-5.367 J-5.365 F400.000
G1 X377.387 Y164.921 Z0.000 F400.000
G2 X369.889 Y157.336 Z0.000 I-7.589 J0.003 F400.000
G1 X12.500 Y157.333 Z0.000 F400.000
G2 X4.915 Y164.832 Z0.000 I0.003 J7.589 F400.000
G1 X4.912 Y252.921 Z0.000 F400.000
G2 X12.411 Y260.506 Z0.000 I7.589 J-0.003 F400.000
G1 X49.850 Y260.508 Z0.000 F400.000
G1 X50.301 Y260.443 Z0.000 F400.000
G1 X73.724 Y253.508 Z0.000 F400.000
G1 X84.626 Y253.508 Z0.000 F400.000
G1 X108.049 Y260.443 Z0.000 F400.000
G1 X108.500 Y260.508 Z0.000 F400.000
G1 X369.800 Y260.508 Z0.000 F400.000
G2 X375.164 Y258.285 Z0.000 I-0.003 J-7.589 F400.000
G1 X375.164 Y258.285 Z-0.250 F400.000
G2 X377.385 Y253.010 Z-0.250 I-5.367 J-5.365 F400.000
G1 X377.387 Y164.921 Z-0.250 F400.000
G2 X369.889 Y157.336 Z-0.250 I-7.589 J0.003 F400.000
G1 X12.500 Y157.333 Z-0.250 F400.000
G2 X4.915 Y164.832 Z-0.250 I0.003 J7.589 F400.000
G1 X4.912 Y252.921 Z-0.250 F400.000
G2 X12.411 Y260.506 Z-0.250 I7.589 J-0.003 F400.000
G1 X49.850 Y260.508 Z-0.250 F400.000
G1 X50.301 Y260.443 Z-0.250 F400.000
G1 X73.724 Y253.508 Z-0.250 F400.000
G1 X84.626 Y253.508 Z-0.250 F400.000
G1 X108.049 Y260.443 Z-0.250 F400.000
G1 X108.500 Y260.508 Z-0.250 F400.000
G1 X369.800 Y260.508 Z-0.250 F400.000
G2 X375.164 Y258.285 Z-0.250 I-0.003 J-7.589 F400.000
G1 X375.164 Y258.285 Z-0.500 F400.000
G2 X377.385 Y253.010 Z-0.500 I-5.367 J-5.365 F400.000
G1 X377.387 Y164.921 Z-0.500 F400.000
G2 X369.889 Y157.336 Z-0.500 I-7.589 J0.003 F400.000
G1 X12.500 Y157.333 Z-0.500 F400.000
G2 X4.915 Y164.832 Z-0.500 I0.003 J7.589 F400.000
G1 X4.912 Y252.921 Z-0.500 F400.000
G2 X12.411 Y260.506 Z-0.500 I7.589 J-0.003 F400.000
G1 X49.850 Y260.508 Z-0.500 F400.000
G1 X50.301 Y260.443 Z-0.500 F400.000
G1 X73.724 Y253.508 Z-0.500 F400.000
G1 X84.626 Y253.508 Z-0.500 F400.000
G1 X108.049 Y260.443 Z-0.500 F400.000
G1 X108.500 Y260.508 Z-0.500 F400.000
G1 X369.800 Y260.508 Z-0.500 F400.000
G2 X375.164 Y258.285 Z-0.500 I-0.003 J-7.589 F400.000
G1 X375.164 Y258.285 Z-0.750 F400.000
G2 X377.385 Y253.010 Z-0.750 I-5.367 J-5.365 F400.000
G1 X377.387 Y164.921 Z-0.750 F400.000
G2 X369.889 Y157.336 Z-0.750 I-7.589 J0.003 F400.000
G1 X12.500 Y157.333 Z-0.750 F400.000
G2 X4.915 Y164.832 Z-0.750 I0.003 J7.589 F400.000
G1 X4.912 Y252.921 Z-0.750 F400.000
G2 X12.411 Y260.506 Z-0.750 I7.589 J-0.003 F400.000
G1 X49.850 Y260.508 Z-0.750 F400.000
G1 X50.301 Y260.443 Z-0.750 F400.000
G1 X73.724 Y253.508 Z-0.750 F400.000
G1 X84.626 Y253.508 Z-0.750 F400.000
G1 X108.049 Y260.443 Z-0.750 F400.000
G1 X108.500 Y260.508 Z-0.750 F400.000
G1 X369.800 Y260.508 Z-0.750 F400.000
G2 X375.164 Y258.285 Z-0.750 I-0.003 J-7.589 F400.000
G1 X375.164 Y258.285 Z-1.000 F400.000
G2 X377.385 Y253.010 Z-1.000 I-5.367 J-5.365 F400.000
G1 X377.387 Y164.921 Z-1.000 F400.000
G2 X369.889 Y157.336 Z-1.000 I-7.589 J0.003 F400.000
G1 X12.500 Y157.333 Z-1.000 F400.000
G2 X4.915 Y164.832 Z-1.000 I0.003 J7.589 F400.000
G1 X4.912 Y252.921 Z-1.000 F400.000
G2 X12.411 Y260.506 Z-1.000 I7.589 J-0.003 F400.000
G1 X49.850 Y260.508 Z-1.000 F400.000
G1 X50.301 Y260.443 Z-1.000 F400.000
G1 X73.724 Y253.508 Z-1.000 F400.000
G1 X84.626 Y253.508 Z-1.000 F400.000
G1 X108.049 Y260.443 Z-1.000 F400.000
G1 X108.500 Y260.508 Z-1.000 F400.000
G1 X369.800 Y260.508 Z-1.000 F400.000
G2 X375.164 Y258.285 Z-1.000 I-0.003 J-7.589 F400.000
G1 X375.164 Y258.285 Z-1.250 F400.000
G2 X377.385 Y253.010 Z-1.250 I-5.367 J-5.365 F400.000
G1 X377.387 Y164.921 Z-1.250 F400.000
G2 X369.889 Y157.336 Z-1.250 I-7.589 J0.003 F400.000
G1 X12.500 Y157.333 Z-1.250 F400.000
G2 X4.915 Y164.832 Z-1.250 I0.003 J7.589 F400.000
G1 X4.912 Y252.921 Z-1.250 F400.000
G2 X12.411 Y260.506 Z-1.250 I7.589 J-0.003 F400.000
G1 X49.850 Y260.508 Z-1.250 F400.000
G1 X50.301 Y260.443 Z-1.250 F400.000
G1 X73.724 Y253.508 Z-1.250 F400.000
G1 X84.626 Y253.508 Z-1.250 F400.000
G1 X108.049 Y260.443 Z-1.250 F400.000
G1 X108.500 Y260.508 Z-1.250 F400.000
G1 X369.800 Y260.508 Z-1.250 F400.000
G2 X375.164 Y258.285 Z-1.250 I-0.003 J-7.589 F400.000
G1 X375.164 Y258.285 Z-1.500 F400.000
G2 X377.385 Y253.010 Z-1.500 I-5.367 J-5.365 F400.000
G1 X377.387 Y164.921 Z-1.500 F400.000
G2 X369.889 Y157.336 Z-1.500 I-7.589 J0.003 F400.000
G1 X12.500 Y157.333 Z-1.500 F400.000
G2 X4.915 Y164.832 Z-1.500 I0.003 J7.589 F400.000
G1 X4.912 Y252.921 Z-1.500 F400.000
G2 X12.411 Y260.506 Z-1.500 I7.589 J-0.003 F400.000
G1 X49.850 Y260.508 Z-1.500 F400.000
G1 X50.301 Y260.443 Z-1.500 F400.000
G1 X73.724 Y253.508 Z-1.500 F400.000
G1 X84.626 Y253.508 Z-1.500 F400.000
G1 X108.049 Y260.443 Z-1.500 F400.000
G1 X108.500 Y260.508 Z-1.500 F400.000
G1 X369.800 Y260.508 Z-1.500 F400.000
G2 X375.164 Y258.285 Z-1.500 I-0.003 J-7.589 F400.000
G1 X375.164 Y258.285 Z-1.750 F400.000
G2 X377.385 Y253.010 Z-1.750 I-5.367 J-5.365 F400.000
G1 X377.387 Y164.921 Z-1.750 F400.000
G2 X369.889 Y157.336 Z-1.750 I-7.589 J0.003 F400.000
G1 X12.500 Y157.333 Z-1.750 F400.000
G2 X4.915 Y164.832 Z-1.750 I0.003 J7.589 F400.000
G1 X4.912 Y252.921 Z-1.750 F400.000
G2 X12.411 Y260.506 Z-1.750 I7.589 J-0.003 F400.000
G1 X49.850 Y260.508 Z-1.750 F400.000
G1 X50.301 Y260.443 Z-1.750 F400.000
G1 X73.724 Y253.508 Z-1.750 F400.000
G1 X84.626 Y253.508 Z-1.750 F400.000
G1 X108.049 Y260.443 Z-1.750 F400.000
G1 X108.500 Y260.508 Z-1.750 F400.000
G1 X369.800 Y260.508 Z-1.750 F400.000
G2 X375.164 Y258.285 Z-1.750 I-0.003 J-7.589 F400.000
G1 X375.164 Y258.285 Z-2.000 F400.000
G2 X377.385 Y253.010 Z-2.000 I-5.367 J-5.365 F400.000
G1 X377.387 Y164.921 Z-2.000 F400.000
G2 X369.889 Y157.336 Z-2.000 I-7.589 J0.003 F400.000
G1 X12.500 Y157.333 Z-2.000 F400.000
G2 X4.915 Y164.832 Z-2.000 I0.003 J7.589 F400.000
G1 X4.912 Y252.921 Z-2.000 F400.000
G2 X12.411 Y260.506 Z-2.000 I7.589 J-0.003 F400.000
G1 X49.850 Y260.508 Z-2.000 F400.000
G1 X50.301 Y260.443 Z-2.000 F400.000
G1 X73.724 Y253.508 Z-2.000 F400.000
G1 X84.626 Y253.508 Z-2.000 F400.000
G1 X108.049 Y260.443 Z-2.000 F400.000
G1 X108.500 Y260.508 Z-2.000 F400.000
G1 X369.800 Y260.508 Z-2.000 F400.000
G2 X375.164 Y258.285 Z-2.000 I-0.003 J-7.589 F400.000
G1 X375.164 Y258.285 Z-2.250 F400.000
G2 X377.385 Y253.010 Z-2.250 I-5.367 J-5.365 F400.000
G1 X377.387 Y164.921 Z-2.250 F400.000
G2 X369.889 Y157.336 Z-2.250 I-7.589 J0.003 F400.000
G1 X12.500 Y157.333 Z-2.250 F400.000
G2 X4.915 Y164.832 Z-2.250 I0.003 J7.589 F400.000
G1 X4.912 Y252.921 Z-2.250 F400.000
G2 X12.411 Y260.506 Z-2.250 I7.589 J-0.003 F400.000
G1 X49.850 Y260.508 Z-2.250 F400.000
G1 X50.301 Y260.443 Z-2.250 F400.000
G1 X73.724 Y253.508 Z-2.250 F400.000
G1 X84.626 Y253.508 Z-2.250 F400.000
G1 X108.049 Y260.443 Z-2.250 F400.000
G1 X108.500 Y260.508 Z-2.250 F400.000
G1 X369.800 Y260.508 Z-2.250 F400.000
G2 X375.164 Y258.285 Z-2.250 I-0.003 J-7.589 F400.000
G1 X375.164 Y258.285 Z-2.500 F400.000
G2 X377.385 Y253.010 Z-2.500 I-5.367 J-5.365 F400.000
G1 X377.387 Y164.921 Z-2.500 F400.000
G2 X369.889 Y157.336 Z-2.500 I-7.589 J0.003 F400.000
G1 X12.500 Y157.333 Z-2.500 F400.000
G2 X4.915 Y164.832 Z-2.500 I0.003 J7.589 F400.000
G1 X4.912 Y252.921 Z-2.500 F400.000
G2 X12.411 Y260.506 Z-2.500 I7.589 J-0.003 F400.000
G1 X49.850 Y260.508 Z-2.500 F400.000
G1 X50.301 Y260.443 Z-2.500 F400.000
G1 X73.724 Y253.508 Z-2.500 F400.000
G1 X84.626 Y253.508 Z-2.500 F400.000
G1 X108.049 Y260.443 Z-2.500 F400.000
G1 X108.500 Y260.508 Z-2.500 F400.000
G1 X369.800 Y260.508 Z-2.500 F400.000
G2 X375.164 Y258.285 Z-2.500 I-0.003 J-7.589 F400.000
G1 X375.164 Y258.285 Z-2.750 F400.000
G2 X377.385 Y253.010 Z-2.750 I-5.367 J-5.365 F400.000
G1 X377.387 Y164.921 Z-2.750 F400.000
G2 X369.889 Y157.336 Z-2.750 I-7.589 J0.003 F400.000
G1 X12.500 Y157.333 Z-2.750 F400.000
G2 X4.915 Y164.832 Z-2.750 I0.003 J7.589 F400.000
G1 X4.912 Y252.921 Z-2.750 F400.000
G2 X12.411 Y260.506 Z-2.750 I7.589 J-0.003 F400.000
G1 X49.850 Y260.508 Z-2.750 F400.000
G1 X50.301 Y260.443 Z-2.750 F400.000
G1 X73.724 Y253.508 Z-2.750 F400.000
G1 X84.626 Y253.508 Z-2.750 F400.000
G1 X108.049 Y260.443 Z-2.750 F400.000
G1 X108.500 Y260.508 Z-2.750 F400.000
G1 X369.800 Y260.508 Z-2.750 F400.000
G2 X375.164 Y258.285 Z-2.750 I-0.003 J-7.589 F400.000
G1 X375.164 Y258.285 Z-3.000 F400.000
G2 X377.385 Y253.010 Z-3.000 I-5.367 J-5.365 F400.000
G1 X377.387 Y164.921 Z-3.000 F400.000
G2 X369.889 Y157.336 Z-3.000 I-7.589 J0.003 F400.000
G1 X12.500 Y157.333 Z-3.000 F400.000
G2 X4.915 Y164.832 Z-3.000 I0.003 J7.589 F400.000
G1 X4.912 Y252.921 Z-3.000 F400.000
G2 X12.411 Y260.506 Z-3.000 I7.589 J-0.003 F400.000
G1 X49.850 Y260.508 Z-3.000 F400.000
G1 X50.301 Y260.443 Z-3.000 F400.000
G1 X73.724 Y253.508 Z-3.000 F400.000
G1 X84.626 Y253.508 Z-3.000 F400.000
G1 X108.049 Y260.443 Z-3.000 F400.000
G1 X108.500 Y260.508 Z-3.000 F400.000
G1 X369.800 Y260.508 Z-3.000 F400.000
G2 X375.164 Y258.285 Z-3.000 I-0.003 J-7.589 F400.000
G1 X375.164 Y258.285 Z-3.250 F400.000
G2 X377.385 Y253.010 Z-3.250 I-5.367 J-5.365 F400.000
G1 X377.387 Y164.921 Z-3.250 F400.000
G2 X369.889 Y157.336 Z-3.250 I-7.589 J0.003 F400.000
G1 X12.500 Y157.333 Z-3.250 F400.000
G2 X4.915 Y164.832 Z-3.250 I0.003 J7.589 F400.000
G1 X4.912 Y252.921 Z-3.250 F400.000
G2 X12.411 Y260.506 Z-3.250 I7.589 J-0.003 F400.000
G1 X49.850 Y260.508 Z-3.250 F400.000
G1 X50.301 Y260.443 Z-3.250 F400.000
G1 X73.724 Y253.508 Z-3.250 F400.000
G1 X84.626 Y253.508 Z-3.250 F400.000
G1 X108.049 Y260.443 Z-3.250 F400.000
G1 X108.500 Y260.508 Z-3.250 F400.000
G1 X369.800 Y260.508 Z-3.250 F400.000
G2 X375.164 Y258.285 Z-3.250 I-0.003 J-7.589 F400.000
G1 X375.164 Y258.285 Z-3.420 F400.000
G2 X377.385 Y253.010 Z-3.420 I-5.367 J-5.365 F400.000
G1 X377.387 Y164.921 Z-3.420 F400.000
G2 X369.889 Y157.336 Z-3.420 I-7.589 J0.003 F400.000
G1 X12.500 Y157.333 Z-3.420 F400.000
G2 X4.915 Y164.832 Z-3.420 I0.003 J7.589 F400.000
G1 X4.912 Y252.921 Z-3.420 F400.000
G2 X12.411 Y260.506 Z-3.420 I7.589 J-0.003 F400.000
G1 X49.850 Y260.508 Z-3.420 F400.000
G1 X50.301 Y260.443 Z-3.420 F400.000
G1 X73.724 Y253.508 Z-3.420 F400.000
G1 X84.626 Y253.508 Z-3.420 F400.000
G1 X108.049 Y260.443 Z-3.420 F400.000
G1 X108.500 Y260.508 Z-3.420 F400.000
G1 X369.800 Y260.508 Z-3.420 F400.000
G2 X375.164 Y258.285 Z-3.420 I-0.003 J-7.589 F400.000
G0 Z5.250
G0 Z5.250
(finish operation: Profile007)
(begin postamble)
M05 M09
G17 G90 G80 G40
M30
